( pcb2gcode 2.5.0 )
( Software-independent Gcode )

G94 ( Millimeters per minute feed rate. )
G21 ( Units == Millimeters. )

G90 ( Absolute coordinates. )
G00 S24000 ( RPM spindle speed. )
G01 F100.00000 ( Feedrate. )


G00 Z35.00000 (Retract to tool change height)
T1
M5      (Spindle stop.)
G04 P1.00000 (Wait for spindle to stop)
(MSG, Change tool bit to mill diameter 1.00000mm)
M0      (Temporary machine stop.)
M3 ( Spindle on clockwise. )
G04 P1.00000 (Wait for spindle to get up to speed)
G04 P0 ( dwell for no time -- G64 should not smooth over this point )
G00 Z2.00000 ( retract )

G00 X-0.00000 Y-5.01744 ( rapid move to begin. )
G01 F100.00000
( Mill infeed pass 1/1 )
G01 Z-0.30000
G04 P0 ( dwell for no time -- G64 should not smooth over this point )
G01 F100.00000
G01 X-0.00000 Y-5.01744
G01 X-0.20290 Y-4.86603
G01 X-0.26673 Y-4.81381
G01 X-0.42842 Y-4.66512
G01 X-0.52525 Y-4.56443
G01 X-2.41976 Y-2.67564
G01 X-2.52834 Y-2.59817
G01 X-2.67198 Y-2.52931
G01 X-2.82344 Y-2.48747
G01 X-2.95125 Y-2.47477
G01 X-33.27016 Y-2.47406
G01 X-33.32678 Y-2.47874
G01 X-33.45426 Y-2.49954
G01 X-33.60263 Y-2.55161
G01 X-33.74751 Y-2.63454
G01 X-33.81065 Y-2.68679
G01 X-33.87595 Y-2.74597
G01 X-35.54626 Y-4.41853
G01 X-35.59548 Y-4.46415
G01 X-35.70115 Y-4.54370
G01 X-35.79139 Y-4.55696
G01 X-35.89932 Y-4.56471
G01 X-37.52817 Y-4.56471
G01 X-37.63190 Y-4.55755
G01 X-37.70114 Y-4.54797
G01 X-37.95585 Y-4.39176
G01 X-38.12624 Y-4.32054
G01 X-38.28316 Y-4.28231
G01 X-38.38405 Y-4.26974
G01 X-38.48997 Y-4.26352
G01 X-38.67401 Y-4.27784
G01 X-38.85369 Y-4.32059
G01 X-38.98123 Y-4.37213
G01 X-39.02426 Y-4.39143
G01 X-39.18146 Y-4.48823
G01 X-39.32235 Y-4.60898
G01 X-39.40475 Y-4.70154
G01 X-39.49959 Y-4.82148
G01 X-39.57602 Y-4.90710
G01 X-39.69626 Y-5.02813
G01 X-39.84701 Y-5.15788
G01 X-39.99964 Y-5.27449
G01 X-40.00442 Y-5.40840
G01 X-40.00020 Y-5.60245
G01 X-39.80586 Y-5.75780
G01 X-39.66995 Y-5.87583
G01 X-39.53477 Y-6.01904
G01 X-39.36365 Y-6.22592
G01 X-39.29273 Y-6.29879
G01 X-39.18161 Y-6.39196
G01 X-39.05093 Y-6.47334
G01 X-39.02433 Y-6.48873
G01 X-38.87046 Y-6.55290
G01 X-38.77259 Y-6.58050
G01 X-38.67399 Y-6.60174
G01 X-38.57810 Y-6.61165
G01 X-38.47650 Y-6.61622
G01 X-38.30589 Y-6.60222
G01 X-38.12644 Y-6.55884
G01 X-37.95563 Y-6.48871
G01 X-37.70081 Y-6.33192
G01 X-37.63190 Y-6.32239
G01 X-37.52817 Y-6.31523
G01 X-35.76038 Y-6.31568
G01 X-35.63427 Y-6.32930
G01 X-35.56442 Y-6.34268
G01 X-35.31987 Y-6.42810
G01 X-35.11969 Y-6.52564
G01 X-34.94829 Y-6.42409
G01 X-34.86508 Y-6.36732
G01 X-34.73074 Y-6.26158
G01 X-34.66320 Y-6.20113
G01 X-33.00766 Y-4.54772
G01 X-32.90778 Y-4.45585
G01 X-32.84136 Y-4.40078
G01 X-32.81352 Y-4.37954
G01 X-32.68175 Y-4.34838
G01 X-32.52028 Y-4.32303
G01 X-32.43770 Y-4.31531
G01 X-32.29999 Y-4.30997
G01 X-3.60997 Y-4.30997
G01 X-3.49240 Y-4.31396
G01 X-3.38338 Y-4.32397
G01 X-3.29778 Y-4.37431
G01 X-3.18734 Y-4.44906
G01 X-3.04305 Y-4.56585
G01 X-2.35565 Y-5.24937
G01 X-2.22781 Y-5.39372
G01 X-2.13594 Y-5.51927
G01 X-2.08679 Y-5.59628
G01 X-2.07782 Y-5.66433
G01 X-2.07010 Y-5.74690
G01 X-2.06497 Y-5.87997
G01 X-2.06497 Y-13.84998
G01 X-2.07414 Y-14.03218
G01 X-2.10541 Y-14.23733
G01 X-2.13924 Y-14.37582
G01 X-2.16131 Y-14.44907
G01 X-2.22847 Y-14.63070
G01 X-2.12725 Y-14.80972
G01 X-2.09535 Y-14.87962
G01 X-2.02303 Y-15.12052
G01 X-2.01298 Y-15.19039
G01 X-2.00523 Y-15.29832
G01 X-2.00523 Y-16.22064
G01 X-2.00774 Y-16.28752
G01 X-2.02623 Y-16.41874
G01 X-2.08064 Y-16.49186
G01 X-2.15146 Y-16.57365
G01 X-4.16291 Y-18.58513
G01 X-4.27337 Y-18.67898
G01 X-4.46105 Y-18.79039
G01 X-4.52991 Y-18.82036
G01 X-4.69367 Y-18.87652
G01 X-4.92956 Y-18.91800
G01 X-5.09615 Y-18.86494
G01 X-5.14685 Y-18.81975
G01 X-7.21777 Y-18.81970
G01 X-5.14685 Y-18.81975
G01 X-5.12234 Y-18.61365
G01 X-5.08290 Y-18.37802
G01 X-5.06214 Y-18.29148
G01 X-5.03779 Y-18.21111
G01 X-4.92531 Y-17.90113
G01 X-4.88841 Y-17.74185
G01 X-4.87286 Y-17.54998
G01 X-4.88135 Y-17.42219
G01 X-4.88831 Y-17.35808
G01 X-4.89948 Y-17.30411
G01 X-4.93316 Y-17.17083
G01 X-5.00670 Y-16.99293
G01 X-5.10758 Y-16.82897
G01 X-5.24144 Y-16.66837
G01 X-5.36430 Y-16.50073
G01 X-5.43530 Y-16.38170
G01 X-5.48871 Y-16.28026
G01 X-7.21744 Y-16.28013
G01 X-5.48871 Y-16.28026
G01 X-5.36674 Y-16.12610
G01 X-5.22232 Y-15.97848
G01 X-4.99679 Y-15.91300
G01 X-4.92694 Y-15.90297
G01 X-4.81902 Y-15.89519
G01 X-3.84909 Y-15.89529
G01 X-3.78056 Y-15.89067
G01 X-3.62687 Y-15.85714
G01 X-3.50154 Y-15.80695
G01 X-3.42389 Y-15.76179
G01 X-3.34996 Y-15.71079
G01 X-3.27010 Y-15.63969
G01 X-3.23512 Y-15.60342
G01 X-3.15288 Y-15.49636
G01 X-3.09334 Y-15.38503
G01 X-3.05971 Y-15.29972
G01 X-3.00584 Y-15.11287
G01 X-2.90195 Y-14.98956
G01 X-2.85013 Y-14.93792
G01 X-2.74683 Y-14.85181
G01 X-2.68854 Y-14.81130
G01 X-2.45318 Y-14.69537
G01 X-2.37904 Y-14.67063
G01 X-2.22847 Y-14.63070
G04 P0 ( dwell for no time -- G64 should not smooth over this point )
G00 Z2.00000 ( retract )

G00 X-0.00000 Y-16.97558 ( rapid move to begin. )
G01 F100.00000
( Mill infeed pass 1/1 )
G01 Z-0.30000
G04 P0 ( dwell for no time -- G64 should not smooth over this point )
G01 F100.00000
G01 X-0.00000 Y-16.97558
G01 X-0.00000 Y-61.99998
G01 X-98.99998 Y-61.99998
G01 X-98.99998 Y0.00000
G01 X-44.12689 Y0.00000
G01 X-44.10248 Y0.09698
G01 X-44.08274 Y0.14397
G01 X-44.05833 Y0.18867
G01 X-44.02320 Y0.23871
G01 X-43.96443 Y0.30721
G01 X-43.90621 Y0.36426
G01 X-43.83065 Y0.41618
G01 X-43.74685 Y0.45342
G01 X-43.62079 Y0.48913
G01 X-43.57040 Y0.49690
G01 X-43.51950 Y0.49952
G01 X-0.12449 Y0.49952
G01 X-0.03924 Y0.49218
G01 X0.08151 Y0.46383
G01 X0.17290 Y0.42367
G01 X0.24689 Y0.37259
G01 X0.32243 Y0.30668
G01 X0.35773 Y0.26993
G01 X0.41110 Y0.19545
G01 X0.45004 Y0.11250
G01 X0.48913 Y-0.02316
G01 X0.49690 Y-0.07358
G01 X0.49952 Y-0.12451
G01 X0.49919 Y-4.27053
G01 X0.49642 Y-4.32290
G01 X0.47772 Y-4.41536
G01 X0.43170 Y-4.53898
G01 X0.39263 Y-4.61051
G01 X0.34249 Y-4.67474
G01 X0.28257 Y-4.72996
G01 X0.16741 Y-4.81165
G01 X0.08400 Y-4.84977
G01 X-0.00000 Y-4.87116
G01 X-0.00000 Y-16.97558
G01 X-0.12301 Y-17.06369
G01 X-0.24359 Y-17.15846
G01 X-0.45275 Y-17.34957
G01 X-3.80375 Y-20.70402
G01 X-3.92328 Y-20.80819
G01 X-4.11366 Y-20.94240
G01 X-4.19806 Y-21.00793
G01 X-4.40842 Y-21.19676
G01 X-4.57380 Y-21.36455
G01 X-5.09608 Y-21.36480
G01 X-5.11129 Y-21.35967
G01 X-7.21738 Y-21.35886
G01 X-7.28149 Y-21.20933
G01 X-7.35620 Y-21.00288
G01 X-7.39033 Y-20.89104
G01 X-7.43074 Y-20.73483
G01 X-7.45711 Y-20.60768
G01 X-7.48365 Y-20.43445
G01 X-7.49699 Y-20.29887
G01 X-7.50374 Y-20.16763
G01 X-7.50260 Y-19.97867
G01 X-7.49430 Y-19.84731
G01 X-7.47380 Y-19.67283
G01 X-7.44967 Y-19.53354
G01 X-7.39653 Y-19.31022
G01 X-7.35228 Y-19.16440
G01 X-7.30433 Y-19.02864
G01 X-7.21777 Y-18.81970
G01 X-7.32023 Y-18.56801
G01 X-7.37230 Y-18.41261
G01 X-7.41335 Y-18.26661
G01 X-7.44616 Y-18.12376
G01 X-7.47319 Y-17.97075
G01 X-7.49082 Y-17.83006
G01 X-7.50105 Y-17.69440
G01 X-7.50443 Y-17.50667
G01 X-7.49910 Y-17.37157
G01 X-7.47492 Y-17.14083
G01 X-7.45086 Y-16.99964
G01 X-7.40395 Y-16.79743
G01 X-7.35917 Y-16.64576
G01 X-7.30039 Y-16.47845
G01 X-7.21744 Y-16.28013
G01 X-7.28899 Y-16.11130
G01 X-7.38513 Y-15.82997
G01 X-7.43255 Y-15.64734
G01 X-7.47928 Y-15.38836
G01 X-7.49938 Y-15.18496
G01 X-7.50443 Y-15.05328
G01 X-7.50374 Y-14.93230
G01 X-7.48726 Y-14.69608
G01 X-7.46923 Y-14.56317
G01 X-7.44667 Y-14.43845
G01 X-7.41896 Y-14.31549
G01 X-7.38660 Y-14.19596
G01 X-7.28896 Y-14.07958
G01 X-7.15787 Y-13.94054
G01 X-7.01698 Y-13.90350
G01 X-6.76727 Y-13.82779
G01 X-6.57139 Y-13.78389
G01 X-6.35041 Y-13.75245
G01 X-6.12389 Y-13.74026
G01 X-5.97710 Y-13.74310
G01 X-5.78602 Y-13.75951
G01 X-5.66486 Y-13.77742
G01 X-5.55239 Y-13.79913
G01 X-5.39788 Y-13.83716
G01 X-5.14297 Y-13.91519
G01 X-4.88526 Y-13.86454
G01 X-4.84670 Y-13.87892
G01 X-4.61665 Y-13.94120
G01 X-4.42694 Y-13.88428
G01 X-4.19158 Y-13.76848
G01 X-4.13324 Y-13.72796
G01 X-4.02941 Y-13.64150
G01 X-3.95061 Y-13.55187
G01 X-3.89623 Y-13.47876
G01 X-3.87774 Y-13.34752
G01 X-3.87523 Y-13.28064
G01 X-3.87523 Y-6.64449
G01 X-3.88297 Y-6.53656
G01 X-3.89303 Y-6.46669
G01 X-3.94576 Y-6.27172
G01 X-4.00240 Y-6.21741
G01 X-4.03880 Y-6.20382
G01 X-4.24111 Y-6.15523
G01 X-4.29382 Y-6.14957
G01 X-4.37449 Y-6.14523
G01 X-4.54221 Y-6.14523
G01 X-4.65010 Y-6.15297
G01 X-4.71998 Y-6.16303
G01 X-4.96100 Y-6.23542
G01 X-5.03088 Y-6.26732
G01 X-5.15790 Y-6.33514
G01 X-5.31800 Y-6.27896
G01 X-5.44731 Y-6.24139
G01 X-5.57329 Y-6.21132
G01 X-5.69628 Y-6.18813
G01 X-5.81751 Y-6.17129
G01 X-5.93702 Y-6.16049
G01 X-6.06819 Y-6.15536
G01 X-6.18874 Y-6.15673
G01 X-6.30712 Y-6.16382
G01 X-6.42625 Y-6.17670
G01 X-6.58805 Y-6.20337
G01 X-6.79422 Y-6.25274
G01 X-6.93570 Y-6.29661
G01 X-7.04543 Y-6.33644
G01 X-7.21459 Y-6.24357
G01 X-7.35025 Y-6.19470
G01 X-7.42013 Y-6.17553
G01 X-7.58010 Y-6.14860
G01 X-7.61098 Y-6.14667
G01 X-10.72032 Y-6.14523
G01 X-10.82822 Y-6.15297
G01 X-10.89810 Y-6.16303
G01 X-11.13912 Y-6.23542
G01 X-11.20899 Y-6.26732
G01 X-11.37755 Y-6.36153
G01 X-11.54608 Y-6.49028
G01 X-11.61595 Y-6.55086
G01 X-11.86477 Y-6.80113
G01 X-12.11359 Y-7.12079
G01 X-12.26497 Y-7.34182
G01 X-12.47699 Y-7.04096
G01 X-12.54689 Y-6.94967
G01 X-12.79713 Y-6.65866
G01 X-13.04740 Y-6.43953
G01 X-13.11730 Y-6.38835
G01 X-13.26672 Y-6.29285
G01 X-13.41618 Y-6.22503
G01 X-13.48605 Y-6.19981
G01 X-13.68308 Y-6.15422
G01 X-13.80968 Y-6.14523
G01 X-16.17030 Y-6.14523
G01 X-16.27817 Y-6.15297
G01 X-16.34805 Y-6.16303
G01 X-16.58912 Y-6.23542
G01 X-16.65900 Y-6.26732
G01 X-16.82755 Y-6.36153
G01 X-16.99608 Y-6.49028
G01 X-17.06596 Y-6.55086
G01 X-17.31477 Y-6.80113
G01 X-17.56359 Y-7.12079
G01 X-17.71498 Y-7.34182
G01 X-17.92699 Y-7.04096
G01 X-17.99689 Y-6.94967
G01 X-18.24716 Y-6.65866
G01 X-18.49742 Y-6.43953
G01 X-18.56730 Y-6.38835
G01 X-18.71673 Y-6.29285
G01 X-18.86618 Y-6.22503
G01 X-18.93606 Y-6.19981
G01 X-19.13303 Y-6.15424
G01 X-19.18315 Y-6.14911
G01 X-19.25965 Y-6.14523
G01 X-22.32218 Y-6.14523
G01 X-22.43011 Y-6.15297
G01 X-22.49998 Y-6.16303
G01 X-22.74100 Y-6.23542
G01 X-22.81088 Y-6.26732
G01 X-22.93767 Y-6.33501
G01 X-23.06566 Y-6.28940
G01 X-23.19066 Y-6.25132
G01 X-23.30290 Y-6.22257
G01 X-23.42289 Y-6.19740
G01 X-23.63564 Y-6.16722
G01 X-23.76137 Y-6.15810
G01 X-23.87318 Y-6.15528
G01 X-24.08956 Y-6.16422
G01 X-24.21151 Y-6.17758
G01 X-24.38001 Y-6.20591
G01 X-24.61379 Y-6.26435
G01 X-24.82070 Y-6.33496
G01 X-28.17675 Y-6.33496
G01 X-28.35976 Y-6.28104
G01 X-28.58493 Y-6.23362
G01 X-28.68661 Y-6.21896
G01 X-28.84495 Y-6.20453
G01 X-29.05643 Y-6.20116
G01 X-29.27673 Y-6.21683
G01 X-29.43238 Y-6.23994
G01 X-29.63169 Y-6.28383
G01 X-29.84792 Y-6.35000
G01 X-30.02697 Y-6.35094
G01 X-30.15780 Y-6.35838
G01 X-30.29069 Y-6.37403
G01 X-30.41940 Y-6.39691
G01 X-30.59615 Y-6.28965
G01 X-30.66603 Y-6.25467
G01 X-30.91401 Y-6.17024
G01 X-30.98389 Y-6.15762
G01 X-31.11927 Y-6.14538
G01 X-31.73044 Y-6.14523
G01 X-31.83852 Y-6.15297
G01 X-31.92874 Y-6.16621
G01 X-32.03463 Y-6.24596
G01 X-32.08365 Y-6.29143
G01 X-33.67349 Y-7.88129
G01 X-33.74426 Y-7.96298
G01 X-33.78657 Y-8.01949
G01 X-33.84649 Y-8.11200
G01 X-33.82127 Y-8.27552
G01 X-33.78746 Y-8.43582
G01 X-33.77301 Y-8.61997
G01 X-33.78253 Y-8.75543
G01 X-33.78759 Y-8.80407
G01 X-33.81362 Y-8.91977
G01 X-33.86767 Y-9.09704
G01 X-33.91378 Y-9.27303
G01 X-33.92749 Y-9.34961
G01 X-33.94796 Y-9.51581
G01 X-34.06737 Y-9.56584
G01 X-34.19800 Y-9.61354
G01 X-34.43458 Y-9.68027
G01 X-34.61012 Y-9.71382
G01 X-34.78213 Y-9.73333
G01 X-34.90412 Y-9.73917
G01 X-35.11029 Y-9.73389
G01 X-35.28433 Y-9.71466
G01 X-35.40630 Y-9.69310
G01 X-35.64923 Y-9.63038
G01 X-35.77123 Y-9.58893
G01 X-35.94890 Y-9.51624
G01 X-36.10938 Y-9.59452
G01 X-36.35045 Y-9.66691
G01 X-36.42032 Y-9.67697
G01 X-36.52822 Y-9.68472
G01 X-39.54066 Y-9.68472
G01 X-39.60719 Y-9.68223
G01 X-39.73873 Y-9.66373
G01 X-39.81191 Y-9.60928
G01 X-39.89367 Y-9.53849
G01 X-40.24394 Y-9.18467
G01 X-40.32372 Y-9.07875
G01 X-40.33695 Y-8.98855
G01 X-40.34470 Y-8.88065
G01 X-40.34348 Y-6.38442
G01 X-40.32562 Y-6.24639
G01 X-40.31018 Y-6.17654
G01 X-40.21074 Y-5.91896
G01 X-40.17226 Y-5.84909
G01 X-40.00020 Y-5.60245
G01 X-40.00442 Y-5.40840
G01 X-39.99964 Y-5.27449
G01 X-40.12842 Y-5.10588
G01 X-40.22268 Y-4.93728
G01 X-40.25458 Y-4.86740
G01 X-40.32692 Y-4.62651
G01 X-40.33695 Y-4.55663
G01 X-40.34470 Y-4.44873
G01 X-40.34772 Y-4.24147
G01 X-40.36614 Y-4.12626
G01 X-40.37777 Y-4.07728
G01 X-40.42997 Y-3.93954
G01 X-40.51056 Y-3.80459
G01 X-40.61584 Y-3.68381
G01 X-43.62767 Y-0.67302
G01 X-43.65998 Y-0.64244
G01 X-43.70964 Y-0.60389
G01 X-43.95457 Y-0.43510
G01 X-44.16082 Y-0.26937
G01 X-44.23999 Y-0.19944
G01 X-44.42996 Y0.00000
G04 P0 ( dwell for no time -- G64 should not smooth over this point )
G00 Z2.00000 ( retract )

G00 X-44.67931 Y-5.20751 ( rapid move to begin. )
G01 F100.00000
( Mill infeed pass 1/1 )
G01 Z-0.30000
G04 P0 ( dwell for no time -- G64 should not smooth over this point )
G01 F100.00000
G01 X-44.67931 Y-5.20751
G01 X-44.83611 Y-5.46113
G01 X-44.89285 Y-5.56753
G01 X-44.94604 Y-5.68790
G01 X-45.01439 Y-5.86534
G01 X-45.06145 Y-5.97421
G01 X-45.15772 Y-6.13181
G01 X-45.27776 Y-6.27215
G01 X-45.41837 Y-6.39196
G01 X-45.57575 Y-6.48843
G01 X-45.74624 Y-6.55937
G01 X-45.86666 Y-6.59130
G01 X-46.08523 Y-6.66603
G01 X-46.19841 Y-6.71721
G01 X-46.26767 Y-6.75348
G01 X-46.29765 Y-6.97535
G01 X-46.31502 Y-7.15678
G01 X-46.33041 Y-7.26684
G01 X-46.47197 Y-7.33458
G01 X-46.71286 Y-7.40692
G01 X-46.78274 Y-7.41695
G01 X-46.89064 Y-7.42470
G01 X-50.03650 Y-7.42470
G01 X-50.13823 Y-7.41891
G01 X-50.31560 Y-7.38363
G01 X-50.44178 Y-7.34174
G01 X-50.50081 Y-7.15896
G01 X-50.52052 Y-7.06130
G01 X-50.59528 Y-6.85157
G01 X-50.69449 Y-6.66504
G01 X-50.81420 Y-6.46788
G04 P0 ( dwell for no time -- G64 should not smooth over this point )
G00 Z2.00000 ( retract )

G00 X-49.08817 Y-9.40438 ( rapid move to begin. )
G01 F100.00000
( Mill infeed pass 1/1 )
G01 Z-0.30000
G04 P0 ( dwell for no time -- G64 should not smooth over this point )
G01 F100.00000
G01 X-49.08817 Y-9.40438
G01 X-49.01420 Y-9.62304
G01 X-48.95997 Y-9.75451
G01 X-48.89002 Y-9.87026
G01 X-48.84362 Y-9.93460
G01 X-48.76465 Y-10.02749
G01 X-44.88584 Y-13.90381
G01 X-44.78073 Y-14.02471
G01 X-44.71894 Y-14.12535
G01 X-44.68828 Y-14.18877
G01 X-44.63918 Y-14.32778
G01 X-44.62033 Y-14.43934
G01 X-44.61375 Y-14.52987
G01 X-44.61474 Y-15.23441
G01 X-44.60700 Y-15.34335
G01 X-44.59694 Y-15.41323
G01 X-44.52455 Y-15.65432
G01 X-44.49265 Y-15.72420
G01 X-44.38449 Y-15.91333
G04 P0 ( dwell for no time -- G64 should not smooth over this point )
G00 Z2.00000 ( retract )

G00 X-53.15875 Y-24.30813 ( rapid move to begin. )
G01 F100.00000
( Mill infeed pass 1/1 )
G01 Z-0.30000
G04 P0 ( dwell for no time -- G64 should not smooth over this point )
G01 F100.00000
G01 X-53.15875 Y-24.30813
G01 X-52.98034 Y-24.20732
G01 X-52.91046 Y-24.17542
G01 X-52.66939 Y-24.10303
G01 X-52.59951 Y-24.09297
G01 X-52.49161 Y-24.08522
G01 X-43.78241 Y-24.08773
G01 X-43.65120 Y-24.10623
G01 X-43.57814 Y-24.16058
G01 X-43.49628 Y-24.23145
G01 X-42.26707 Y-25.46068
G01 X-42.20685 Y-25.52863
G01 X-42.17012 Y-25.57544
G01 X-42.05737 Y-25.76830
G01 X-42.02788 Y-25.83767
G01 X-41.97223 Y-26.00467
G01 X-41.93814 Y-26.19327
G01 X-41.91909 Y-26.37711
G01 X-41.77408 Y-26.52659
G01 X-41.67482 Y-26.63779
G01 X-41.61828 Y-26.82248
G01 X-41.58120 Y-26.96233
G01 X-41.52915 Y-27.20155
G01 X-41.50048 Y-27.37523
G01 X-41.47167 Y-27.63787
G01 X-41.46070 Y-27.87104
G01 X-41.46169 Y-28.05191
G01 X-41.47414 Y-28.27302
G01 X-41.50426 Y-28.52910
G01 X-41.54023 Y-28.73553
G01 X-41.38333 Y-28.99174
G01 X-41.35143 Y-29.06161
G01 X-41.27904 Y-29.30263
G01 X-41.26898 Y-29.37251
G01 X-41.26123 Y-29.48043
G01 X-41.26123 Y-41.46547
G01 X-41.27124 Y-41.59888
G01 X-41.31981 Y-41.80101
G01 X-41.34838 Y-41.87756
G01 X-41.58272 Y-41.94691
G01 X-41.65260 Y-41.95696
G01 X-41.76199 Y-41.96471
G01 X-41.95262 Y-41.96433
G01 X-42.13212 Y-41.94312
G01 X-42.20820 Y-41.88940
G01 X-42.40906 Y-41.72801
G01 X-42.61655 Y-41.60238
G01 X-42.80670 Y-41.51820
G01 X-42.90301 Y-41.48564
G01 X-43.07238 Y-41.44000
G01 X-43.20647 Y-41.41942
G01 X-43.31269 Y-41.40683
G01 X-43.55523 Y-41.40728
G01 X-43.79547 Y-41.44030
G01 X-44.02915 Y-41.50533
G01 X-44.20380 Y-41.57980
G01 X-44.32920 Y-41.64703
G01 X-44.45869 Y-41.72831
G01 X-44.61119 Y-41.85041
G01 X-44.64685 Y-41.88130
G01 X-44.73953 Y-41.97728
G01 X-44.81195 Y-42.05889
G01 X-44.87743 Y-42.14683
G01 X-44.95223 Y-42.25668
G01 X-44.97553 Y-42.29839
G01 X-45.06377 Y-42.47208
G01 X-45.11716 Y-42.61587
G01 X-45.15744 Y-42.75237
G01 X-45.19468 Y-42.93796
G01 X-45.21060 Y-43.17997
G01 X-45.20565 Y-43.28975
G01 X-45.19392 Y-43.42186
G01 X-45.17888 Y-43.50669
G01 X-45.14538 Y-43.65948
G01 X-45.07918 Y-43.84893
G01 X-45.03336 Y-43.95094
G01 X-44.95244 Y-44.10339
G01 X-44.81258 Y-44.30159
G01 X-44.64680 Y-44.47857
G01 X-44.45861 Y-44.63153
G01 X-44.25158 Y-44.75787
G01 X-44.02912 Y-44.85462
G01 X-43.79547 Y-44.91965
G01 X-43.55523 Y-44.95267
G01 X-43.31269 Y-44.95312
G01 X-43.07251 Y-44.91952
G01 X-42.83890 Y-44.85437
G01 X-42.70776 Y-44.79981
G01 X-42.61650 Y-44.75764
G01 X-42.56928 Y-44.73095
G01 X-42.40934 Y-44.63153
G01 X-42.31381 Y-44.55701
G01 X-42.22095 Y-44.47880
G01 X-42.09136 Y-44.34215
G01 X-42.01493 Y-44.24710
G01 X-41.91538 Y-44.10344
G01 X-41.80243 Y-43.89874
G01 X-41.70970 Y-43.76072
G01 X-41.58610 Y-43.73303
G01 X-41.51625 Y-43.72298
G01 X-41.40830 Y-43.71520
G01 X-39.61917 Y-43.71454
G01 X-39.58140 Y-43.71299
G01 X-39.51272 Y-43.70255
G01 X-39.42672 Y-43.68538
G01 X-39.34097 Y-43.66031
G01 X-39.31818 Y-43.65826
G01 X-38.93716 Y-43.65523
G01 X-38.85303 Y-43.65993
G01 X-38.79807 Y-43.66611
G01 X-38.60292 Y-43.71292
G01 X-38.51112 Y-43.89173
G01 X-38.46533 Y-43.96600
G01 X-38.40348 Y-44.02783
G01 X-38.32911 Y-44.07370
G01 X-38.24343 Y-44.10192
G01 X-38.16995 Y-44.10771
G01 X-37.28679 Y-44.10771
G01 X-37.22027 Y-44.11020
G01 X-37.08867 Y-44.12872
G01 X-37.01547 Y-44.18320
G01 X-36.93378 Y-44.25396
G01 X-34.17529 Y-47.01245
G01 X-34.11606 Y-47.07860
G01 X-33.98599 Y-47.24169
G01 X-33.90946 Y-47.35198
G01 X-33.76976 Y-47.57522
G01 X-34.03956 Y-47.74268
G01 X-34.10941 Y-47.77461
G01 X-34.35053 Y-47.84700
G01 X-34.42040 Y-47.85705
G01 X-34.52840 Y-47.86480
G01 X-43.87268 Y-47.86442
G01 X-44.02991 Y-47.89010
G01 X-44.10895 Y-47.91408
G01 X-44.20217 Y-47.95121
G01 X-44.31543 Y-48.01733
G01 X-44.39978 Y-48.08583
G01 X-44.45673 Y-48.13836
G01 X-44.91533 Y-48.59658
G01 X-45.04068 Y-48.69363
G01 X-45.13143 Y-48.70696
G01 X-45.23930 Y-48.71474
G01 X-47.66998 Y-48.71474
G01 X-47.74344 Y-48.72053
G01 X-47.82909 Y-48.74872
G01 X-47.90349 Y-48.79462
G01 X-47.96533 Y-48.85647
G01 X-48.01121 Y-48.93086
G01 X-48.03943 Y-49.01649
G01 X-48.04458 Y-49.05908
G01 X-48.04522 Y-51.68956
G01 X-48.05279 Y-51.79616
G01 X-48.06259 Y-51.86520
G01 X-48.13361 Y-52.10404
G01 X-48.16521 Y-52.17391
G01 X-48.31908 Y-52.42756
G01 X-48.27367 Y-52.71790
G01 X-48.39833 Y-52.96530
G01 X-48.45647 Y-53.13431
G01 X-48.47295 Y-53.20419
G01 X-48.49414 Y-53.37033
G01 X-48.49533 Y-54.76405
G01 X-48.50481 Y-54.90352
G01 X-48.50559 Y-55.03974
G01 X-48.49627 Y-55.19783
G01 X-48.47638 Y-55.33375
G01 X-48.07702 Y-55.53098
G01 X-48.04880 Y-55.72529
G01 X-48.04176 Y-55.94749
G01 X-48.04491 Y-56.07995
G01 X-48.04507 Y-56.74576
G01 X-48.04941 Y-56.82633
G01 X-48.05507 Y-56.87906
G01 X-48.10361 Y-57.08119
G01 X-48.13203 Y-57.15742
G01 X-48.36668 Y-57.22691
G01 X-48.43656 Y-57.23694
G01 X-48.54448 Y-57.24472
G01 X-51.95062 Y-57.24472
G01 X-52.01712 Y-57.24223
G01 X-52.14874 Y-57.22371
G01 X-52.22194 Y-57.16923
G01 X-52.30365 Y-57.09849
G01 X-53.20848 Y-56.19366
G01 X-53.25394 Y-56.14467
G01 X-53.33373 Y-56.03875
G01 X-53.33693 Y-56.01843
G01 X-53.34696 Y-55.94855
G01 X-53.35463 Y-55.82831
G01 X-53.35392 Y-55.78498
G01 X-53.33563 Y-55.63103
G01 X-53.32016 Y-55.56115
G01 X-53.22082 Y-55.30372
G01 X-53.18232 Y-55.23385
G01 X-53.03510 Y-55.01716
G01 X-53.04503 Y-54.88739
G01 X-53.04998 Y-54.71488
G01 X-53.04986 Y-52.94457
G01 X-53.04546 Y-52.80195
G01 X-53.03457 Y-52.66052
G01 X-53.14795 Y-52.50668
G01 X-53.23263 Y-52.35280
G01 X-53.26456 Y-52.28290
G01 X-53.33695 Y-52.04188
G01 X-53.34698 Y-51.97201
G01 X-53.35476 Y-51.86411
G01 X-53.35478 Y-48.89988
G01 X-53.35753 Y-48.82932
G01 X-53.37863 Y-48.70127
G01 X-53.43114 Y-48.54943
G01 X-53.47358 Y-48.47179
G01 X-53.52260 Y-48.39340
G01 X-53.62588 Y-48.27384
G01 X-54.40845 Y-47.49348
G01 X-54.55907 Y-47.38624
G01 X-54.71114 Y-47.31911
G01 X-54.85277 Y-47.28375
G01 X-54.94589 Y-47.27603
G01 X-55.01259 Y-47.27301
G01 X-56.20034 Y-47.27473
G01 X-56.33479 Y-47.26457
G01 X-56.46163 Y-47.24027
G01 X-56.57235 Y-47.11225
G01 X-56.64225 Y-47.01926
G01 X-56.72277 Y-46.92195
G01 X-56.81789 Y-46.81870
G01 X-56.91188 Y-46.73265
G01 X-57.00954 Y-46.65264
G01 X-57.18327 Y-46.53473
G01 X-57.28129 Y-46.48177
G01 X-57.37977 Y-46.42107
G01 X-57.48510 Y-46.34197
G01 X-57.61820 Y-46.22269
G01 X-57.69369 Y-46.14540
G01 X-57.73077 Y-46.10407
G01 X-57.87403 Y-45.92269
G01 X-57.67951 Y-45.77143
G01 X-57.51088 Y-45.67715
G01 X-57.44103 Y-45.64522
G01 X-57.19981 Y-45.57281
G01 X-57.12991 Y-45.56275
G01 X-57.02198 Y-45.55500
G01 X-54.20192 Y-45.55714
G01 X-54.00893 Y-45.55002
G01 X-53.85768 Y-45.52988
G01 X-53.73179 Y-45.50453
G01 X-53.59867 Y-45.46648
G01 X-53.47759 Y-45.42358
G01 X-53.35115 Y-45.36709
G01 X-53.24696 Y-45.31286
G01 X-53.10894 Y-45.22579
G01 X-53.02070 Y-45.16105
G01 X-52.91861 Y-45.07509
G01 X-52.79497 Y-44.95533
G01 X-52.68689 Y-44.84131
G01 X-52.58054 Y-44.70657
G01 X-52.48209 Y-44.55665
G01 X-52.39890 Y-44.39773
G01 X-52.34419 Y-44.26524
G01 X-52.31785 Y-44.19089
G01 X-52.28890 Y-44.09465
G01 X-52.26131 Y-43.97604
G01 X-52.23820 Y-43.82905
G01 X-52.22573 Y-43.62844
G01 X-52.22669 Y-42.31757
G01 X-52.23335 Y-42.17106
G01 X-52.26284 Y-41.96415
G01 X-52.32878 Y-41.72227
G01 X-52.42679 Y-41.49148
G01 X-52.55466 Y-41.27581
G01 X-52.70967 Y-41.07873
G01 X-52.89027 Y-40.90480
G01 X-53.09187 Y-40.75572
G01 X-53.31198 Y-40.63558
G01 X-53.54592 Y-40.54539
G01 X-53.78971 Y-40.48679
G01 X-54.03926 Y-40.46250
G01 X-54.28986 Y-40.47040
G01 X-54.53703 Y-40.51231
G01 X-54.64978 Y-40.54467
G01 X-54.77637 Y-40.58694
G01 X-55.00418 Y-40.69164
G01 X-55.21510 Y-40.82722
G01 X-55.31533 Y-40.90843
G01 X-55.40659 Y-40.98900
G01 X-55.57512 Y-41.17464
G01 X-55.71653 Y-41.38168
G01 X-55.83141 Y-41.59847
G01 X-55.87848 Y-41.67596
G01 X-55.93436 Y-41.75770
G01 X-56.06288 Y-41.78691
G01 X-56.13276 Y-41.79697
G01 X-56.24068 Y-41.80472
G01 X-60.81296 Y-41.80223
G01 X-60.94451 Y-41.78374
G01 X-61.01773 Y-41.72923
G01 X-61.09945 Y-41.65849
G01 X-62.10262 Y-40.65224
G01 X-62.21639 Y-40.54455
G01 X-62.33968 Y-40.44706
G01 X-62.41641 Y-40.39334
G01 X-62.49043 Y-40.34615
G01 X-62.64552 Y-40.26367
G01 X-62.82063 Y-40.19192
G01 X-62.95088 Y-40.14988
G01 X-63.10988 Y-40.11346
G01 X-63.23579 Y-40.09532
G01 X-63.37823 Y-40.08453
G01 X-64.30157 Y-40.08247
G01 X-64.48166 Y-40.09108
G01 X-64.61752 Y-40.11059
G01 X-64.74384 Y-40.13611
G01 X-64.87765 Y-40.17406
G01 X-65.01686 Y-40.22499
G01 X-65.19675 Y-40.31049
G01 X-65.33609 Y-40.39509
G01 X-65.41983 Y-40.45331
G01 X-65.56253 Y-40.57061
G01 X-65.62466 Y-40.63060
G01 X-65.73568 Y-40.75039
G01 X-65.82476 Y-40.86621
G01 X-65.92339 Y-41.01760
G01 X-66.02618 Y-41.22113
G01 X-66.09491 Y-41.40876
G01 X-66.11132 Y-41.46890
G01 X-66.14437 Y-41.61356
G01 X-66.15900 Y-41.70362
G01 X-66.17030 Y-41.81140
G01 X-66.17752 Y-41.95087
G01 X-66.17538 Y-46.60628
G01 X-66.18762 Y-46.74184
G01 X-66.20025 Y-46.81172
G01 X-66.28468 Y-47.05970
G01 X-66.31965 Y-47.12957
G01 X-66.43022 Y-47.31095
G01 X-66.42105 Y-47.34842
G01 X-66.41374 Y-47.47105
G01 X-66.37586 Y-48.25365
G01 X-66.37797 Y-48.47613
G01 X-66.38681 Y-48.62906
G01 X-66.40573 Y-48.81509
G01 X-66.44470 Y-49.06157
G01 X-66.50314 Y-49.31951
G01 X-66.59118 Y-49.43368
G01 X-66.68318 Y-49.54359
G01 X-66.82105 Y-49.69454
G01 X-66.99400 Y-49.86411
G01 X-67.14043 Y-49.99281
G01 X-67.26019 Y-50.08931
G01 X-67.36451 Y-50.16688
G01 X-67.43266 Y-50.18329
G01 X-67.63888 Y-50.22367
G01 X-67.87802 Y-50.25690
G01 X-68.07609 Y-50.27333
G01 X-68.34586 Y-50.27960
G01 X-68.50639 Y-50.27442
G01 X-68.72994 Y-50.25616
G01 X-68.88429 Y-50.23607
G01 X-69.11388 Y-50.19495
G01 X-72.45038 Y-50.19487
G01 X-72.64984 Y-50.18872
G01 X-72.91979 Y-50.16538
G01 X-73.18987 Y-50.12390
G01 X-73.46927 Y-50.06210
G01 X-73.73973 Y-49.98418
G01 X-73.98360 Y-49.79883
G01 X-74.16985 Y-49.59035
G01 X-74.19464 Y-49.46419
G01 X-74.26526 Y-49.22987
G01 X-74.30493 Y-49.07140
G01 X-74.34864 Y-48.85525
G01 X-74.38136 Y-48.63371
G01 X-74.40521 Y-48.34755
G01 X-74.41933 Y-47.56889
G01 X-74.59939 Y-47.42736
G01 X-74.68644 Y-47.34461
G01 X-74.79251 Y-47.22348
G01 X-74.95027 Y-47.01807
G01 X-75.03858 Y-46.91918
G01 X-75.17790 Y-46.78632
G01 X-75.32606 Y-46.67534
G01 X-75.43782 Y-46.60407
G01 X-75.68420 Y-46.46874
G01 X-75.75860 Y-46.41990
G01 X-75.84625 Y-46.35147
G01 X-76.01775 Y-46.19706
G01 X-76.06152 Y-46.15137
G01 X-76.21557 Y-45.96836
G01 X-76.37193 Y-45.96526
G01 X-76.55545 Y-45.96846
G01 X-76.72507 Y-45.83659
G01 X-76.87607 Y-45.73841
G01 X-77.02705 Y-45.66849
G01 X-77.09692 Y-45.64266
G01 X-77.29758 Y-45.59496
G01 X-77.42913 Y-45.58523
G01 X-77.96545 Y-45.58523
G01 X-78.07335 Y-45.59297
G01 X-78.14323 Y-45.60303
G01 X-78.37757 Y-45.67237
G01 X-78.40614 Y-45.74893
G01 X-78.45471 Y-45.95111
G01 X-78.46471 Y-46.08449
G01 X-78.46471 Y-46.44255
G01 X-78.45697 Y-46.55045
G01 X-78.44691 Y-46.62033
G01 X-78.37452 Y-46.86140
G01 X-78.34262 Y-46.93128
G01 X-78.21745 Y-47.14474
G01 X-78.25273 Y-47.27969
G01 X-78.28818 Y-47.44278
G01 X-78.32573 Y-47.66523
G01 X-78.34940 Y-47.87194
G01 X-78.36068 Y-48.03922
G01 X-78.36494 Y-48.20978
G01 X-78.36489 Y-50.53028
G01 X-78.35506 Y-50.78824
G01 X-78.32684 Y-51.05801
G01 X-78.28453 Y-51.30663
G01 X-78.21734 Y-51.58966
G01 X-78.32024 Y-51.76025
G01 X-78.35522 Y-51.83015
G01 X-78.40983 Y-51.96141
G01 X-78.44218 Y-52.09266
G01 X-78.45486 Y-52.17096
G01 X-78.46471 Y-52.29253
G01 X-78.46471 Y-54.00581
G01 X-78.45697 Y-54.11371
G01 X-78.44691 Y-54.18358
G01 X-78.37460 Y-54.42448
G01 X-78.34269 Y-54.49438
G01 X-78.20685 Y-54.72255
G01 X-77.97132 Y-54.62326
G01 X-77.81183 Y-54.50383
G01 X-77.70325 Y-54.43093
G01 X-77.64912 Y-54.39875
G01 X-77.55616 Y-54.36464
G01 X-77.40312 Y-54.26133
G01 X-77.23622 Y-54.16532
G01 X-77.08816 Y-54.09943
G01 X-76.98067 Y-54.05887
G01 X-76.76393 Y-54.00027
G01 X-76.66838 Y-53.98491
G01 X-76.59093 Y-53.96771
G01 X-76.41039 Y-53.91490
G01 X-76.27739 Y-53.85481
G01 X-76.09985 Y-53.75171
G01 X-76.16447 Y-53.53472
G01 X-76.19314 Y-53.46461
G01 X-76.30805 Y-53.26317
G01 X-76.41026 Y-53.14097
G01 X-77.61232 Y-51.93932
G01 X-77.69431 Y-51.86837
G01 X-77.77495 Y-51.80802
G01 X-77.93124 Y-51.71463
G01 X-78.10340 Y-51.63469
G01 X-78.21734 Y-51.58966
G04 P0 ( dwell for no time -- G64 should not smooth over this point )
G00 Z2.00000 ( retract )

G00 X-74.41933 Y-47.56889 ( rapid move to begin. )
G01 F100.00000
( Mill infeed pass 1/1 )
G01 Z-0.30000
G04 P0 ( dwell for no time -- G64 should not smooth over this point )
G01 F100.00000
G01 X-74.41933 Y-47.56889
G01 X-74.27674 Y-47.45256
G01 X-74.21209 Y-47.38952
G01 X-74.10005 Y-47.26902
G01 X-74.04613 Y-47.19884
G01 X-73.90463 Y-46.99363
G01 X-73.87123 Y-46.90085
G01 X-73.82533 Y-46.82645
G01 X-73.76353 Y-46.76463
G01 X-73.68911 Y-46.71873
G01 X-73.59495 Y-46.68421
G01 X-73.49200 Y-46.61294
G01 X-73.27351 Y-46.47949
G01 X-73.12518 Y-46.37166
G01 X-72.99686 Y-46.25218
G01 X-72.91984 Y-46.16968
G01 X-72.82327 Y-46.05805
G01 X-72.73668 Y-45.94598
G01 X-72.52266 Y-45.93618
G01 X-72.00047 Y-45.93491
G01 X-71.71586 Y-45.92389
G01 X-71.55950 Y-46.04245
G01 X-71.41009 Y-46.13778
G01 X-71.26072 Y-46.20539
G01 X-71.19082 Y-46.23057
G01 X-70.99424 Y-46.27596
G01 X-70.94431 Y-46.28101
G01 X-70.86757 Y-46.28490
G01 X-68.43146 Y-46.28393
G01 X-68.32912 Y-46.28843
G01 X-68.21663 Y-46.29973
G01 X-68.07568 Y-46.32505
G01 X-67.93507 Y-46.36051
G01 X-67.77901 Y-46.41497
G01 X-67.65409 Y-46.46882
G01 X-67.51038 Y-46.54603
G01 X-67.38046 Y-46.63196
G01 X-67.26649 Y-46.71916
G01 X-67.15722 Y-46.81858
G01 X-67.03736 Y-46.94057
G01 X-66.94693 Y-47.02053
G01 X-66.81854 Y-47.11672
G01 X-66.66814 Y-47.20168
G01 X-66.50784 Y-47.27842
G01 X-66.43022 Y-47.31095
G04 P0 ( dwell for no time -- G64 should not smooth over this point )
G00 Z2.00000 ( retract )

G00 X-62.76373 Y-51.55730 ( rapid move to begin. )
G01 F100.00000
( Mill infeed pass 1/1 )
G01 Z-0.30000
G04 P0 ( dwell for no time -- G64 should not smooth over this point )
G01 F100.00000
G01 X-62.76373 Y-51.55730
G01 X-62.48215 Y-51.54181
G01 X-62.29759 Y-51.51521
G01 X-62.15360 Y-51.47694
G01 X-62.07041 Y-51.45014
G01 X-61.88880 Y-51.37765
G01 X-61.73254 Y-51.33045
G01 X-61.55969 Y-51.29576
G01 X-61.39853 Y-51.27711
G01 X-61.24202 Y-51.27252
G01 X-58.07728 Y-51.27531
G01 X-57.88980 Y-51.28979
G01 X-57.73016 Y-51.32001
G01 X-57.64421 Y-51.34005
G01 X-57.55927 Y-51.36685
G01 X-57.40712 Y-51.42164
G01 X-57.25356 Y-51.49731
G01 X-57.13029 Y-51.56932
G01 X-56.97649 Y-51.67666
G01 X-56.79102 Y-51.84536
G01 X-56.70304 Y-51.94531
G01 X-56.61452 Y-52.05730
G01 X-56.49394 Y-52.24793
G01 X-56.38884 Y-52.47554
G01 X-56.35810 Y-52.56563
G01 X-56.31378 Y-52.71475
G01 X-56.27284 Y-52.96215
G01 X-56.26580 Y-53.09128
G01 X-56.26420 Y-53.21267
G01 X-56.26811 Y-53.26979
G01 X-56.28919 Y-53.46215
G01 X-56.34769 Y-53.70594
G01 X-56.43735 Y-53.94005
G01 X-56.55780 Y-54.15999
G01 X-56.70636 Y-54.36197
G01 X-56.78363 Y-54.44485
G01 X-56.88073 Y-54.54226
G01 X-57.07766 Y-54.69750
G01 X-57.29343 Y-54.82521
G01 X-57.52427 Y-54.92313
G01 X-57.76608 Y-54.98953
G01 X-57.88698 Y-55.00799
G01 X-58.01469 Y-55.02186
G01 X-58.11954 Y-55.02514
G01 X-60.28644 Y-55.02521
G01 X-60.39437 Y-55.03296
G01 X-60.48454 Y-55.04619
G01 X-60.59028 Y-55.12577
G01 X-60.63968 Y-55.17159
G01 X-62.81207 Y-57.34329
G01 X-62.93358 Y-57.44472
G01 X-63.06871 Y-57.53715
G01 X-63.22042 Y-57.62417
G01 X-63.36909 Y-57.69138
G01 X-63.53647 Y-57.74921
G01 X-63.69291 Y-57.78917
G01 X-63.85400 Y-57.81510
G01 X-63.94148 Y-57.82259
G01 X-64.09792 Y-57.82714
G01 X-66.14894 Y-57.82516
G01 X-66.25684 Y-57.83293
G01 X-66.32672 Y-57.84296
G01 X-66.46154 Y-57.87418
G01 X-66.55371 Y-58.02003
G01 X-66.66159 Y-58.22467
G01 X-66.73266 Y-58.34400
G01 X-66.82839 Y-58.47606
G01 X-66.90962 Y-58.57085
G01 X-69.22191 Y-60.88347
G01 X-69.34380 Y-60.98441
G01 X-69.41520 Y-61.03546
G01 X-69.55302 Y-61.12269
G01 X-69.63080 Y-61.16338
G01 X-69.73943 Y-61.21443
G01 X-69.86133 Y-61.26196
G01 X-70.01739 Y-61.30943
G01 X-70.10298 Y-61.32888
G01 X-70.31223 Y-61.35977
G01 X-70.50794 Y-61.36737
G01 X-78.74020 Y-61.36627
G01 X-78.82565 Y-61.36424
G01 X-78.93855 Y-61.35515
G01 X-79.10439 Y-61.32914
G01 X-79.22900 Y-61.29965
G01 X-79.31295 Y-61.27412
G01 X-79.44724 Y-61.22464
G01 X-79.57741 Y-61.16465
G01 X-79.68925 Y-61.10336
G01 X-79.76377 Y-61.05698
G01 X-79.89593 Y-60.96135
G01 X-80.01269 Y-60.85987
G01 X-81.73334 Y-59.13783
G01 X-81.85493 Y-58.98860
G01 X-81.95612 Y-58.83450
G01 X-82.02826 Y-58.70019
G01 X-82.08180 Y-58.58109
G01 X-82.11203 Y-58.49866
G01 X-82.14200 Y-58.40405
G01 X-82.17281 Y-58.28617
G01 X-82.20098 Y-58.12462
G01 X-82.21269 Y-58.00849
G01 X-82.21678 Y-57.85203
G01 X-82.21495 Y-43.34429
G01 X-82.20045 Y-43.18660
G01 X-82.18627 Y-43.09994
G01 X-82.15008 Y-42.94086
G01 X-82.12488 Y-42.85841
G01 X-82.05346 Y-42.67246
G01 X-82.01091 Y-42.58574
G01 X-81.93593 Y-42.45089
G01 X-81.86268 Y-42.34307
G01 X-81.75518 Y-42.20652
G01 X-81.64523 Y-42.09016
G01 X-81.04144 Y-41.48948
G01 X-80.97058 Y-41.40761
G01 X-80.91622 Y-41.33451
G01 X-80.89773 Y-41.20335
G01 X-80.89516 Y-37.18857
G01 X-80.90291 Y-37.08062
G01 X-80.91297 Y-37.01077
G01 X-80.98536 Y-36.76970
G01 X-81.01726 Y-36.69982
G01 X-81.18599 Y-36.42840
G01 X-81.16192 Y-36.20722
G01 X-81.15541 Y-36.04631
G01 X-81.15803 Y-35.88212
G01 X-81.16865 Y-35.73142
G01 X-81.18899 Y-35.56952
G01 X-81.21990 Y-35.40064
G01 X-81.25772 Y-35.24273
G01 X-81.29829 Y-35.09929
G01 X-81.28472 Y-34.82983
G01 X-81.25275 Y-34.54740
G01 X-81.16293 Y-34.40024
G01 X-81.11637 Y-34.31527
G01 X-80.90870 Y-34.10928
G01 X-80.80525 Y-33.99876
G01 X-80.68125 Y-33.85741
G01 X-80.54068 Y-33.70809
G01 X-79.58762 Y-32.75780
G01 X-79.41076 Y-32.60004
G01 X-79.27284 Y-32.48838
G01 X-79.16636 Y-32.40819
G01 X-78.90899 Y-32.47019
G01 X-78.74638 Y-32.49229
G01 X-78.59685 Y-32.49960
G01 X-78.48313 Y-32.49612
G01 X-78.33180 Y-32.48122
G01 X-78.13858 Y-32.47326
G01 X-77.88872 Y-32.49384
G01 X-77.73276 Y-32.52635
G01 X-77.62418 Y-32.55449
G01 X-77.46568 Y-32.61152
G01 X-77.28176 Y-32.69026
G01 X-77.19111 Y-32.72315
G01 X-77.07600 Y-32.75655
G01 X-76.92984 Y-32.66798
G01 X-76.80678 Y-32.56829
G01 X-73.16897 Y-28.93118
G01 X-73.09805 Y-28.84927
G01 X-73.05576 Y-28.79275
G01 X-72.93656 Y-28.57129
G01 X-72.90973 Y-28.49933
G01 X-72.85718 Y-28.31353
G01 X-72.82774 Y-28.08552
G01 X-72.67732 Y-27.93545
G01 X-72.69747 Y-27.69522
G01 X-72.70450 Y-27.49751
G01 X-72.70359 Y-27.41925
G01 X-72.68543 Y-27.22814
G01 X-72.66259 Y-27.06837
G01 X-72.65289 Y-26.92997
G01 X-72.66762 Y-26.74587
G01 X-72.70435 Y-26.58897
G01 X-72.72759 Y-26.52166
G01 X-72.78129 Y-26.39565
G01 X-72.83633 Y-26.30261
G01 X-72.88080 Y-26.23447
G01 X-72.97285 Y-26.12517
G01 X-73.03069 Y-26.06792
G01 X-73.13808 Y-25.97772
G01 X-73.24997 Y-25.90787
G01 X-73.35914 Y-25.85344
G01 X-73.46622 Y-25.81051
G01 X-73.59858 Y-25.77767
G01 X-73.71928 Y-25.76025
G01 X-73.82998 Y-25.75311
G01 X-74.01405 Y-25.76787
G01 X-74.19363 Y-25.81064
G01 X-74.36650 Y-25.88257
G01 X-74.61941 Y-26.03805
G01 X-74.68804 Y-26.04752
G01 X-74.79726 Y-26.05469
G01 X-74.99248 Y-26.05326
G01 X-75.15875 Y-26.03370
G01 X-75.23170 Y-25.97945
G01 X-75.31367 Y-25.90848
G01 X-75.90848 Y-25.31367
G01 X-75.95395 Y-25.26467
G01 X-76.03371 Y-25.15875
G01 X-76.04696 Y-25.06856
G01 X-76.05471 Y-24.96066
G01 X-76.05471 Y-24.81778
G01 X-76.05133 Y-24.74016
G01 X-76.02438 Y-24.58006
G01 X-76.00521 Y-24.51021
G01 X-75.95639 Y-24.37468
G01 X-75.86040 Y-24.20046
G01 X-75.90627 Y-24.06546
G01 X-75.94874 Y-23.91509
G01 X-75.98095 Y-23.76929
G01 X-76.00221 Y-23.63978
G01 X-76.01707 Y-23.50242
G01 X-76.02416 Y-23.36389
G01 X-76.02327 Y-23.22586
G01 X-76.01392 Y-23.07938
G01 X-75.95522 Y-22.97534
G01 X-75.86678 Y-22.83752
G01 X-75.75060 Y-22.68357
G01 X-75.64730 Y-22.56668
G01 X-75.53637 Y-22.45759
G01 X-75.41651 Y-22.35520
G01 X-75.28623 Y-22.25893
G01 X-75.14341 Y-22.16823
G01 X-74.98827 Y-22.08436
G01 X-74.82632 Y-22.01067
G01 X-74.62967 Y-21.93694
G01 X-74.45545 Y-21.95436
G01 X-74.27011 Y-21.98515
G01 X-74.06858 Y-22.03257
G01 X-73.91011 Y-22.07986
G01 X-73.26246 Y-22.07981
G01 X-73.06757 Y-22.02995
G01 X-72.90102 Y-21.99777
G01 X-72.51212 Y-21.94961
G01 X-72.36125 Y-21.74194
G01 X-72.30565 Y-21.67143
G01 X-72.12442 Y-21.47222
G01 X-63.52375 Y-12.87145
G01 X-63.47490 Y-12.82614
G01 X-63.36878 Y-12.74620
G01 X-63.27844 Y-12.73297
G01 X-63.17066 Y-12.72522
G01 X-57.57487 Y-12.72543
G01 X-57.43707 Y-12.73924
G01 X-57.36720 Y-12.75260
G01 X-57.11655 Y-12.84102
G01 X-57.05013 Y-12.87516
G01 X-56.95465 Y-12.82743
G01 X-56.76997 Y-12.74849
G01 X-56.64799 Y-12.70533
G01 X-56.47314 Y-12.65588
G01 X-56.30527 Y-12.62217
G01 X-56.17789 Y-12.60546
G01 X-56.06895 Y-12.59743
G01 X-55.95079 Y-12.59522
G01 X-55.80248 Y-12.60185
G01 X-55.68086 Y-12.61514
G01 X-55.55686 Y-12.63597
G01 X-55.42991 Y-12.66495
G01 X-55.29641 Y-12.70376
G01 X-55.14155 Y-12.75954
G01 X-55.02971 Y-12.80691
G01 X-54.89125 Y-12.87424
G01 X-54.76657 Y-12.81544
G01 X-54.52529 Y-12.74298
G01 X-54.45544 Y-12.73297
G01 X-54.34767 Y-12.72522
G01 X-51.44930 Y-12.72522
G01 X-51.38242 Y-12.72774
G01 X-51.25118 Y-12.74623
G01 X-51.17803 Y-12.80066
G01 X-51.09627 Y-12.87145
G01 X-48.22144 Y-15.74630
G01 X-48.17598 Y-15.79529
G01 X-48.09620 Y-15.90121
G01 X-48.08296 Y-15.99143
G01 X-48.07522 Y-16.09964
G01 X-48.07610 Y-18.75013
G01 X-48.07532 Y-18.78487
G01 X-48.06274 Y-18.87527
G01 X-48.04994 Y-18.94413
G01 X-47.99772 Y-19.09234
G01 X-47.92142 Y-19.22719
G01 X-47.80250 Y-19.36755
G01 X-47.43237 Y-19.73849
G01 X-47.40760 Y-19.76735
G01 X-47.30872 Y-19.91296
G01 X-47.27440 Y-19.97746
G01 X-47.21426 Y-20.11558
G01 X-47.17161 Y-20.27118
G01 X-47.13684 Y-20.45767
G01 X-47.30412 Y-20.62307
G01 X-47.29693 Y-20.78147
G01 X-47.26158 Y-21.07710
G01 X-47.24260 Y-21.16793
G01 X-47.17296 Y-21.44055
G01 X-47.15840 Y-21.56165
G01 X-47.15388 Y-21.64997
G01 X-47.16973 Y-21.90590
G01 X-47.17120 Y-22.03087
G01 X-47.15939 Y-22.21108
G01 X-47.04565 Y-22.25985
G01 X-46.82272 Y-22.32071
G01 X-46.66488 Y-22.33473
G01 X-43.95833 Y-22.33473
G01 X-43.85043 Y-22.32696
G01 X-43.78056 Y-22.31692
G01 X-43.53949 Y-22.24453
G01 X-43.46961 Y-22.21263
G01 X-43.29118 Y-22.11177
G01 X-43.12615 Y-22.18764
G01 X-42.95445 Y-22.28441
G01 X-42.79582 Y-22.39561
G01 X-42.72633 Y-22.45233
G01 X-42.61993 Y-22.54999
G01 X-39.71186 Y-25.45834
G01 X-39.61318 Y-25.56805
G01 X-39.56251 Y-25.63144
G01 X-39.48273 Y-25.74285
G01 X-39.46261 Y-25.87358
G01 X-39.45415 Y-25.95928
G01 X-39.44795 Y-26.10394
G01 X-39.44559 Y-28.29136
G01 X-39.42738 Y-28.47360
G01 X-39.38930 Y-28.66687
G01 X-39.33518 Y-28.84914
G01 X-39.28778 Y-28.97518
G01 X-39.09024 Y-29.03009
G01 X-39.01829 Y-29.05691
G01 X-38.79682 Y-29.17609
G01 X-38.74031 Y-29.21841
G01 X-38.65844 Y-29.28927
G01 X-36.90424 Y-31.04238
G01 X-36.83472 Y-31.10029
G01 X-36.74049 Y-31.16298
G01 X-36.62004 Y-31.22013
G01 X-36.46861 Y-31.26232
G01 X-36.28522 Y-31.27687
G01 X-30.07576 Y-31.27522
G01 X-29.94896 Y-31.28427
G01 X-29.75226 Y-31.32978
G01 X-29.68241 Y-31.35498
G01 X-29.42839 Y-31.48670
G01 X-29.25610 Y-31.43788
G01 X-29.05298 Y-31.39562
G01 X-28.82900 Y-31.36796
G01 X-28.63233 Y-31.36021
G01 X-28.41859 Y-31.36908
G01 X-28.26875 Y-31.38617
G01 X-28.16708 Y-31.40281
G01 X-28.01424 Y-31.43547
G01 X-27.79032 Y-31.49996
G01 X-24.61445 Y-31.49996
G01 X-24.53576 Y-31.51983
G01 X-22.69028 Y-31.52000
G01 X-22.62703 Y-31.36382
G01 X-22.56925 Y-31.19996
G01 X-22.52335 Y-31.04599
G01 X-22.48649 Y-30.89626
G01 X-22.45550 Y-30.73573
G01 X-22.43318 Y-30.57423
G01 X-22.42063 Y-30.42892
G01 X-22.41532 Y-30.22570
G01 X-22.42038 Y-30.07467
G01 X-22.43082 Y-29.94744
G01 X-22.46005 Y-29.73690
G01 X-22.48819 Y-29.59593
G01 X-22.52502 Y-29.44782
G01 X-22.56569 Y-29.31084
G01 X-22.61806 Y-29.15978
G01 X-22.69038 Y-28.97960
G01 X-24.86891 Y-28.98071
G01 X-25.07691 Y-29.05996
G01 X-25.62555 Y-29.05996
G01 X-26.48321 Y-29.41452
G01 X-26.62436 Y-29.46387
G01 X-26.76914 Y-29.50218
G01 X-26.83200 Y-29.51503
G01 X-26.97185 Y-29.53535
G01 X-27.10967 Y-29.54414
G01 X-34.88822 Y-29.54348
G01 X-34.98807 Y-29.53652
G01 X-35.12073 Y-29.51831
G01 X-35.23745 Y-29.49362
G01 X-35.31794 Y-29.47205
G01 X-35.51814 Y-29.40240
G01 X-35.84133 Y-29.26855
G01 X-37.04059 Y-28.06738
G01 X-37.10323 Y-27.99862
G01 X-37.19538 Y-27.88689
G01 X-37.26647 Y-27.78928
G01 X-37.32022 Y-27.70711
G01 X-37.34755 Y-27.48758
G01 X-37.35494 Y-27.32032
G01 X-37.35515 Y-25.44846
G01 X-37.43960 Y-25.25050
G01 X-37.47686 Y-25.17397
G01 X-37.55337 Y-25.03665
G01 X-37.64087 Y-24.90473
G01 X-37.68654 Y-24.84394
G01 X-37.73769 Y-24.78128
G01 X-37.82111 Y-24.68938
G01 X-42.59245 Y-19.91749
G01 X-42.96524 Y-19.76638
G01 X-43.11526 Y-19.72206
G01 X-43.23065 Y-19.69867
G01 X-43.33392 Y-19.68579
G01 X-43.43979 Y-19.68012
G01 X-44.45005 Y-19.68000
G01 X-44.58650 Y-19.67222
G01 X-44.70895 Y-19.65411
G01 X-44.85201 Y-19.62005
G01 X-44.99534 Y-19.57126
G01 X-45.17088 Y-19.49897
G01 X-46.11995 Y-18.54998
G01 X-46.20486 Y-18.45833
G01 X-46.25779 Y-18.39450
G01 X-46.28998 Y-18.35305
G01 X-46.31167 Y-18.25534
G01 X-46.33407 Y-18.10954
G01 X-46.34360 Y-17.98107
G01 X-46.34494 Y-15.51988
G01 X-46.34799 Y-15.43080
G01 X-46.36305 Y-15.28237
G01 X-46.38192 Y-15.17526
G01 X-46.40958 Y-15.06090
G01 X-46.44799 Y-14.93680
G01 X-46.52495 Y-14.85496
G01 X-50.11537 Y-11.26457
G01 X-50.24206 Y-11.21207
G01 X-50.36835 Y-11.16541
G01 X-50.52146 Y-11.12213
G01 X-50.61501 Y-11.10290
G01 X-50.70744 Y-11.08979
G01 X-50.88004 Y-11.07996
G01 X-59.51677 Y-11.07874
G01 X-59.59726 Y-11.07267
G01 X-59.70181 Y-11.05835
G01 X-59.81395 Y-11.03523
G01 X-59.91642 Y-11.00704
G01 X-60.06849 Y-10.95273
G01 X-60.55091 Y-10.75296
G01 X-60.72876 Y-10.85339
G01 X-60.79861 Y-10.88530
G01 X-61.04024 Y-10.95789
G01 X-61.11009 Y-10.96795
G01 X-61.21862 Y-10.97575
G01 X-63.79276 Y-10.97491
G01 X-63.97531 Y-11.00526
G01 X-64.12050 Y-11.05982
G01 X-64.25547 Y-11.14044
G01 X-64.35956 Y-11.23036
G01 X-67.97246 Y-14.84465
G01 X-68.06532 Y-14.92362
G01 X-68.12968 Y-14.97005
G01 X-68.24543 Y-15.04000
G01 X-68.37690 Y-15.09423
G01 X-68.45104 Y-15.11889
G01 X-68.68185 Y-15.17272
G01 X-68.81017 Y-15.33258
G01 X-68.90995 Y-15.43997
G01 X-71.07997 Y-17.60997
G01 X-71.16282 Y-17.68823
G01 X-71.27151 Y-17.78041
G01 X-71.38269 Y-17.86336
G01 X-71.51395 Y-17.94916
G01 X-71.81210 Y-17.84568
G01 X-71.95637 Y-17.80990
G01 X-72.01944 Y-17.79852
G01 X-72.12584 Y-17.82023
G01 X-72.22863 Y-17.84881
G01 X-72.51388 Y-17.94944
G01 X-72.76663 Y-18.00819
G01 X-72.82271 Y-18.05066
G01 X-72.90117 Y-18.11896
G01 X-73.90465 Y-19.12244
G01 X-73.97544 Y-19.20420
G01 X-74.01776 Y-19.26072
G01 X-74.13709 Y-19.48246
G01 X-74.16391 Y-19.55444
G01 X-74.21875 Y-19.75183
G01 X-74.44704 Y-19.83743
G01 X-74.57084 Y-19.87240
G01 X-74.70087 Y-19.90037
G01 X-74.81405 Y-19.91713
G01 X-74.92553 Y-19.92686
G01 X-75.22632 Y-19.93605
G01 X-75.34905 Y-20.00440
G01 X-75.47089 Y-20.08591
G01 X-75.59147 Y-20.18213
G01 X-75.67247 Y-20.25747
G01 X-77.52248 Y-22.10745
G01 X-77.60988 Y-22.20234
G01 X-77.69573 Y-22.31121
G01 X-77.74221 Y-22.37854
G01 X-77.81742 Y-22.50379
G01 X-77.87775 Y-22.62436
G01 X-77.87876 Y-22.64446
G01 X-77.87991 Y-25.54006
G01 X-77.87218 Y-25.69500
G01 X-77.86179 Y-25.78821
G01 X-77.82542 Y-25.98296
G01 X-77.79758 Y-26.08852
G01 X-77.57800 Y-26.38778
G01 X-77.47348 Y-26.55443
G01 X-77.25768 Y-26.61270
G01 X-77.18572 Y-26.63955
G01 X-76.96398 Y-26.75890
G01 X-76.90744 Y-26.80122
G01 X-76.82568 Y-26.87201
G01 X-76.27079 Y-27.42695
G01 X-76.18352 Y-27.52837
G01 X-76.09479 Y-27.65603
G01 X-76.03345 Y-27.75976
G01 X-76.03846 Y-27.77317
G01 X-76.15766 Y-27.99469
G01 X-76.19995 Y-28.05120
G01 X-76.27076 Y-28.13296
G01 X-76.41626 Y-28.27848
G01 X-76.46528 Y-28.32395
G01 X-76.57132 Y-28.40380
G01 X-76.66137 Y-28.41704
G01 X-76.76932 Y-28.42484
G01 X-77.47810 Y-28.42509
G01 X-77.58483 Y-28.41755
G01 X-77.65387 Y-28.40774
G01 X-77.76045 Y-28.38529
G01 X-78.03782 Y-28.29773
G01 X-78.02263 Y-28.11836
G01 X-77.99311 Y-27.91869
G01 X-77.97498 Y-27.82801
G01 X-77.94739 Y-27.72667
G01 X-77.80645 Y-27.50769
G01 X-77.78181 Y-27.46372
G01 X-77.74435 Y-27.37978
G01 X-77.71054 Y-27.29370
G01 X-77.64904 Y-27.03200
G01 X-77.62400 Y-26.93746
G01 X-77.59377 Y-26.84493
G01 X-77.47348 Y-26.55443
G01 X-77.59377 Y-26.84493
G01 X-77.62400 Y-26.93746
G01 X-77.64904 Y-27.03200
G01 X-77.71054 Y-27.29370
G01 X-77.74435 Y-27.37978
G01 X-77.78181 Y-27.46372
G01 X-77.80645 Y-27.50769
G01 X-77.94739 Y-27.72667
G01 X-77.97498 Y-27.82801
G01 X-77.99311 Y-27.91869
G01 X-78.02263 Y-28.11836
G01 X-78.03782 Y-28.29773
G01 X-78.13177 Y-28.35933
G01 X-78.25956 Y-28.45298
G01 X-78.40640 Y-28.58196
G01 X-81.12244 Y-31.29745
G01 X-81.25503 Y-31.41800
G01 X-81.37223 Y-31.50888
G01 X-81.51673 Y-31.60349
G01 X-81.70469 Y-31.70400
G01 X-83.38000 Y-31.70497
G01 X-83.59747 Y-31.72450
G01 X-83.78114 Y-31.63280
G01 X-83.93384 Y-31.58411
G01 X-84.00369 Y-31.56765
G01 X-84.27837 Y-31.54533
G01 X-84.32823 Y-31.56923
G01 X-84.49521 Y-31.67482
G01 X-84.58741 Y-31.75518
G01 X-84.92851 Y-32.09628
G01 X-84.99937 Y-32.17814
G01 X-85.05375 Y-32.25124
G01 X-85.07227 Y-32.38276
G01 X-85.07476 Y-32.44929
G01 X-85.07316 Y-33.72726
G01 X-85.07715 Y-33.81167
G01 X-85.08393 Y-33.88716
G01 X-85.12160 Y-34.03760
G01 X-85.19866 Y-34.20133
G01 X-85.29279 Y-34.32957
G01 X-85.33031 Y-34.36963
G01 X-87.57382 Y-36.61407
G01 X-87.69284 Y-36.71814
G01 X-87.81456 Y-36.79050
G01 X-87.88784 Y-36.82378
G01 X-87.99579 Y-36.85992
G01 X-88.15481 Y-36.88542
G01 X-89.24742 Y-36.88512
G01 X-89.35212 Y-36.89233
G01 X-89.42073 Y-36.90186
G01 X-89.67567 Y-37.05855
G01 X-89.84645 Y-37.12870
G01 X-90.02596 Y-37.17181
G01 X-90.20846 Y-37.18672
G01 X-90.25862 Y-37.18430
G01 X-90.39410 Y-37.17254
G01 X-90.53088 Y-37.14074
G01 X-90.57366 Y-37.12929
G01 X-90.74404 Y-37.05812
G01 X-90.84772 Y-36.99703
G01 X-90.93093 Y-36.93861
G01 X-91.04183 Y-36.84186
G01 X-91.15087 Y-36.71570
G01 X-91.17848 Y-36.67669
G01 X-91.25709 Y-36.54666
G01 X-91.32870 Y-36.37349
G01 X-91.37175 Y-36.19398
G01 X-91.38222 Y-36.09061
G01 X-91.38585 Y-35.98898
G01 X-91.37251 Y-35.82584
G01 X-91.32915 Y-35.64633
G01 X-91.25806 Y-35.47593
G01 X-91.19969 Y-35.37659
G01 X-91.13535 Y-35.28512
G01 X-91.04219 Y-35.17776
G01 X-91.01414 Y-35.15228
G01 X-90.90149 Y-35.05815
G01 X-90.73093 Y-34.95121
G01 X-90.59014 Y-34.85261
G01 X-90.51262 Y-34.79107
G01 X-90.26822 Y-34.55985
G01 X-90.14163 Y-34.56031
G01 X-89.89736 Y-34.32889
G01 X-89.81981 Y-34.26734
G01 X-89.71945 Y-34.19632
G01 X-89.49855 Y-34.05447
G01 X-89.36779 Y-33.94217
G01 X-89.30510 Y-33.87151
G01 X-89.24823 Y-33.80143
G01 X-89.15131 Y-33.64431
G01 X-89.08092 Y-33.47359
G01 X-89.03800 Y-33.29402
G01 X-89.03012 Y-33.22048
G01 X-89.02301 Y-33.10999
G01 X-89.03782 Y-32.92592
G01 X-89.08108 Y-32.74642
G01 X-89.10622 Y-32.68025
G01 X-89.15121 Y-32.57560
G01 X-89.24808 Y-32.41840
G01 X-89.36822 Y-32.27822
G01 X-89.50815 Y-32.15780
G01 X-89.66581 Y-32.06161
G01 X-89.77541 Y-32.01416
G01 X-89.86172 Y-31.98371
G01 X-90.01585 Y-31.94741
G01 X-90.17152 Y-31.93445
G01 X-90.27317 Y-31.93677
G01 X-90.35684 Y-31.94401
G01 X-90.52260 Y-31.93301
G01 X-91.69814 Y-31.93473
G01 X-91.80203 Y-31.92755
G01 X-91.86936 Y-31.91822
G01 X-92.04742 Y-31.80558
G01 X-92.23215 Y-31.65958
G01 X-92.25852 Y-31.48073
G01 X-92.26100 Y-31.41086
G01 X-92.23906 Y-31.19310
G01 X-92.17284 Y-31.13344
G01 X-92.06466 Y-31.02353
G01 X-92.01871 Y-30.94909
G01 X-91.99052 Y-30.86346
G01 X-91.98536 Y-30.82082
G01 X-91.98455 Y-29.24937
G01 X-91.97350 Y-29.03903
G01 X-91.97437 Y-28.92641
G01 X-91.56131 Y-28.64114
G01 X-91.43459 Y-28.69654
G01 X-91.27061 Y-28.79189
G01 X-91.21407 Y-28.83411
G01 X-91.13086 Y-28.90609
G01 X-90.80937 Y-29.22801
G01 X-90.67975 Y-29.32280
G01 X-90.53807 Y-29.39092
G01 X-90.46500 Y-29.41282
G01 X-90.37693 Y-29.43426
G01 X-90.27025 Y-29.44404
G01 X-85.95830 Y-29.44485
G01 X-85.83656 Y-29.45470
G01 X-85.75822 Y-29.46743
G01 X-85.62688 Y-29.49984
G01 X-85.49554 Y-29.55450
G01 X-85.42569 Y-29.58948
G01 X-85.27849 Y-29.67619
G01 X-85.10814 Y-29.63240
G01 X-85.01355 Y-29.61429
G01 X-84.92305 Y-29.60098
G01 X-84.75246 Y-29.58678
G01 X-82.46999 Y-29.58495
G01 X-82.33743 Y-29.57957
G01 X-82.24622 Y-29.57096
G01 X-82.11055 Y-29.48887
G01 X-82.04324 Y-29.44238
G01 X-81.91932 Y-29.34523
G01 X-81.80738 Y-29.24238
G01 X-80.58902 Y-28.02176
G01 X-80.45684 Y-27.86311
G01 X-80.34972 Y-27.70429
G01 X-80.26786 Y-27.55580
G01 X-80.18427 Y-27.37226
G01 X-80.20619 Y-27.20500
G01 X-80.21640 Y-27.06619
G01 X-80.21884 Y-26.86075
G01 X-80.21063 Y-26.70487
G01 X-80.18330 Y-26.47983
G01 X-80.15272 Y-26.31991
G01 X-80.11086 Y-26.15232
G01 X-80.06997 Y-26.01831
G01 X-80.06992 Y-22.82360
G01 X-79.80307 Y-22.18154
G01 X-79.75316 Y-22.07694
G01 X-79.67269 Y-21.93562
G01 X-79.58059 Y-21.80288
G01 X-79.49507 Y-21.69919
G01 X-79.42994 Y-21.62993
G01 X-76.16904 Y-18.37065
G01 X-76.02921 Y-18.25333
G01 X-75.87480 Y-18.14921
G01 X-75.74793 Y-18.07942
G01 X-75.66878 Y-18.04175
G01 X-75.46645 Y-17.95645
G01 X-75.42357 Y-17.91355
G01 X-75.33000 Y-17.87479
G01 X-75.16129 Y-17.78607
G01 X-75.01926 Y-17.67070
G01 X-74.90389 Y-17.52867
G01 X-74.81517 Y-17.35999
G01 X-74.70173 Y-17.08612
G01 X-74.51423 Y-17.02923
G01 X-74.37638 Y-16.97299
G01 X-74.25406 Y-16.90124
G01 X-74.19571 Y-16.86075
G01 X-74.05266 Y-16.73553
G01 X-73.98029 Y-16.53276
G01 X-73.95886 Y-16.45681
G01 X-73.85670 Y-16.20738
G01 X-73.79693 Y-16.03804
G01 X-73.88167 Y-15.89453
G01 X-73.92599 Y-15.83418
G01 X-74.00097 Y-15.74676
G01 X-74.10242 Y-15.64531
G01 X-74.18431 Y-15.57442
G01 X-74.24082 Y-15.53210
G01 X-74.46228 Y-15.41292
G01 X-74.53424 Y-15.38608
G01 X-74.83991 Y-15.31412
G01 X-74.87049 Y-15.50220
G01 X-74.92502 Y-15.75999
G01 X-74.94488 Y-15.87675
G01 X-74.95474 Y-15.99832
G01 X-74.95474 Y-16.37604
G01 X-74.94697 Y-16.48391
G01 X-74.93693 Y-16.55379
G01 X-74.86454 Y-16.79489
G01 X-74.83262 Y-16.86474
G01 X-74.70173 Y-17.08612
G01 X-74.83262 Y-16.86474
G01 X-74.86454 Y-16.79489
G01 X-74.93693 Y-16.55379
G01 X-74.94697 Y-16.48391
G01 X-74.95474 Y-16.37604
G01 X-74.95474 Y-15.99832
G01 X-74.94488 Y-15.87675
G01 X-74.92502 Y-15.75999
G01 X-74.87049 Y-15.50220
G01 X-74.83991 Y-15.31412
G01 X-75.06170 Y-15.12725
G01 X-75.32807 Y-14.98498
G01 X-76.60206 Y-14.98496
G01 X-76.78054 Y-14.83815
G01 X-76.95905 Y-14.72964
G01 X-77.02893 Y-14.69466
G01 X-77.16015 Y-14.64010
G01 X-77.29134 Y-14.60774
G01 X-77.36964 Y-14.59507
G01 X-77.49118 Y-14.58524
G01 X-77.87297 Y-14.58524
G01 X-77.98090 Y-14.59299
G01 X-78.05077 Y-14.60304
G01 X-78.29156 Y-14.67531
G01 X-78.36144 Y-14.70718
G01 X-78.51511 Y-14.79169
G01 X-78.66875 Y-14.90485
G01 X-78.66982 Y-15.08646
G01 X-78.59834 Y-15.15702
G01 X-78.48570 Y-15.25892
G01 X-78.26825 Y-15.42913
G01 X-78.00541 Y-15.58994
G01 X-77.78666 Y-15.74363
G01 X-77.67394 Y-15.80982
G01 X-77.48603 Y-15.89989
G01 X-77.38402 Y-15.75999
G01 X-77.31872 Y-15.65506
G01 X-77.22921 Y-15.53083
G01 X-77.13510 Y-15.44056
G01 X-77.04493 Y-15.36791
G01 X-76.93000 Y-15.28625
G01 X-76.67287 Y-15.06103
G01 X-76.60206 Y-14.98496
G01 X-76.67287 Y-15.06103
G01 X-76.93000 Y-15.28625
G01 X-77.04493 Y-15.36791
G01 X-77.13510 Y-15.44056
G01 X-77.22921 Y-15.53083
G01 X-77.31872 Y-15.65506
G01 X-77.38402 Y-15.75999
G01 X-77.48603 Y-15.89989
G01 X-77.44628 Y-16.07581
G01 X-77.42649 Y-16.19451
G01 X-77.41125 Y-16.32222
G01 X-77.40015 Y-16.54851
G01 X-77.40602 Y-16.73306
G01 X-77.42159 Y-16.89019
G01 X-77.44033 Y-17.01147
G01 X-77.51219 Y-17.11825
G01 X-77.58041 Y-17.21000
G01 X-77.69870 Y-17.35102
G01 X-77.85532 Y-17.50908
G01 X-77.91674 Y-17.58424
G01 X-78.00746 Y-17.68246
G01 X-81.99087 Y-21.66643
G01 X-82.10641 Y-21.79688
G01 X-82.17654 Y-21.88942
G01 X-82.28495 Y-22.05929
G01 X-82.34878 Y-22.18019
G01 X-82.40428 Y-22.29686
G01 X-82.30723 Y-22.46970
G01 X-82.27532 Y-22.53958
G01 X-82.20299 Y-22.78052
G01 X-82.19295 Y-22.85037
G01 X-82.18518 Y-22.95832
G01 X-82.18569 Y-25.12858
G01 X-82.19925 Y-25.25494
G01 X-82.21261 Y-25.32479
G01 X-82.30103 Y-25.57536
G01 X-82.34114 Y-25.65337
G01 X-82.28508 Y-25.77328
G01 X-82.21789 Y-25.94209
G01 X-82.17296 Y-26.07937
G01 X-82.13171 Y-26.23988
G01 X-82.10799 Y-26.36426
G01 X-82.08848 Y-26.52027
G01 X-82.08071 Y-26.66385
G01 X-82.08274 Y-26.81348
G01 X-82.09526 Y-26.96357
G01 X-82.11076 Y-27.06830
G01 X-82.15043 Y-27.13050
G01 X-82.23156 Y-27.24325
G01 X-82.30245 Y-27.33053
G01 X-82.40184 Y-27.43858
G01 X-82.53458 Y-27.56192
G01 X-82.65071 Y-27.65405
G01 X-82.81421 Y-27.76304
G01 X-82.90149 Y-27.77541
G01 X-83.01330 Y-27.78539
G01 X-83.16471 Y-27.78966
G01 X-83.30382 Y-27.78427
G01 X-83.45399 Y-27.76830
G01 X-83.65729 Y-27.73002
G01 X-83.77926 Y-27.69791
G01 X-83.95937 Y-27.63784
G01 X-84.19544 Y-27.53693
G01 X-84.33681 Y-27.60459
G01 X-84.57771 Y-27.67691
G01 X-84.64758 Y-27.68697
G01 X-84.75548 Y-27.69471
G01 X-89.16444 Y-27.69471
G01 X-89.31976 Y-27.68069
G01 X-89.38961 Y-27.66731
G01 X-89.64021 Y-27.57891
G01 X-89.72326 Y-27.53611
G01 X-89.70790 Y-27.35252
G01 X-89.69162 Y-27.25677
G01 X-89.66820 Y-27.14198
G01 X-89.63055 Y-26.99702
G01 X-89.58166 Y-26.78321
G01 X-89.53929 Y-26.72723
G01 X-89.47081 Y-26.64859
G01 X-86.94372 Y-24.12060
G01 X-86.85116 Y-23.99393
G01 X-86.71740 Y-23.77732
G01 X-86.66752 Y-23.70836
G01 X-86.55578 Y-23.56043
G01 X-86.43704 Y-23.42210
G01 X-86.43953 Y-23.32335
G01 X-86.43508 Y-23.15726
G01 X-86.22848 Y-22.63508
G01 X-86.02401 Y-22.55388
G01 X-85.84235 Y-22.46320
G01 X-85.73478 Y-22.39998
G01 X-85.61100 Y-22.31794
G01 X-85.51530 Y-22.26224
G01 X-85.34352 Y-22.19117
G01 X-85.05182 Y-22.12063
G01 X-84.99726 Y-22.07933
G01 X-84.91875 Y-22.01098
G01 X-84.46529 Y-21.55749
G01 X-84.39445 Y-21.47570
G01 X-84.35216 Y-21.41918
G01 X-84.23295 Y-21.19767
G01 X-84.20611 Y-21.12571
G01 X-84.14502 Y-20.89442
G01 X-83.97210 Y-20.77867
G01 X-83.86595 Y-20.69600
G01 X-83.76128 Y-20.61009
G01 X-83.72996 Y-20.57997
G01 X-81.06202 Y-17.91200
G01 X-80.90431 Y-17.83014
G01 X-80.70906 Y-17.70936
G01 X-80.62504 Y-17.64957
G01 X-80.50141 Y-17.55145
G01 X-80.34924 Y-17.41096
G01 X-80.24904 Y-17.30411
G01 X-80.13441 Y-17.16385
G01 X-80.04759 Y-17.04195
G01 X-79.93977 Y-16.86618
G01 X-79.93974 Y-16.12897
G01 X-79.83720 Y-16.05486
G01 X-79.75453 Y-15.98696
G01 X-79.62196 Y-15.85951
G01 X-79.50200 Y-15.72796
G01 X-79.36177 Y-15.60782
G01 X-79.11140 Y-15.45333
G01 X-79.00426 Y-15.38036
G01 X-78.89761 Y-15.29646
G01 X-78.66982 Y-15.08646
G01 X-78.66786 Y-15.00561
G01 X-78.66875 Y-14.90485
G01 X-78.77846 Y-14.82570
G01 X-78.84833 Y-14.77973
G01 X-78.98856 Y-14.69984
G01 X-79.12880 Y-14.64467
G01 X-79.19867 Y-14.62334
G01 X-79.37139 Y-14.59034
G01 X-79.46697 Y-14.58524
G01 X-80.33062 Y-14.58524
G01 X-80.43855 Y-14.59299
G01 X-80.52585 Y-14.60442
G01 X-80.63446 Y-14.68582
G01 X-80.68366 Y-14.73144
G01 X-80.78577 Y-14.84455
G01 X-80.82806 Y-14.90104
G01 X-80.94729 Y-15.12255
G01 X-80.99422 Y-15.25331
G01 X-80.89720 Y-15.34236
G01 X-80.75432 Y-15.45323
G01 X-80.65798 Y-15.52034
G01 X-80.51874 Y-15.60754
G01 X-80.48066 Y-15.63802
G01 X-80.37787 Y-15.72786
G01 X-80.26857 Y-15.84858
G01 X-80.14757 Y-15.96713
G01 X-80.05973 Y-16.04160
G01 X-79.93974 Y-16.12897
G01 X-80.05973 Y-16.04160
G01 X-80.14757 Y-15.96713
G01 X-80.26857 Y-15.84858
G01 X-80.37787 Y-15.72786
G01 X-80.48066 Y-15.63802
G01 X-80.51874 Y-15.60754
G01 X-80.65798 Y-15.52034
G01 X-80.75432 Y-15.45323
G01 X-80.89720 Y-15.34236
G01 X-80.99422 Y-15.25331
G01 X-81.21444 Y-15.33416
G01 X-81.40809 Y-15.42435
G01 X-81.49946 Y-15.47439
G01 X-81.59808 Y-15.53461
G01 X-81.68625 Y-15.59486
G01 X-81.78424 Y-15.66939
G01 X-81.86951 Y-15.74175
G01 X-81.94302 Y-15.81132
G01 X-82.05269 Y-15.92849
G01 X-82.15528 Y-16.05651
G01 X-82.22615 Y-16.15816
G01 X-82.31523 Y-16.30581
G01 X-82.40552 Y-16.48551
G01 X-82.55564 Y-16.63563
G01 X-82.63649 Y-16.79946
G01 X-82.72290 Y-16.94528
G01 X-82.77499 Y-17.02260
G01 X-82.84962 Y-17.12224
G01 X-82.94736 Y-17.23659
G01 X-83.03217 Y-17.32366
G01 X-83.10695 Y-17.39273
G01 X-83.20133 Y-17.47106
G01 X-83.30062 Y-17.54421
G01 X-83.41744 Y-17.61995
G01 X-83.54578 Y-17.69224
G01 X-83.67400 Y-17.75468
G01 X-83.81169 Y-17.81221
G01 X-83.96557 Y-17.86616
G01 X-84.01266 Y-17.99740
G01 X-84.13189 Y-18.21891
G01 X-84.17418 Y-18.27540
G01 X-84.24502 Y-18.35721
G01 X-84.69630 Y-18.80850
G01 X-84.74512 Y-18.85378
G01 X-84.85119 Y-18.93372
G01 X-84.94144 Y-18.94695
G01 X-85.04941 Y-18.95472
G01 X-86.41954 Y-18.95457
G01 X-86.55489 Y-18.94235
G01 X-86.62474 Y-18.92976
G01 X-86.87290 Y-18.84530
G01 X-86.94278 Y-18.81033
G01 X-87.16820 Y-18.66694
G01 X-87.29500 Y-18.68350
G01 X-87.43683 Y-18.69516
G01 X-87.56851 Y-18.69961
G01 X-87.76279 Y-18.69488
G01 X-87.56851 Y-18.69961
G01 X-87.43683 Y-18.69516
G01 X-87.29500 Y-18.68350
G01 X-87.16820 Y-18.66694
G01 X-87.03714 Y-18.44769
G01 X-86.95761 Y-18.32760
G01 X-86.85187 Y-18.19567
G01 X-86.71761 Y-18.04614
G01 X-86.64773 Y-17.96181
G01 X-86.55152 Y-17.80421
G01 X-86.48083 Y-17.63362
G01 X-86.43742 Y-17.45412
G01 X-86.42289 Y-17.26999
G01 X-86.43732 Y-17.08696
G01 X-86.47496 Y-16.92989
G01 X-86.50834 Y-16.81770
G01 X-86.51471 Y-16.71963
G01 X-86.51471 Y-15.75181
G01 X-86.50755 Y-15.64805
G01 X-86.49790 Y-15.57835
G01 X-86.36640 Y-15.36771
G01 X-86.32033 Y-15.27708
G01 X-86.27105 Y-15.15354
G01 X-86.22741 Y-14.97411
G01 X-86.21347 Y-14.79840
G01 X-86.21784 Y-14.70696
G01 X-86.22835 Y-14.60599
G01 X-86.27138 Y-14.42651
G01 X-86.34179 Y-14.25590
G01 X-86.43790 Y-14.09830
G01 X-86.63592 Y-13.86710
G01 X-86.74969 Y-13.71714
G01 X-86.84357 Y-13.56474
G01 X-86.93244 Y-13.40749
G01 X-87.14593 Y-13.38075
G01 X-87.29518 Y-13.37178
G01 X-87.45383 Y-13.37097
G01 X-87.61649 Y-13.37930
G01 X-87.78034 Y-13.39710
G01 X-87.94671 Y-13.42487
G01 X-88.11638 Y-13.46319
G01 X-88.25161 Y-13.50140
G01 X-88.41405 Y-13.64409
G01 X-88.52756 Y-13.75743
G01 X-88.51052 Y-13.99129
G01 X-88.50574 Y-14.23330
G01 X-88.51862 Y-14.39504
G01 X-88.53241 Y-14.49979
G01 X-88.55255 Y-14.60584
G01 X-88.56668 Y-14.78999
G01 X-88.55177 Y-14.97399
G01 X-88.52807 Y-15.08219
G01 X-88.49566 Y-15.18923
G01 X-88.43599 Y-15.32875
G01 X-88.28197 Y-15.57876
G01 X-88.27239 Y-15.64805
G01 X-88.26523 Y-15.75181
G01 X-88.26523 Y-16.06245
G01 X-88.26990 Y-16.15371
G01 X-88.29162 Y-16.28770
G01 X-88.44948 Y-16.45661
G01 X-88.55222 Y-16.57815
G01 X-88.64864 Y-16.73565
G01 X-88.69103 Y-16.83027
G01 X-88.75354 Y-16.95404
G01 X-88.83381 Y-17.08264
G01 X-89.01361 Y-17.06009
G01 X-89.12830 Y-17.03898
G01 X-89.27160 Y-17.02097
G01 X-89.38633 Y-16.99986
G01 X-89.56632 Y-16.97728
G01 X-89.38633 Y-16.99986
G01 X-89.27160 Y-17.02097
G01 X-89.12830 Y-17.03898
G01 X-89.01361 Y-17.06009
G01 X-88.83381 Y-17.08264
G01 X-88.80224 Y-17.20853
G01 X-88.77892 Y-17.33199
G01 X-88.76203 Y-17.45407
G01 X-88.71915 Y-17.63359
G01 X-88.64839 Y-17.80416
G01 X-88.56411 Y-17.94370
G01 X-88.50765 Y-18.01650
G01 X-88.43213 Y-18.10215
G01 X-88.29180 Y-18.22214
G01 X-88.14313 Y-18.32549
G01 X-88.05903 Y-18.39430
G01 X-87.89957 Y-18.54518
G01 X-87.76279 Y-18.69488
G01 X-87.98806 Y-18.89796
G01 X-88.05654 Y-18.95328
G01 X-88.21491 Y-19.06712
G01 X-88.29269 Y-19.11838
G01 X-88.37983 Y-19.19254
G01 X-88.72121 Y-19.53341
G01 X-88.81722 Y-19.61667
G01 X-88.98857 Y-19.72358
G01 X-89.05580 Y-19.75515
G01 X-89.34704 Y-19.84510
G01 X-89.44922 Y-20.01683
G01 X-89.52479 Y-20.12732
G01 X-89.59261 Y-20.21766
G01 X-89.70157 Y-20.34774
G01 X-89.81488 Y-20.46643
G01 X-89.98651 Y-20.62061
G01 X-90.13170 Y-20.73173
G01 X-90.43716 Y-20.90400
G01 X-90.48961 Y-21.08921
G01 X-90.51643 Y-21.16117
G01 X-90.63563 Y-21.38263
G01 X-90.67792 Y-21.43915
G01 X-90.74879 Y-21.52101
G01 X-91.27457 Y-22.04679
G01 X-91.33213 Y-22.09952
G01 X-91.46395 Y-22.19333
G01 X-91.52692 Y-22.22919
G01 X-91.65745 Y-22.29058
G01 X-91.81135 Y-22.33714
G01 X-91.88348 Y-22.50249
G01 X-91.96550 Y-22.66079
G01 X-92.07376 Y-22.83605
G01 X-92.15364 Y-22.94707
G01 X-92.25646 Y-23.07212
G01 X-92.34675 Y-23.16869
G01 X-92.48549 Y-23.29754
G01 X-92.62278 Y-23.40613
G01 X-92.78775 Y-23.51667
G01 X-92.91985 Y-23.59218
G01 X-93.09583 Y-23.67783
G01 X-93.25597 Y-23.74321
G01 X-93.44109 Y-23.73043
G01 X-93.56496 Y-23.71496
G01 X-93.67622 Y-23.69637
G01 X-93.87042 Y-23.65263
G01 X-94.09643 Y-23.58489
G01 X-94.21160 Y-23.54323
G01 X-94.36903 Y-23.47902
G01 X-94.44002 Y-23.27839
G01 X-94.48226 Y-23.13285
G01 X-94.51233 Y-23.01085
G01 X-94.55432 Y-22.78426
G01 X-94.56702 Y-22.68507
G01 X-94.58267 Y-22.47519
G01 X-94.58462 Y-22.37354
G01 X-94.57906 Y-22.19223
G01 X-94.56186 Y-22.00996
G01 X-94.53527 Y-21.83950
G01 X-94.49501 Y-21.65551
G01 X-94.43491 Y-21.44578
G01 X-94.43296 Y-20.46458
G01 X-94.34213 Y-20.22183
G01 X-94.17154 Y-19.80570
G01 X-94.16181 Y-19.78442
G01 X-94.05242 Y-19.66742
G01 X-93.27594 Y-18.89100
G01 X-93.24886 Y-18.55912
G01 X-93.20230 Y-18.33847
G01 X-93.11645 Y-18.07352
G01 X-93.07408 Y-17.90713
G01 X-93.06174 Y-17.71081
G01 X-93.04716 Y-17.58066
G01 X-92.89131 Y-17.32394
G01 X-92.78353 Y-17.07269
G01 X-92.72773 Y-16.96209
G01 X-92.66745 Y-16.85552
G01 X-92.62435 Y-16.78902
G01 X-92.11597 Y-16.79092
G01 X-92.04068 Y-16.67030
G01 X-91.95209 Y-16.49870
G01 X-91.84879 Y-16.25590
G01 X-91.69197 Y-16.00121
G01 X-91.68239 Y-15.93195
G01 X-91.67523 Y-15.82819
G01 X-91.67693 Y-14.30269
G01 X-91.67292 Y-14.22458
G01 X-91.66263 Y-14.12458
G01 X-91.62054 Y-13.97201
G01 X-91.55138 Y-13.82857
G01 X-91.47391 Y-13.72011
G01 X-91.42593 Y-13.66822
G01 X-89.40757 Y-11.64753
G01 X-89.31128 Y-11.56287
G01 X-89.26741 Y-11.52822
G01 X-89.17846 Y-11.47597
G01 X-89.13244 Y-11.45200
G01 X-89.06622 Y-11.42660
G01 X-88.98425 Y-11.39955
G01 X-88.85525 Y-11.37831
G01 X-88.79345 Y-11.37399
G01 X-81.96260 Y-11.37295
G01 X-81.85696 Y-11.37869
G01 X-81.80494 Y-11.38382
G01 X-81.73928 Y-11.39883
G01 X-81.60824 Y-11.43919
G01 X-81.50934 Y-11.48677
G01 X-81.37827 Y-11.57719
G01 X-80.26370 Y-12.68852
G01 X-80.18183 Y-12.75936
G01 X-80.10878 Y-12.81369
G01 X-79.97754 Y-12.83221
G01 X-79.91066 Y-12.83472
G01 X-74.82261 Y-12.83292
G01 X-74.66284 Y-12.84420
G01 X-74.36127 Y-12.91539
G01 X-74.21916 Y-12.94237
G01 X-73.96927 Y-12.96810
G01 X-73.81801 Y-12.97473
G01 X-73.78078 Y-13.00904
G01 X-73.72848 Y-13.29987
G01 X-73.70628 Y-13.37650
G01 X-73.59449 Y-13.62875
G01 X-73.55604 Y-13.68910
G01 X-73.47087 Y-13.79954
G01 X-72.23590 Y-15.03375
G01 X-72.09315 Y-15.19250
G01 X-71.96783 Y-15.32225
G01 X-71.87359 Y-15.40736
G01 X-71.74634 Y-15.35626
G01 X-71.54931 Y-15.24254
G01 X-71.43069 Y-15.14290
G01 X-70.72145 Y-14.43365
G01 X-70.65063 Y-14.35186
G01 X-70.59623 Y-14.27874
G01 X-70.57774 Y-14.14752
G01 X-70.57522 Y-12.43830
G01 X-70.58297 Y-12.33043
G01 X-70.59303 Y-12.26055
G01 X-70.66542 Y-12.01948
G01 X-70.69732 Y-11.94961
G01 X-70.79828 Y-11.77097
G01 X-70.71159 Y-11.55695
G01 X-70.64939 Y-11.35893
G01 X-70.61091 Y-11.17145
G01 X-70.59767 Y-11.06396
G01 X-70.59155 Y-10.97176
G01 X-70.58998 Y-5.68998
G01 X-70.58609 Y-5.57804
G01 X-70.57113 Y-5.43370
G01 X-70.55030 Y-5.31528
G01 X-70.52292 Y-5.20225
G01 X-70.49216 Y-5.10042
G01 X-70.45013 Y-4.98505
G01 X-70.17535 Y-4.32034
G01 X-68.45958 Y-2.60459
G01 X-68.09595 Y-2.45397
G01 X-67.96014 Y-2.40292
G01 X-67.86316 Y-2.37180
G01 X-67.70266 Y-2.33060
G01 X-67.58229 Y-2.30835
G01 X-67.47419 Y-2.29479
G01 X-67.30502 Y-2.28529
G01 X-44.98998 Y-2.28498
G01 X-44.85541 Y-2.29009
G01 X-44.77103 Y-2.29756
G01 X-44.65945 Y-2.31272
G01 X-44.50547 Y-2.41950
G01 X-44.39595 Y-2.50962
G01 X-44.33677 Y-2.56423
G01 X-42.45267 Y-4.44731
G01 X-42.34325 Y-4.56814
G01 X-42.21927 Y-4.73387
G01 X-42.19001 Y-4.92519
G01 X-42.17998 Y-5.12000
G01 X-42.17896 Y-9.49637
G01 X-42.16639 Y-9.67732
G01 X-42.14584 Y-9.81169
G01 X-42.09821 Y-10.00973
G01 X-42.05280 Y-10.14788
G01 X-42.14238 Y-10.29843
G01 X-42.17736 Y-10.36831
G01 X-42.23794 Y-10.52065
G01 X-42.30614 Y-10.77247
G01 X-42.34434 Y-10.96338
G01 X-42.25813 Y-11.09762
G01 X-42.16481 Y-11.20734
G01 X-40.74366 Y-12.62850
G01 X-40.66184 Y-12.69931
G01 X-40.58874 Y-12.75372
G01 X-40.43101 Y-12.77363
G01 X-39.84219 Y-12.77473
G01 X-39.73429 Y-12.76695
G01 X-39.60358 Y-12.74575
G01 X-39.46766 Y-12.60754
G01 X-39.38913 Y-12.55875
G01 X-39.30343 Y-12.53053
G01 X-39.26081 Y-12.52535
G01 X-37.69914 Y-12.52535
G01 X-37.65652 Y-12.53053
G01 X-37.57082 Y-12.55875
G01 X-37.49645 Y-12.60462
G01 X-37.43226 Y-12.66911
G01 X-37.38240 Y-12.73620
G01 X-37.31473 Y-12.84046
G01 X-37.15911 Y-12.87381
G01 X-37.01984 Y-12.88473
G01 X-34.67473 Y-12.88303
G01 X-34.49140 Y-12.89812
G01 X-34.33983 Y-12.93965
G01 X-34.29856 Y-12.95786
G01 X-34.21896 Y-12.99609
G01 X-34.08817 Y-13.08707
G01 X-32.89752 Y-14.27465
G01 X-32.81581 Y-14.34541
G01 X-32.75929 Y-14.38773
G01 X-32.53768 Y-14.50701
G01 X-32.46572 Y-14.53385
G01 X-32.26813 Y-14.58877
G01 X-32.13067 Y-14.92065
G01 X-32.06562 Y-15.10309
G01 X-32.04322 Y-15.18356
G01 X-32.01843 Y-15.29550
G01 X-31.99994 Y-15.42090
G01 X-31.99219 Y-15.51694
G01 X-31.98998 Y-19.89996
G01 X-31.99475 Y-20.02196
G01 X-32.00832 Y-20.14299
G01 X-32.03369 Y-20.27740
G01 X-32.06864 Y-20.40664
G01 X-32.09549 Y-20.48711
G01 X-32.42963 Y-21.30031
G01 X-32.92996 Y-21.50770
G01 X-33.17065 Y-21.64545
G01 X-33.26013 Y-21.85271
G01 X-33.28998 Y-22.05995
G01 X-33.28998 Y-24.25997
G01 X-33.25975 Y-24.46858
G01 X-33.16910 Y-24.67719
G01 X-33.21614 Y-24.79893
G01 X-33.26470 Y-25.00112
G01 X-33.27471 Y-25.13449
G01 X-33.27471 Y-25.38547
G01 X-33.26696 Y-25.49337
G01 X-33.25691 Y-25.56327
G01 X-33.22312 Y-25.70604
G01 X-33.15805 Y-25.77376
G01 X-33.09551 Y-25.83177
G01 X-32.90923 Y-25.87462
G01 X-32.77550 Y-25.88471
G01 X-30.25953 Y-25.88471
G01 X-30.15163 Y-25.87696
G01 X-30.08175 Y-25.86693
G01 X-29.84068 Y-25.79454
G01 X-29.72318 Y-25.73950
G01 X-29.55320 Y-25.82291
G01 X-29.44655 Y-25.86797
G01 X-29.34109 Y-25.90706
G01 X-29.21899 Y-25.94541
G01 X-29.09700 Y-25.97671
G01 X-28.91114 Y-26.01064
G01 X-28.72364 Y-26.02758
G01 X-28.56649 Y-26.02873
G01 X-28.44452 Y-26.02133
G01 X-28.24589 Y-25.99385
G01 X-28.07355 Y-25.95448
G01 X-27.96296 Y-25.86370
G01 X-27.86713 Y-25.77396
G01 X-27.77216 Y-25.67348
G01 X-27.68303 Y-25.56632
G01 X-27.59913 Y-25.45133
G01 X-27.52004 Y-25.32715
G01 X-27.44569 Y-25.19246
G01 X-27.39809 Y-25.09307
G01 X-26.88283 Y-24.57760
G01 X-26.60818 Y-24.27336
G01 X-26.64087 Y-24.14496
G01 X-26.65715 Y-24.06086
G01 X-26.67696 Y-23.91235
G01 X-26.68471 Y-23.80455
G01 X-26.68471 Y-20.97933
G01 X-26.68222 Y-20.91279
G01 X-26.66373 Y-20.78119
G01 X-26.60932 Y-20.70809
G01 X-26.53850 Y-20.62630
G01 X-25.93729 Y-20.02511
G01 X-25.84138 Y-19.94192
G01 X-25.66995 Y-19.83494
G01 X-25.60272 Y-19.80336
G01 X-25.45491 Y-19.74733
G01 X-25.28893 Y-19.70956
G01 X-25.23112 Y-19.83676
G01 X-25.17625 Y-19.97164
G01 X-25.11580 Y-20.17507
G01 X-25.04653 Y-20.46902
G01 X-24.97333 Y-20.64708
G01 X-24.89896 Y-20.77090
G01 X-24.85182 Y-20.83722
G01 X-24.74763 Y-20.95772
G01 X-24.68161 Y-21.01913
G01 X-24.57320 Y-21.13460
G01 X-24.48989 Y-21.23577
G01 X-24.40480 Y-21.35998
G01 X-22.69048 Y-21.36046
G01 X-24.40480 Y-21.35998
G01 X-24.48745 Y-21.48075
G01 X-24.54181 Y-21.54969
G01 X-24.66116 Y-21.67961
G01 X-24.74755 Y-21.76239
G01 X-24.80041 Y-21.82139
G01 X-24.87242 Y-21.90895
G01 X-24.90257 Y-21.95464
G01 X-24.97300 Y-22.07306
G01 X-25.04704 Y-22.25076
G01 X-25.08395 Y-22.39988
G01 X-25.09650 Y-22.48027
G01 X-25.10701 Y-22.62998
G01 X-25.09926 Y-22.75035
G01 X-25.08999 Y-22.83120
G01 X-25.04653 Y-23.00902
G01 X-24.97270 Y-23.18852
G01 X-24.89957 Y-23.31133
G01 X-24.78397 Y-23.49050
G01 X-24.70389 Y-23.64804
G01 X-24.64272 Y-23.78527
G01 X-24.83620 Y-23.92276
G01 X-24.92794 Y-23.99487
G01 X-25.02764 Y-24.08906
G01 X-25.09492 Y-24.18291
G01 X-25.14476 Y-24.26104
G01 X-25.26231 Y-24.28692
G01 X-25.33218 Y-24.29698
G01 X-25.44059 Y-24.30473
G01 X-26.26109 Y-24.30384
G01 X-26.42314 Y-24.29642
G01 X-26.60818 Y-24.27336
G01 X-26.42314 Y-24.29642
G01 X-26.20046 Y-24.30480
G01 X-25.44059 Y-24.30473
G01 X-25.33218 Y-24.29698
G01 X-25.26231 Y-24.28692
G01 X-25.14476 Y-24.26104
G01 X-25.09492 Y-24.18291
G01 X-25.02764 Y-24.08906
G01 X-24.92794 Y-23.99487
G01 X-24.83620 Y-23.92276
G01 X-24.64272 Y-23.78527
G01 X-24.43089 Y-23.84006
G01 X-24.30394 Y-23.86442
G01 X-24.17938 Y-23.88217
G01 X-24.01316 Y-23.89627
G01 X-23.87892 Y-23.89983
G01 X-23.75710 Y-23.89685
G01 X-23.54044 Y-23.87707
G01 X-23.36902 Y-23.84842
G01 X-23.15906 Y-23.79746
G01 X-22.88423 Y-23.71453
G01 X-22.70155 Y-23.67382
G01 X-22.59465 Y-23.65512
G01 X-22.54659 Y-23.50737
G01 X-22.50557 Y-23.35761
G01 X-22.45550 Y-23.11573
G01 X-22.43470 Y-22.96823
G01 X-22.42177 Y-22.82657
G01 X-22.41553 Y-22.67181
G01 X-22.41695 Y-22.52797
G01 X-22.42523 Y-22.38731
G01 X-22.44227 Y-22.23204
G01 X-22.46589 Y-22.08492
G01 X-22.49663 Y-21.93920
G01 X-22.53546 Y-21.79048
G01 X-22.58332 Y-21.63747
G01 X-22.64700 Y-21.46485
G01 X-22.69048 Y-21.36046
G01 X-22.62703 Y-21.20382
G01 X-22.56925 Y-21.03996
G01 X-22.52335 Y-20.88599
G01 X-22.48649 Y-20.73626
G01 X-22.45550 Y-20.57573
G01 X-22.43470 Y-20.42823
G01 X-22.41827 Y-20.22330
G01 X-22.41525 Y-20.06933
G01 X-22.41961 Y-19.92869
G01 X-22.43127 Y-19.78355
G01 X-22.45187 Y-19.62628
G01 X-22.47857 Y-19.48053
G01 X-22.51329 Y-19.33186
G01 X-22.55688 Y-19.17883
G01 X-22.61202 Y-19.01634
G01 X-22.69081 Y-18.81972
G01 X-24.47897 Y-18.82036
G01 X-24.59891 Y-18.90933
G01 X-24.71136 Y-19.00271
G01 X-24.81006 Y-19.09341
G01 X-24.93724 Y-19.22485
G01 X-25.03198 Y-19.33524
G01 X-25.11402 Y-19.44126
G01 X-25.19284 Y-19.55391
G01 X-25.28893 Y-19.70956
G04 P0 ( dwell for no time -- G64 should not smooth over this point )
G00 Z2.00000 ( retract )

G00 X-22.69081 Y-18.81972 ( rapid move to begin. )
G01 F100.00000
( Mill infeed pass 1/1 )
G01 Z-0.30000
G04 P0 ( dwell for no time -- G64 should not smooth over this point )
G01 F100.00000
G01 X-22.69081 Y-18.81972
G01 X-22.63907 Y-18.69506
G01 X-22.57529 Y-18.51828
G01 X-22.52388 Y-18.34777
G01 X-22.48337 Y-18.18170
G01 X-22.45281 Y-18.01912
G01 X-22.43158 Y-17.85945
G01 X-22.41911 Y-17.70085
G01 X-22.41525 Y-17.54320
G01 X-22.41987 Y-17.38500
G01 X-22.43318 Y-17.22575
G01 X-22.45550 Y-17.06420
G01 X-22.48746 Y-16.89953
G01 X-22.52985 Y-16.73057
G01 X-22.58385 Y-16.55613
G01 X-22.65098 Y-16.37487
G01 X-22.69066 Y-16.27967
G01 X-24.60981 Y-16.27967
G01 X-22.69066 Y-16.27967
G01 X-22.61009 Y-16.07853
G01 X-22.55688 Y-15.92110
G01 X-22.50966 Y-15.75364
G01 X-22.46259 Y-15.53703
G01 X-22.43082 Y-15.31252
G01 X-22.41687 Y-15.10825
G01 X-22.41570 Y-14.95435
G01 X-22.42896 Y-14.72761
G01 X-22.50722 Y-14.58892
G01 X-22.58240 Y-14.47046
G01 X-22.66881 Y-14.34846
G01 X-22.75284 Y-14.24170
G01 X-22.83859 Y-14.14310
G01 X-22.96269 Y-14.01577
G01 X-23.05865 Y-13.92791
G01 X-23.16302 Y-13.84143
G01 X-23.28769 Y-13.80922
G01 X-23.41380 Y-13.78293
G01 X-23.53780 Y-13.76319
G01 X-23.66048 Y-13.74963
G01 X-23.78486 Y-13.74196
G01 X-23.92154 Y-13.74051
G01 X-24.15045 Y-13.75458
G01 X-24.30173 Y-13.77526
G01 X-24.44554 Y-13.80317
G01 X-24.58977 Y-13.83939
G01 X-24.78176 Y-13.89880
G01 X-24.89840 Y-13.88773
G01 X-25.06817 Y-13.98275
G01 X-25.13808 Y-14.01465
G01 X-25.37884 Y-14.08692
G01 X-25.44872 Y-14.09695
G01 X-25.55664 Y-14.10472
G01 X-28.14241 Y-14.10472
G01 X-28.28844 Y-14.09169
G01 X-28.48440 Y-13.98839
G01 X-28.60891 Y-13.93721
G01 X-28.64996 Y-13.92418
G01 X-28.80594 Y-13.88796
G01 X-28.91432 Y-13.87732
G01 X-29.00578 Y-13.87378
G01 X-29.17411 Y-13.88748
G01 X-29.35369 Y-13.93058
G01 X-29.47744 Y-13.98034
G01 X-29.66639 Y-14.07389
G01 X-29.76860 Y-14.11745
G01 X-29.97551 Y-14.18666
G01 X-30.09024 Y-14.21872
G01 X-30.14764 Y-14.41163
G01 X-30.17477 Y-14.52743
G01 X-30.19608 Y-14.64099
G01 X-30.21957 Y-14.82448
G01 X-30.22984 Y-15.04602
G01 X-30.22031 Y-15.26710
G01 X-30.19057 Y-15.49113
G01 X-30.16761 Y-15.60540
G01 X-30.13880 Y-15.72179
G01 X-30.08998 Y-15.88298
G01 X-30.21490 Y-16.12679
G01 X-30.24012 Y-16.19667
G01 X-30.28569 Y-16.39349
G01 X-30.29473 Y-16.52029
G01 X-30.29295 Y-22.47735
G01 X-30.30405 Y-22.63712
G01 X-30.35054 Y-22.81926
G01 X-30.35330 Y-22.86224
G01 X-30.35473 Y-23.85652
G01 X-30.34698 Y-23.96442
G01 X-30.33692 Y-24.03429
G01 X-30.27139 Y-24.25997
G01 X-30.22189 Y-24.38817
G01 X-29.88224 Y-24.51936
G01 X-29.75534 Y-24.43244
G01 X-29.66415 Y-24.35974
G01 X-29.57612 Y-24.28339
G01 X-29.46514 Y-24.17036
G01 X-29.32176 Y-24.04781
G01 X-29.16425 Y-23.95139
G01 X-29.04553 Y-23.90074
G01 X-28.99362 Y-23.88083
G01 X-28.70350 Y-23.80955
G01 X-28.65300 Y-23.77092
G01 X-28.50070 Y-23.61522
G01 X-28.45862 Y-23.55771
G01 X-28.43637 Y-23.37504
G01 X-28.43545 Y-20.39988
G01 X-28.42230 Y-20.25134
G01 X-28.40650 Y-20.18825
G01 X-28.38049 Y-20.10204
G01 X-28.31267 Y-19.96023
G01 X-28.22672 Y-19.84111
G01 X-28.17962 Y-19.79031
G01 X-25.38616 Y-16.99588
G01 X-25.26579 Y-16.89072
G01 X-25.14346 Y-16.81770
G01 X-24.95555 Y-16.71658
G01 X-24.82850 Y-16.63868
G01 X-24.68733 Y-16.42443
G01 X-24.60981 Y-16.27967
G01 X-24.72096 Y-16.11930
G01 X-24.82284 Y-15.99133
G01 X-24.96790 Y-15.92798
G01 X-25.18834 Y-15.86870
G01 X-25.24938 Y-15.86108
G01 X-25.34313 Y-15.85524
G01 X-27.93901 Y-15.85524
G01 X-28.04688 Y-15.86299
G01 X-28.12796 Y-15.87472
G01 X-28.19382 Y-15.91991
G01 X-28.29664 Y-16.00020
G01 X-28.36954 Y-16.04775
G01 X-28.46657 Y-16.10342
G01 X-28.62638 Y-16.16895
G01 X-28.80584 Y-16.21246
G01 X-28.98999 Y-16.22702
G01 X-29.17406 Y-16.21229
G01 X-29.35371 Y-16.16941
G01 X-29.52430 Y-16.09855
G01 X-29.62194 Y-16.04843
G01 X-29.75338 Y-15.98859
G01 X-29.86524 Y-15.94742
G01 X-30.08998 Y-15.88298
G01 X-30.13880 Y-15.72179
G01 X-30.16761 Y-15.60540
G01 X-30.19057 Y-15.49113
G01 X-30.22031 Y-15.26710
G01 X-30.22984 Y-15.04602
G01 X-30.21957 Y-14.82448
G01 X-30.19608 Y-14.64099
G01 X-30.17477 Y-14.52743
G01 X-30.14764 Y-14.41163
G01 X-30.09024 Y-14.21872
G01 X-30.17269 Y-14.06825
G01 X-30.20459 Y-13.99837
G01 X-30.27693 Y-13.75748
G01 X-30.28696 Y-13.68760
G01 X-30.29473 Y-13.57970
G01 X-30.29364 Y-9.15894
G01 X-30.27373 Y-9.00118
G01 X-30.21932 Y-8.92807
G01 X-30.14843 Y-8.84621
G01 X-29.93982 Y-8.63768
G01 X-29.84693 Y-8.55871
G01 X-29.78955 Y-8.51733
G01 X-29.67505 Y-8.44807
G01 X-29.50149 Y-8.49694
G01 X-29.35361 Y-8.54906
G01 X-29.17408 Y-8.59241
G01 X-28.98999 Y-8.60702
G01 X-28.82440 Y-8.59442
G01 X-28.72466 Y-8.57463
G01 X-28.62643 Y-8.54883
G01 X-28.45559 Y-8.47872
G01 X-28.31643 Y-8.39409
G01 X-28.16791 Y-8.29366
G01 X-28.09372 Y-8.28297
G01 X-27.98585 Y-8.27522
G01 X-25.16096 Y-8.27522
G01 X-25.05431 Y-8.28279
G01 X-24.98529 Y-8.29259
G01 X-24.75725 Y-8.35878
G01 X-24.59896 Y-8.52233
G01 X-24.49144 Y-8.65983
G01 X-23.35517 Y-8.65975
G01 X-23.27537 Y-8.77705
G01 X-23.19193 Y-8.87961
G01 X-23.08347 Y-8.99566
G01 X-23.01230 Y-9.06221
G01 X-22.88758 Y-9.20897
G01 X-22.78670 Y-9.37293
G01 X-22.73958 Y-9.48205
G01 X-22.71098 Y-9.55822
G01 X-22.67146 Y-9.72147
G01 X-22.66135 Y-9.80219
G01 X-22.65286 Y-9.92998
G01 X-22.66841 Y-10.12185
G01 X-22.71296 Y-10.30917
G01 X-22.78700 Y-10.48690
G01 X-22.86137 Y-10.61154
G01 X-22.94687 Y-10.74346
G01 X-23.01517 Y-10.86376
G01 X-23.07585 Y-10.98766
G01 X-23.11481 Y-11.08461
G01 X-23.28769 Y-11.13074
G01 X-23.49515 Y-11.17064
G01 X-23.67575 Y-11.19160
G01 X-23.87892 Y-11.19983
G01 X-24.05626 Y-11.19368
G01 X-24.26073 Y-11.17128
G01 X-24.43089 Y-11.14006
G01 X-24.64272 Y-11.08527
G01 X-24.83620 Y-11.22276
G01 X-24.92794 Y-11.29487
G01 X-25.02532 Y-11.38644
G01 X-25.07122 Y-11.46084
G01 X-25.09944 Y-11.54651
G01 X-25.10523 Y-11.61997
G01 X-25.10460 Y-13.35082
G01 X-25.09898 Y-13.39647
G01 X-25.07394 Y-13.47495
G01 X-25.00775 Y-13.64884
G01 X-24.89840 Y-13.88773
G04 P0 ( dwell for no time -- G64 should not smooth over this point )
G00 Z2.00000 ( retract )

G00 X-4.88526 Y-13.86454 ( rapid move to begin. )
G01 F100.00000
( Mill infeed pass 1/1 )
G01 Z-0.30000
G04 P0 ( dwell for no time -- G64 should not smooth over this point )
G01 F100.00000
G01 X-4.88526 Y-13.86454
G01 X-4.86969 Y-13.46317
G01 X-4.87472 Y-13.28166
G01 X-4.87535 Y-11.58913
G01 X-4.88051 Y-11.54651
G01 X-4.90873 Y-11.46084
G01 X-4.95587 Y-11.38466
G01 X-5.07383 Y-11.27689
G01 X-5.33481 Y-11.08461
G01 X-5.50769 Y-11.13074
G01 X-5.71515 Y-11.17064
G01 X-5.89575 Y-11.19160
G01 X-6.09892 Y-11.19983
G01 X-6.27626 Y-11.19368
G01 X-6.48073 Y-11.17128
G01 X-6.65089 Y-11.14006
G01 X-6.86272 Y-11.08527
G01 X-6.92389 Y-10.94803
G01 X-6.98368 Y-10.82815
G01 X-7.19270 Y-10.48852
G01 X-7.24385 Y-10.36907
G01 X-7.27415 Y-10.28273
G01 X-7.30999 Y-10.13120
G01 X-7.32701 Y-9.92998
G01 X-7.31650 Y-9.78024
G01 X-7.29559 Y-9.66264
G01 X-7.26704 Y-9.55076
G01 X-7.21805 Y-9.42853
G01 X-7.18312 Y-9.35505
G01 X-7.09242 Y-9.20895
G01 X-6.96755 Y-9.06239
G01 X-6.88116 Y-8.97961
G01 X-6.76181 Y-8.84969
G01 X-6.70745 Y-8.78075
G01 X-6.62480 Y-8.65998
G01 X-5.57500 Y-8.65998
G01 X-5.48744 Y-8.53242
G01 X-5.43293 Y-8.46412
G01 X-5.32384 Y-8.34570
G01 X-5.23250 Y-8.25749
G01 X-5.10746 Y-8.11108
G01 X-5.02046 Y-7.97123
G01 X-4.98483 Y-7.89810
G01 X-4.93296 Y-7.76917
G01 X-4.89755 Y-7.62726
G01 X-4.88422 Y-7.54700
G01 X-4.87269 Y-7.38998
G01 X-4.88831 Y-7.19808
G01 X-4.89948 Y-7.14411
G01 X-4.93316 Y-7.01083
G01 X-5.06491 Y-6.68818
G01 X-5.13039 Y-6.46067
G01 X-5.15790 Y-6.33514
G01 X-5.36595 Y-6.26422
G01 X-5.57329 Y-6.21132
G01 X-5.73616 Y-6.18193
G01 X-5.93702 Y-6.16049
G01 X-6.10738 Y-6.15513
G01 X-6.30712 Y-6.16382
G01 X-6.46549 Y-6.18218
G01 X-6.66940 Y-6.22079
G01 X-6.84416 Y-6.26732
G01 X-7.04543 Y-6.33644
G01 X-7.06311 Y-6.42968
G01 X-7.09747 Y-6.57052
G01 X-7.17095 Y-6.78040
G01 X-7.26704 Y-7.01076
G01 X-7.31152 Y-7.19811
G01 X-7.32701 Y-7.38998
G01 X-7.31172 Y-7.58187
G01 X-7.26653 Y-7.76902
G01 X-7.22955 Y-7.86427
G01 X-7.19333 Y-7.94708
G01 X-7.09237 Y-8.11098
G01 X-6.96763 Y-8.25772
G01 X-6.87624 Y-8.34527
G01 X-6.73778 Y-8.49965
G01 X-6.62480 Y-8.65998
G01 X-5.57500 Y-8.65998
G01 X-5.49537 Y-8.77705
G01 X-5.41193 Y-8.87961
G01 X-5.30347 Y-8.99566
G01 X-5.23230 Y-9.06221
G01 X-5.10758 Y-9.20897
G01 X-5.00670 Y-9.37293
G01 X-4.95958 Y-9.48205
G01 X-4.93098 Y-9.55822
G01 X-4.89146 Y-9.72147
G01 X-4.88135 Y-9.80219
G01 X-4.87269 Y-9.92995
G01 X-4.88843 Y-10.12187
G01 X-4.93296 Y-10.30917
G01 X-5.00700 Y-10.48690
G01 X-5.08137 Y-10.61154
G01 X-5.16687 Y-10.74346
G01 X-5.23517 Y-10.86376
G01 X-5.29585 Y-10.98766
G01 X-5.33481 Y-11.08461
G01 X-5.50769 Y-11.13074
G01 X-5.71515 Y-11.17064
G01 X-5.89575 Y-11.19160
G01 X-6.09892 Y-11.19983
G01 X-6.27626 Y-11.19368
G01 X-6.48073 Y-11.17128
G01 X-6.65089 Y-11.14006
G01 X-6.86272 Y-11.08527
G01 X-7.05620 Y-11.22276
G01 X-7.14794 Y-11.29487
G01 X-7.24532 Y-11.38644
G01 X-7.35551 Y-11.56104
G01 X-7.65482 Y-11.66142
G01 X-7.70270 Y-11.68105
G01 X-7.81568 Y-11.74702
G01 X-7.95757 Y-11.86744
G01 X-9.21781 Y-13.12992
G01 X-9.31240 Y-13.26045
G01 X-9.37953 Y-13.40010
G01 X-9.42609 Y-13.57495
G01 X-9.43511 Y-13.68720
G01 X-9.43521 Y-25.00422
G01 X-9.44466 Y-25.13256
G01 X-9.52797 Y-25.32248
G01 X-9.56206 Y-25.44920
G01 X-9.57687 Y-25.63472
G01 X-9.57631 Y-38.82997
G01 X-9.56523 Y-39.00879
G01 X-9.56523 Y-50.71783
G01 X-9.57346 Y-50.83320
G01 X-9.62779 Y-50.96998
G01 X-9.66213 Y-51.09919
G01 X-9.67682 Y-51.28471
G01 X-9.67522 Y-55.23065
G01 X-9.67773 Y-55.29753
G01 X-9.69620 Y-55.42872
G01 X-9.75063 Y-55.50187
G01 X-9.82144 Y-55.58366
G01 X-10.42223 Y-56.18444
G01 X-10.49350 Y-56.24845
G01 X-10.63897 Y-56.34723
G01 X-10.70343 Y-56.38155
G01 X-10.84163 Y-56.44170
G01 X-10.99731 Y-56.48437
G01 X-11.07928 Y-56.50126
G01 X-11.29932 Y-56.53115
G01 X-11.41562 Y-56.64383
G01 X-11.54364 Y-56.75567
G01 X-11.76861 Y-56.81604
G01 X-11.91913 Y-56.84690
G01 X-12.07696 Y-56.87116
G01 X-12.30071 Y-56.89097
G01 X-12.50577 Y-56.89417
G01 X-12.66129 Y-56.88719
G01 X-12.88565 Y-56.86257
G01 X-13.03030 Y-56.83766
G01 X-13.24696 Y-56.78706
G01 X-13.47318 Y-56.71711
G01 X-13.49179 Y-56.60956
G01 X-13.52842 Y-56.43971
G01 X-13.61239 Y-56.15828
G01 X-13.66761 Y-55.93479
G01 X-13.69830 Y-55.75059
G01 X-13.71666 Y-55.54662
G01 X-13.71981 Y-55.42488
G01 X-13.71714 Y-55.30339
G01 X-13.70404 Y-55.13730
G01 X-13.67031 Y-54.91856
G01 X-13.64209 Y-54.79176
G01 X-13.60531 Y-54.65717
G01 X-13.74280 Y-54.46367
G01 X-13.81488 Y-54.37200
G01 X-13.90642 Y-54.27464
G01 X-13.98085 Y-54.22875
G01 X-14.06655 Y-54.20053
G01 X-14.10914 Y-54.19535
G01 X-15.84000 Y-54.19474
G01 X-15.91343 Y-54.20053
G01 X-15.99910 Y-54.22872
G01 X-16.07528 Y-54.27586
G01 X-16.18308 Y-54.39385
G01 X-16.37543 Y-54.65491
G01 X-16.32077 Y-54.86514
G01 X-16.28699 Y-55.05084
G01 X-16.27210 Y-55.17365
G01 X-16.26309 Y-55.29829
G01 X-16.26187 Y-55.51381
G01 X-16.27314 Y-55.67688
G01 X-16.30223 Y-55.88224
G01 X-16.34048 Y-56.05843
G01 X-16.41071 Y-56.29565
G01 X-16.53459 Y-56.42679
G01 X-16.69433 Y-56.57390
G01 X-16.84678 Y-56.69521
G01 X-16.96296 Y-56.77718
G01 X-17.09913 Y-56.86308
G01 X-17.32760 Y-56.88780
G01 X-17.52895 Y-56.89476
G01 X-17.67413 Y-56.89117
G01 X-17.83044 Y-56.87944
G01 X-17.99516 Y-56.85780
G01 X-18.26158 Y-57.02262
G01 X-18.33146 Y-57.05452
G01 X-18.57253 Y-57.12691
G01 X-18.64241 Y-57.13694
G01 X-18.75031 Y-57.14472
G01 X-19.92549 Y-57.14472
G01 X-20.05884 Y-57.13471
G01 X-20.26102 Y-57.08614
G01 X-20.33758 Y-57.05757
G01 X-20.40692 Y-56.82323
G01 X-20.41695 Y-56.75335
G01 X-20.42472 Y-56.64548
G01 X-20.42452 Y-14.20731
G01 X-20.44289 Y-14.08758
G01 X-20.45810 Y-14.01727
G01 X-20.50999 Y-13.87955
G01 X-20.59059 Y-13.74457
G01 X-20.69587 Y-13.62380
G01 X-22.62665 Y-11.69573
G01 X-22.65058 Y-11.59022
G01 X-22.68896 Y-11.46040
G01 X-22.73587 Y-11.38466
G01 X-22.85383 Y-11.27689
G01 X-23.11481 Y-11.08461
G01 X-23.28769 Y-11.13074
G01 X-23.49515 Y-11.17064
G01 X-23.67575 Y-11.19160
G01 X-23.87892 Y-11.19983
G01 X-24.05626 Y-11.19368
G01 X-24.26073 Y-11.17128
G01 X-24.43089 Y-11.14006
G01 X-24.64272 Y-11.08527
G01 X-24.70389 Y-10.94803
G01 X-24.76368 Y-10.82815
G01 X-24.97270 Y-10.48852
G01 X-25.02385 Y-10.36907
G01 X-25.05415 Y-10.28273
G01 X-25.08999 Y-10.13120
G01 X-25.10683 Y-9.93336
G01 X-25.09650 Y-9.78027
G01 X-25.07559 Y-9.66264
G01 X-25.04704 Y-9.55076
G01 X-24.97300 Y-9.37306
G01 X-24.87239 Y-9.20895
G01 X-24.74740 Y-9.05954
G01 X-24.64943 Y-8.92955
G01 X-24.56802 Y-8.80361
G01 X-24.49144 Y-8.65983
G01 X-23.35517 Y-8.65975
G01 X-23.27753 Y-8.54603
G01 X-23.22330 Y-8.47644
G01 X-23.11336 Y-8.35599
G01 X-23.01258 Y-8.25739
G01 X-22.95040 Y-8.18794
G01 X-22.88720 Y-8.11126
G01 X-22.83381 Y-8.02749
G01 X-22.78697 Y-7.94690
G01 X-22.76221 Y-7.89211
G01 X-22.71324 Y-7.76910
G01 X-22.69587 Y-7.70491
G01 X-22.66798 Y-7.58193
G01 X-22.65624 Y-7.45269
G01 X-22.65322 Y-7.38998
G01 X-22.65556 Y-7.33758
G01 X-22.66841 Y-7.19811
G01 X-22.71296 Y-7.01076
G01 X-22.82149 Y-6.75061
G01 X-22.85738 Y-6.64969
G01 X-22.90534 Y-6.47984
G01 X-22.93767 Y-6.33501
G04 P0 ( dwell for no time -- G64 should not smooth over this point )
G00 Z2.00000 ( retract )

G00 X-30.41940 Y-6.39691 ( rapid move to begin. )
G01 F100.00000
( Mill infeed pass 1/1 )
G01 Z-0.30000
G04 P0 ( dwell for no time -- G64 should not smooth over this point )
G01 F100.00000
G01 X-30.41940 Y-6.39691
G01 X-30.54797 Y-6.66572
G01 X-30.59346 Y-6.75249
G01 X-30.66225 Y-6.85930
G01 X-30.70454 Y-6.91578
G01 X-30.77568 Y-6.99788
G01 X-31.81060 Y-8.03214
G01 X-31.86151 Y-8.09450
G01 X-31.93349 Y-8.19920
G01 X-31.99778 Y-8.34034
G01 X-32.03572 Y-8.49285
G01 X-32.04655 Y-8.65259
G01 X-32.04494 Y-9.18545
G01 X-32.04931 Y-9.26617
G01 X-32.05498 Y-9.31888
G01 X-32.10367 Y-9.52127
G01 X-32.13214 Y-9.59747
G01 X-32.36669 Y-9.66691
G01 X-32.43656 Y-9.67697
G01 X-32.54446 Y-9.68472
G01 X-33.37176 Y-9.68472
G01 X-33.44941 Y-9.68134
G01 X-33.60938 Y-9.65441
G01 X-33.67926 Y-9.63524
G01 X-33.81360 Y-9.58695
G01 X-33.94796 Y-9.51581
G01 X-34.11662 Y-9.58474
G01 X-34.25370 Y-9.63132
G01 X-34.37567 Y-9.66594
G01 X-34.55657 Y-9.70506
G01 X-34.78213 Y-9.73333
G01 X-34.90412 Y-9.73917
G01 X-35.06285 Y-9.73684
G01 X-35.28433 Y-9.71466
G01 X-35.46323 Y-9.68078
G01 X-35.64923 Y-9.63038
G01 X-35.77123 Y-9.58893
G01 X-35.94890 Y-9.51624
G01 X-35.96330 Y-9.40351
G01 X-36.00204 Y-9.20643
G01 X-36.03379 Y-9.08609
G01 X-36.06561 Y-8.99320
G01 X-36.08746 Y-8.91443
G01 X-36.11141 Y-8.80392
G01 X-36.11905 Y-8.73808
G01 X-36.12586 Y-8.61997
G01 X-36.11905 Y-8.50184
G01 X-36.10064 Y-8.38129
G01 X-36.06902 Y-8.25637
G01 X-35.99863 Y-8.08566
G01 X-35.90247 Y-7.92958
G01 X-35.79365 Y-7.80138
G01 X-35.67859 Y-7.67588
G01 X-35.61006 Y-7.44997
G01 X-35.55385 Y-7.32899
G01 X-35.46094 Y-7.19544
G01 X-35.37268 Y-7.09496
G01 X-35.32983 Y-7.03903
G01 X-35.20928 Y-6.82109
G01 X-35.18177 Y-6.74980
G01 X-35.11969 Y-6.52564
G04 P0 ( dwell for no time -- G64 should not smooth over this point )
G00 Z2.00000 ( retract )

G00 X-42.05280 Y-10.14788 ( rapid move to begin. )
G01 F100.00000
( Mill infeed pass 1/1 )
G01 Z-0.30000
G04 P0 ( dwell for no time -- G64 should not smooth over this point )
G01 F100.00000
G01 X-42.05280 Y-10.14788
G01 X-41.96989 Y-10.17123
G01 X-41.80738 Y-10.22761
G01 X-41.58572 Y-10.34697
G01 X-41.52920 Y-10.38929
G01 X-41.44742 Y-10.46013
G01 X-40.67012 Y-11.23424
G01 X-40.56146 Y-11.31151
G01 X-40.42006 Y-11.38011
G01 X-40.24503 Y-11.42622
G01 X-40.08725 Y-11.43693
G01 X-32.54446 Y-11.43523
G01 X-32.41111 Y-11.44524
G01 X-32.31358 Y-11.46195
G01 X-32.23623 Y-11.52533
G01 X-32.18505 Y-11.57295
G01 X-32.07245 Y-11.70379
G01 X-32.05297 Y-11.82660
G01 X-32.04522 Y-11.93455
G01 X-32.04540 Y-13.93055
G01 X-32.05759 Y-14.06594
G01 X-32.07022 Y-14.13579
G01 X-32.15467 Y-14.38392
G01 X-32.18965 Y-14.45379
G01 X-32.26813 Y-14.58877
G04 P0 ( dwell for no time -- G64 should not smooth over this point )
G00 Z2.00000 ( retract )

G00 X-36.89248 Y-14.97604 ( rapid move to begin. )
G01 F100.00000
( Mill infeed pass 1/1 )
G01 Z-0.30000
G04 P0 ( dwell for no time -- G64 should not smooth over this point )
G01 F100.00000
G01 X-36.89248 Y-14.97604
G01 X-36.70262 Y-15.21211
G01 X-36.59850 Y-15.32387
G01 X-36.45184 Y-15.46885
G01 X-36.34108 Y-15.57106
G01 X-34.53750 Y-17.37467
G01 X-34.45568 Y-17.44548
G01 X-34.39919 Y-17.48777
G01 X-34.30090 Y-17.55089
G01 X-34.17725 Y-17.61317
G01 X-33.93300 Y-17.72506
G04 P0 ( dwell for no time -- G64 should not smooth over this point )
G00 Z2.00000 ( retract )

G00 X-34.59881 Y-20.13412 ( rapid move to begin. )
G01 F100.00000
( Mill infeed pass 1/1 )
G01 Z-0.30000
G04 P0 ( dwell for no time -- G64 should not smooth over this point )
G01 F100.00000
G01 X-34.59881 Y-20.13412
G01 X-34.71758 Y-20.07926
G01 X-34.93643 Y-19.99673
G01 X-35.05830 Y-19.96006
G01 X-35.31370 Y-19.89938
G01 X-35.48413 Y-19.82831
G01 X-35.64181 Y-19.73224
G01 X-35.78192 Y-19.61190
G01 X-35.83071 Y-19.55803
G01 X-35.90206 Y-19.47169
G01 X-35.99863 Y-19.31429
G01 X-36.06907 Y-19.14357
G01 X-36.10397 Y-19.00469
G01 X-36.11903 Y-18.90108
G01 X-36.12695 Y-18.78193
G01 X-36.11677 Y-18.64401
G01 X-36.08446 Y-18.35549
G01 X-36.15850 Y-18.24482
G01 X-36.24969 Y-18.13806
G01 X-36.62048 Y-17.76727
G01 X-36.70216 Y-17.69651
G01 X-36.75868 Y-17.65419
G01 X-36.98047 Y-17.53484
G01 X-37.05245 Y-17.50799
G01 X-37.23825 Y-17.45549
G01 X-37.44849 Y-17.42735
G01 X-37.47181 Y-17.42570
G01 X-37.60528 Y-17.47253
G01 X-37.64590 Y-17.46070
G01 X-38.58161 Y-17.45966
G01 X-38.64823 Y-17.42801
G01 X-38.84511 Y-17.31937
G01 X-39.01562 Y-17.20479
G01 X-39.17564 Y-17.07518
G01 X-39.32149 Y-16.93349
G01 X-39.40272 Y-16.84223
G01 X-39.47201 Y-16.75595
G01 X-39.56815 Y-16.62016
G01 X-39.67269 Y-16.44533
G01 X-39.73624 Y-16.32054
G01 X-39.78336 Y-16.21516
G01 X-39.90116 Y-16.17830
G01 X-39.97315 Y-16.15145
G01 X-40.18387 Y-16.04025
G01 X-40.39807 Y-15.88300
G01 X-40.43972 Y-15.85656
G01 X-40.52915 Y-15.81340
G01 X-40.62430 Y-15.78099
G01 X-40.73495 Y-15.75379
G01 X-40.85989 Y-15.74411
G01 X-42.20817 Y-15.74472
G01 X-42.31190 Y-15.73754
G01 X-42.38127 Y-15.72796
G01 X-42.63583 Y-15.57162
G01 X-42.80129 Y-15.50259
G01 X-42.98594 Y-15.45803
G01 X-43.16997 Y-15.44295
G01 X-43.35404 Y-15.45773
G01 X-43.49598 Y-15.49049
G01 X-43.59224 Y-15.52329
G01 X-43.72834 Y-15.58511
G01 X-43.91983 Y-15.70370
G01 X-44.03283 Y-15.76695
G01 X-44.24040 Y-15.85831
G01 X-44.38449 Y-15.91333
G01 X-44.42275 Y-16.07345
G01 X-44.44776 Y-16.21041
G01 X-44.46539 Y-16.34556
G01 X-44.47611 Y-16.48257
G01 X-44.47974 Y-16.62925
G01 X-44.47588 Y-16.76286
G01 X-44.46509 Y-16.89720
G01 X-44.44710 Y-17.03354
G01 X-44.40319 Y-17.25328
G01 X-44.34919 Y-17.44744
G01 X-44.22877 Y-17.58173
G01 X-44.11528 Y-17.69440
G01 X-43.96565 Y-17.82501
G01 X-43.79105 Y-17.87200
G01 X-43.67756 Y-17.89628
G01 X-43.55915 Y-17.91630
G01 X-43.39455 Y-17.93542
G01 X-43.23217 Y-17.94421
G01 X-43.11764 Y-17.94441
G01 X-42.96898 Y-17.93733
G01 X-42.85320 Y-17.92605
G01 X-42.67484 Y-17.89872
G01 X-42.55242 Y-17.87301
G01 X-42.44139 Y-17.84487
G01 X-42.27833 Y-17.79516
G01 X-42.03014 Y-17.80149
G01 X-41.84132 Y-17.82285
G01 X-41.65864 Y-17.85772
G01 X-41.54995 Y-17.88528
G01 X-41.41147 Y-17.92727
G01 X-41.27998 Y-18.04995
G01 X-39.82042 Y-19.50951
G01 X-39.72822 Y-19.62361
G01 X-39.63665 Y-19.72691
G01 X-39.61790 Y-19.90217
G01 X-39.60449 Y-19.98754
G01 X-39.56614 Y-20.15978
G01 X-39.50830 Y-20.31251
G01 X-39.47658 Y-20.37961
G01 X-39.37005 Y-20.54962
G01 X-39.28770 Y-20.64446
G01 X-35.87750 Y-24.05466
G01 X-35.79569 Y-24.12548
G01 X-35.73920 Y-24.16777
G01 X-35.51768 Y-24.28697
G01 X-35.37709 Y-24.34311
G01 X-35.25893 Y-24.38494
G04 P0 ( dwell for no time -- G64 should not smooth over this point )
G00 Z2.00000 ( retract )

G00 X-39.28778 Y-28.97518 ( rapid move to begin. )
G01 F100.00000
( Mill infeed pass 1/1 )
G01 Z-0.30000
G04 P0 ( dwell for no time -- G64 should not smooth over this point )
G01 F100.00000
G01 X-39.28778 Y-28.97518
G01 X-39.36629 Y-29.11015
G01 X-39.40127 Y-29.18003
G01 X-39.45580 Y-29.31119
G01 X-39.48816 Y-29.44236
G01 X-39.50086 Y-29.52069
G01 X-39.51072 Y-29.64231
G01 X-39.51072 Y-37.35431
G01 X-39.50297 Y-37.46221
G01 X-39.49291 Y-37.53208
G01 X-39.44671 Y-37.71016
G01 X-39.49182 Y-37.88344
G01 X-39.50249 Y-37.95540
G01 X-39.51072 Y-38.06655
G01 X-39.51072 Y-39.89428
G01 X-39.50297 Y-40.00221
G01 X-39.49291 Y-40.07208
G01 X-39.44671 Y-40.25016
G01 X-39.49131 Y-40.42004
G01 X-39.50198 Y-40.48991
G01 X-39.51069 Y-40.60436
G01 X-39.51072 Y-41.40545
G01 X-39.50297 Y-41.51335
G01 X-39.49291 Y-41.58323
G01 X-39.45799 Y-41.72956
G01 X-39.33500 Y-41.85054
G01 X-39.14483 Y-41.89471
G01 X-39.01148 Y-41.90472
G01 X-38.93716 Y-41.90472
G01 X-38.82923 Y-41.89694
G01 X-38.75936 Y-41.88691
G01 X-38.60178 Y-41.84813
G01 X-38.55240 Y-41.74470
G01 X-38.46533 Y-41.59395
G01 X-38.34140 Y-41.47246
G01 X-38.16995 Y-41.33136
G01 X-38.20386 Y-41.23708
G01 X-38.27008 Y-41.08138
G01 X-38.30526 Y-41.01089
G01 X-38.38336 Y-40.87952
G01 X-38.46888 Y-40.68943
G01 X-38.49977 Y-40.58389
G01 X-38.53358 Y-40.44711
G01 X-38.59515 Y-40.25008
G01 X-38.54613 Y-40.09545
G01 X-38.49987 Y-39.88831
G01 X-38.45433 Y-39.75679
G01 X-38.41044 Y-39.65605
G01 X-38.35225 Y-39.54937
G01 X-38.30432 Y-39.47663
G01 X-38.21826 Y-39.36535
G01 X-38.11354 Y-39.24996
G01 X-38.00838 Y-39.11763
G01 X-37.91590 Y-38.96982
G01 X-38.00838 Y-39.11763
G01 X-38.11354 Y-39.24996
G01 X-38.21826 Y-39.36535
G01 X-38.30432 Y-39.47663
G01 X-38.35225 Y-39.54937
G01 X-38.41044 Y-39.65605
G01 X-38.45433 Y-39.75679
G01 X-38.49987 Y-39.88831
G01 X-38.54613 Y-40.09545
G01 X-38.59515 Y-40.25008
G01 X-39.44671 Y-40.25016
G01 X-38.59515 Y-40.25008
G01 X-38.53358 Y-40.44711
G01 X-38.49977 Y-40.58389
G01 X-38.46888 Y-40.68943
G01 X-38.38336 Y-40.87952
G01 X-38.30526 Y-41.01089
G01 X-38.27008 Y-41.08138
G01 X-38.20386 Y-41.23708
G01 X-38.16995 Y-41.33136
G01 X-38.02504 Y-41.38143
G01 X-37.89997 Y-41.41810
G01 X-37.77983 Y-41.44759
G01 X-37.56581 Y-41.48595
G01 X-37.35944 Y-41.50591
G01 X-37.25263 Y-41.50957
G01 X-37.04153 Y-41.50838
G01 X-36.82533 Y-41.49250
G01 X-36.65372 Y-41.46659
G01 X-36.54679 Y-41.44462
G01 X-36.32665 Y-41.38516
G01 X-36.04783 Y-41.29057
G01 X-35.78111 Y-41.35323
G01 X-35.61845 Y-41.53286
G01 X-35.65990 Y-41.66309
G01 X-35.72175 Y-41.82745
G01 X-35.77217 Y-42.00835
G01 X-35.78487 Y-42.08668
G01 X-35.79472 Y-42.20832
G01 X-35.79472 Y-42.71066
G01 X-35.78697 Y-42.81856
G01 X-35.77374 Y-42.90870
G01 X-35.69393 Y-43.01467
G01 X-35.64849 Y-43.06367
G01 X-33.38444 Y-45.32772
G01 X-33.30263 Y-45.39854
G01 X-33.24614 Y-45.44083
G01 X-33.12688 Y-45.51507
G01 X-33.02767 Y-45.51736
G01 X-32.87166 Y-45.50743
G01 X-32.77819 Y-45.41751
G01 X-32.69684 Y-45.34698
G01 X-32.61909 Y-45.29872
G01 X-32.53346 Y-45.27052
G01 X-32.49084 Y-45.26537
G01 X-30.89448 Y-45.26473
G01 X-30.71271 Y-45.26041
G01 X-30.52211 Y-45.26846
G01 X-30.45219 Y-45.49666
G01 X-30.48005 Y-45.58695
G01 X-30.56458 Y-45.82274
G01 X-30.59575 Y-45.93366
G01 X-30.62483 Y-46.06572
G01 X-30.64157 Y-46.16945
G01 X-30.65282 Y-46.27202
G01 X-30.65981 Y-46.45520
G01 X-30.65645 Y-46.55696
G01 X-30.64784 Y-46.65914
G01 X-30.63392 Y-46.76211
G01 X-30.61432 Y-46.86673
G01 X-30.58869 Y-46.97339
G01 X-30.55234 Y-47.09589
G01 X-30.47053 Y-47.32071
G01 X-30.43928 Y-47.42924
G01 X-30.47053 Y-47.32071
G01 X-30.56039 Y-47.07072
G01 X-30.60875 Y-46.89203
G01 X-30.63004 Y-46.78538
G01 X-30.64535 Y-46.68075
G01 X-30.65513 Y-46.57776
G01 X-30.65955 Y-46.47560
G01 X-30.65877 Y-46.37385
G01 X-30.65092 Y-46.25083
G01 X-30.63842 Y-46.14708
G01 X-30.62016 Y-46.04156
G01 X-30.59575 Y-45.93366
G01 X-30.56458 Y-45.82274
G01 X-30.48005 Y-45.58695
G01 X-30.45219 Y-45.49666
G01 X-30.52211 Y-45.26846
G01 X-30.45379 Y-45.10105
G01 X-30.40522 Y-44.89884
G01 X-30.39956 Y-44.84614
G01 X-30.39524 Y-44.76549
G01 X-30.39524 Y-44.57446
G01 X-30.40299 Y-44.46656
G01 X-30.41305 Y-44.39669
G01 X-30.48236 Y-44.16237
G01 X-30.55869 Y-44.13385
G01 X-30.76108 Y-44.08521
G01 X-30.89448 Y-44.07520
G01 X-32.33735 Y-44.07692
G01 X-32.41157 Y-44.07329
G01 X-32.50169 Y-44.06481
G01 X-32.64929 Y-44.02681
G01 X-32.79219 Y-43.96166
G01 X-32.88472 Y-43.90029
G01 X-32.93105 Y-43.86506
G01 X-32.97961 Y-43.81962
G01 X-34.94225 Y-41.85549
G01 X-35.02424 Y-41.78445
G01 X-35.08075 Y-41.74216
G01 X-35.30227 Y-41.62293
G01 X-35.37422 Y-41.59608
G01 X-35.61845 Y-41.53286
G04 P0 ( dwell for no time -- G64 should not smooth over this point )
G00 Z2.00000 ( retract )

G00 X-30.30652 Y-39.40843 ( rapid move to begin. )
G01 F100.00000
( Mill infeed pass 1/1 )
G01 Z-0.30000
G04 P0 ( dwell for no time -- G64 should not smooth over this point )
G01 F100.00000
G01 X-30.30652 Y-39.40843
G01 X-30.34187 Y-39.52293
G01 X-30.40817 Y-39.70231
G01 X-30.45734 Y-39.87066
G01 X-30.49466 Y-40.05240
G01 X-30.51523 Y-40.23350
G01 X-30.51901 Y-40.42979
G01 X-30.50898 Y-40.57901
G01 X-30.49466 Y-40.68755
G01 X-30.47782 Y-40.78018
G01 X-30.44038 Y-40.93398
G01 X-30.40276 Y-41.05445
G01 X-30.36997 Y-41.14419
G01 X-30.36997 Y-41.17000
G01 X-30.39184 Y-41.34498
G01 X-30.45747 Y-41.51998
G01 X-30.56684 Y-41.69499
G01 X-30.71995 Y-41.86999
G01 X-30.78495 Y-41.93497
G01 X-31.83600 Y-41.93497
G01 X-32.31998 Y-41.73451
G01 X-32.50494 Y-41.63723
G01 X-32.66069 Y-41.51071
G01 X-32.78721 Y-41.35496
G01 X-32.88452 Y-41.17000
G01 X-33.11754 Y-40.60741
G01 X-34.40963 Y-39.31536
G01 X-34.57412 Y-39.16586
G01 X-34.74326 Y-39.03581
G01 X-34.89287 Y-39.00607
G01 X-35.05975 Y-38.98367
G01 X-35.16963 Y-38.97478
G01 X-35.30981 Y-38.97000
G01 X-37.91590 Y-38.96982
G01 X-38.00135 Y-38.83276
G01 X-38.10975 Y-38.69284
G01 X-38.27457 Y-38.50574
G01 X-38.38562 Y-38.33520
G01 X-38.46833 Y-38.14923
G01 X-38.49456 Y-38.06284
G01 X-38.54996 Y-37.84895
G01 X-38.59515 Y-37.71008
G01 X-39.44671 Y-37.71016
G01 X-38.59515 Y-37.71008
G01 X-38.54501 Y-37.55174
G01 X-38.49957 Y-37.34841
G01 X-38.43040 Y-37.15624
G01 X-38.33277 Y-36.97773
G01 X-38.27907 Y-36.90297
G01 X-38.19995 Y-36.80516
G01 X-38.06345 Y-36.67417
G01 X-38.03442 Y-36.65263
G01 X-37.89693 Y-36.55713
G01 X-37.77757 Y-36.49627
G01 X-37.71428 Y-36.46731
G01 X-37.52022 Y-36.40623
G01 X-37.44364 Y-36.39182
G01 X-37.31915 Y-36.37537
G01 X-37.22319 Y-36.37224
G01 X-37.01865 Y-36.37653
G01 X-36.90323 Y-36.38934
G01 X-36.72136 Y-36.43254
G01 X-36.53244 Y-36.50836
G01 X-36.39502 Y-36.58890
G01 X-36.35759 Y-36.61247
G01 X-36.14953 Y-36.77928
G01 X-36.11646 Y-36.80231
G01 X-36.08603 Y-36.80854
G01 X-35.93244 Y-36.82426
G01 X-34.21268 Y-36.82296
G01 X-34.09312 Y-36.82995
G01 X-34.05279 Y-36.83384
G01 X-33.97202 Y-36.85256
G01 X-33.65383 Y-36.94336
G01 X-33.52963 Y-36.97039
G01 X-33.35033 Y-36.99678
G01 X-33.19932 Y-37.00968
G01 X-33.18982 Y-36.80092
G01 X-33.19523 Y-36.59889
G01 X-33.20354 Y-36.50066
G01 X-33.21644 Y-36.41796
G01 X-33.29155 Y-36.07011
G01 X-33.30712 Y-35.85997
G01 X-33.30123 Y-35.75307
G01 X-33.28845 Y-35.63099
G01 X-33.24540 Y-35.44054
G01 X-33.17291 Y-35.24667
G01 X-33.07230 Y-35.06160
G01 X-32.94621 Y-34.89274
G01 X-32.79676 Y-34.74423
G01 X-32.62808 Y-34.61809
G01 X-32.44352 Y-34.51649
G01 X-32.24604 Y-34.44304
G01 X-32.04007 Y-34.39871
G01 X-31.82996 Y-34.38365
G01 X-31.61977 Y-34.39810
G01 X-31.41391 Y-34.44298
G01 X-31.21670 Y-34.51710
G01 X-31.03194 Y-34.61822
G01 X-30.86301 Y-34.74405
G01 X-30.71363 Y-34.89269
G01 X-30.58767 Y-35.06163
G01 X-30.48698 Y-35.24664
G01 X-30.44807 Y-35.34425
G01 X-30.41376 Y-35.44415
G01 X-30.39344 Y-35.52518
G01 X-30.36882 Y-35.64989
G01 X-30.35310 Y-35.85997
G01 X-30.36804 Y-36.07016
G01 X-30.41274 Y-36.27610
G01 X-30.48635 Y-36.47361
G01 X-30.58732 Y-36.65855
G01 X-30.71368 Y-36.82726
G01 X-30.86250 Y-36.98159
G01 X-30.92894 Y-37.05995
G01 X-30.95221 Y-37.21095
G01 X-30.95473 Y-37.27783
G01 X-30.95473 Y-38.73637
G01 X-30.94695 Y-38.84427
G01 X-30.93692 Y-38.91415
G01 X-30.87985 Y-39.11989
G01 X-30.77591 Y-39.15941
G01 X-30.56194 Y-39.22814
G01 X-30.48615 Y-39.27485
G01 X-30.39379 Y-39.33960
G01 X-30.30652 Y-39.40843
G01 X-30.14104 Y-39.35590
G01 X-29.88361 Y-39.25085
G01 X-29.59265 Y-39.18123
G01 X-29.53723 Y-39.13929
G01 X-29.45877 Y-39.07097
G01 X-27.73616 Y-37.34590
G01 X-27.61513 Y-37.24092
G01 X-27.48051 Y-37.15982
G01 X-27.33518 Y-37.10574
G01 X-27.15288 Y-37.07455
G01 X-25.48377 Y-37.07478
G01 X-25.37534 Y-37.06701
G01 X-25.30549 Y-37.05695
G01 X-25.15829 Y-37.02172
G01 X-25.10158 Y-36.91174
G01 X-25.02532 Y-36.78644
G01 X-24.92794 Y-36.69487
G01 X-24.83620 Y-36.62276
G01 X-24.64272 Y-36.48527
G01 X-24.70389 Y-36.34803
G01 X-24.78397 Y-36.19050
G01 X-24.91857 Y-35.98088
G01 X-24.97699 Y-35.87887
G01 X-25.02385 Y-35.76907
G01 X-25.05415 Y-35.68273
G01 X-25.08999 Y-35.53120
G01 X-25.09926 Y-35.45035
G01 X-25.10701 Y-35.32998
G01 X-25.09650 Y-35.18027
G01 X-25.08395 Y-35.09988
G01 X-25.04704 Y-34.95076
G01 X-24.99804 Y-34.82853
G01 X-24.96312 Y-34.75505
G01 X-24.88166 Y-34.62246
G01 X-24.82515 Y-34.55048
G01 X-24.74755 Y-34.46239
G01 X-24.66116 Y-34.37961
G01 X-24.54181 Y-34.24969
G01 X-24.48745 Y-34.18075
G01 X-24.40480 Y-34.05998
G01 X-22.69061 Y-34.06018
G01 X-24.40480 Y-34.05998
G01 X-24.47549 Y-33.95543
G01 X-24.52279 Y-33.89351
G01 X-24.59314 Y-33.81324
G01 X-24.68004 Y-33.72079
G01 X-24.90940 Y-33.50199
G01 X-25.04491 Y-33.47989
G01 X-25.08108 Y-33.47725
G01 X-27.63756 Y-33.47522
G01 X-27.74546 Y-33.48297
G01 X-27.81902 Y-33.49356
G01 X-27.99240 Y-33.60679
G01 X-28.11079 Y-33.67547
G01 X-28.26626 Y-33.73935
G01 X-28.44597 Y-33.78190
G01 X-28.62999 Y-33.79625
G01 X-28.79730 Y-33.78431
G01 X-28.91437 Y-33.76016
G01 X-29.02892 Y-33.72594
G01 X-29.16433 Y-33.66874
G01 X-29.32151 Y-33.57184
G01 X-29.46227 Y-33.45228
G01 X-29.55097 Y-33.35040
G01 X-29.59959 Y-33.28520
G01 X-29.67866 Y-33.15432
G01 X-29.74901 Y-32.98358
G01 X-29.79250 Y-32.80410
G01 X-29.80657 Y-32.61998
G01 X-29.80350 Y-32.55604
G01 X-29.79240 Y-32.43588
G01 X-29.74937 Y-32.25625
G01 X-29.67873 Y-32.08558
G01 X-29.62034 Y-31.98259
G01 X-29.53781 Y-31.81157
G01 X-29.49405 Y-31.69839
G01 X-29.42839 Y-31.48670
G04 P0 ( dwell for no time -- G64 should not smooth over this point )
G00 Z2.00000 ( retract )

G00 X-29.72318 Y-25.73950 ( rapid move to begin. )
G01 F100.00000
( Mill infeed pass 1/1 )
G01 Z-0.30000
G04 P0 ( dwell for no time -- G64 should not smooth over this point )
G01 F100.00000
G01 X-29.72318 Y-25.73950
G01 X-29.72539 Y-25.62405
G01 X-29.73121 Y-25.54648
G01 X-29.74980 Y-25.39538
G01 X-29.79242 Y-25.18486
G01 X-29.80908 Y-24.95304
G01 X-29.83047 Y-24.75845
G01 X-29.85247 Y-24.63688
G01 X-29.88224 Y-24.51936
G01 X-30.22189 Y-24.38817
G01 X-30.30494 Y-24.44379
G01 X-30.47962 Y-24.55067
G01 X-30.57081 Y-24.60122
G01 X-30.65650 Y-24.62944
G01 X-30.69913 Y-24.63460
G01 X-32.77550 Y-24.63523
G01 X-32.88340 Y-24.64298
G01 X-33.16910 Y-24.67719
G04 P0 ( dwell for no time -- G64 should not smooth over this point )
G00 Z2.00000 ( retract )

G00 X-37.60528 Y-17.47253 ( rapid move to begin. )
G01 F100.00000
( Mill infeed pass 1/1 )
G01 Z-0.30000
G04 P0 ( dwell for no time -- G64 should not smooth over this point )
G01 F100.00000
G01 X-37.60528 Y-17.47253
G01 X-37.59220 Y-17.62382
G01 X-37.57285 Y-17.77202
G01 X-37.53195 Y-17.99570
G01 X-37.51562 Y-18.06771
G01 X-37.48273 Y-18.17787
G01 X-37.41395 Y-18.36402
G01 X-37.37552 Y-18.51233
G01 X-37.36574 Y-18.56768
G01 X-37.35304 Y-18.72999
G01 X-37.36884 Y-18.91535
G01 X-37.41453 Y-19.09575
G01 X-37.46980 Y-19.22658
G01 X-37.50285 Y-19.28967
G01 X-37.59060 Y-19.42219
G01 X-37.64537 Y-19.48447
G01 X-37.71671 Y-19.55909
G01 X-37.84778 Y-19.66206
G01 X-37.91725 Y-19.70446
G01 X-38.02728 Y-19.76209
G01 X-38.20340 Y-19.82213
G01 X-38.38689 Y-19.85330
G01 X-38.52446 Y-19.85465
G01 X-38.57302 Y-19.85292
G01 X-38.63355 Y-19.84474
G01 X-38.75133 Y-19.82363
G01 X-38.81991 Y-19.80441
G01 X-38.97856 Y-19.76874
G01 X-39.10597 Y-19.74822
G01 X-39.43878 Y-19.72650
G01 X-39.63665 Y-19.72691
G04 P0 ( dwell for no time -- G64 should not smooth over this point )
G00 Z2.00000 ( retract )

G00 X-43.29118 Y-22.11177 ( rapid move to begin. )
G01 F100.00000
( Mill infeed pass 1/1 )
G01 Z-0.30000
G04 P0 ( dwell for no time -- G64 should not smooth over this point )
G01 F100.00000
G01 X-43.29118 Y-22.11177
G01 X-43.33105 Y-21.96104
G01 X-43.35572 Y-21.88690
G01 X-43.47152 Y-21.65152
G01 X-43.51200 Y-21.59320
G01 X-43.59839 Y-21.48954
G01 X-43.67553 Y-21.41220
G01 X-43.75798 Y-21.34070
G01 X-43.83121 Y-21.28622
G01 X-43.96278 Y-21.26770
G01 X-44.02933 Y-21.26521
G01 X-45.51512 Y-21.26681
G01 X-45.69856 Y-21.25195
G01 X-45.84771 Y-21.20991
G01 X-45.94548 Y-21.16539
G01 X-46.02350 Y-21.11949
G01 X-46.11898 Y-21.04786
G01 X-46.37468 Y-20.79302
G01 X-46.45805 Y-20.72066
G01 X-46.51459 Y-20.67834
G01 X-46.73605 Y-20.55917
G01 X-46.80801 Y-20.53232
G01 X-46.96369 Y-20.48624
G01 X-47.13684 Y-20.45767
G01 X-47.30412 Y-20.62307
G01 X-47.57270 Y-20.60753
G01 X-47.64049 Y-20.59998
G01 X-47.83366 Y-20.56432
G01 X-48.14590 Y-20.48769
G01 X-48.32998 Y-20.47331
G01 X-48.50328 Y-20.48627
