( pcb2gcode 2.5.0 )
( Software-independent Gcode )

G94 ( Millimeters per minute feed rate. )
G21 ( Units == Millimeters. )

G90 ( Absolute coordinates. )
G00 S24000 ( RPM spindle speed. )
G01 F100.00000 ( Feedrate. )


G00 Z35.00000 (Retract to tool change height)
T1
M5      (Spindle stop.)
G04 P1.00000 (Wait for spindle to stop)
(MSG, Change tool bit to mill diameter 1.00000mm)
M0      (Temporary machine stop.)
M3 ( Spindle on clockwise. )
G04 P1.00000 (Wait for spindle to get up to speed)
G04 P0 ( dwell for no time -- G64 should not smooth over this point )
G00 Z2.00000 ( retract )

G00 X-18.00048 Y-26.01171 ( rapid move to begin. )
G01 F100.00000
( Mill infeed pass 1/1 )
G01 Z-0.30000
G04 P0 ( dwell for no time -- G64 should not smooth over this point )
G01 F100.00000
G01 X-18.00048 Y-26.01171
G01 X-18.68763 Y-25.89690
G01 X-19.14417 Y-25.81463
G01 X-19.34927 Y-25.77353
G01 X-19.79647 Y-25.69230
G01 X-20.05913 Y-25.63553
G01 X-20.27498 Y-25.57214
G01 X-20.40022 Y-25.52327
G01 X-20.54671 Y-25.45210
G01 X-20.65582 Y-25.38707
G01 X-20.76423 Y-25.30986
G01 X-20.90426 Y-25.18788
G01 X-22.41904 Y-23.67633
G01 X-22.53774 Y-23.59256
G01 X-22.68125 Y-23.52586
G01 X-22.83197 Y-23.48573
G01 X-23.00766 Y-23.47285
G01 X-53.29264 Y-23.47440
G01 X-53.47628 Y-23.50600
G01 X-53.60397 Y-23.55268
G01 X-53.73277 Y-23.62647
G01 X-53.80630 Y-23.68319
G01 X-53.87895 Y-23.74877
G01 X-55.47305 Y-25.34529
G01 X-55.59004 Y-25.44895
G01 X-55.70503 Y-25.53437
G01 X-55.81755 Y-25.55192
G01 X-56.00287 Y-25.56467
G01 X-57.45768 Y-25.56467
G01 X-57.58059 Y-25.55911
G01 X-57.69946 Y-25.54336
G01 X-57.95588 Y-25.39174
G01 X-58.10891 Y-25.32720
G01 X-58.14996 Y-25.31417
G01 X-58.30594 Y-25.27803
G01 X-58.42938 Y-25.26627
G01 X-58.52087 Y-25.26454
G01 X-58.67409 Y-25.27752
G01 X-58.85369 Y-25.32052
G01 X-59.02349 Y-25.39106
G01 X-59.16525 Y-25.47755
G01 X-59.38341 Y-25.63096
G01 X-59.59875 Y-25.76690
G01 X-59.96913 Y-25.97409
G01 X-59.99626 Y-26.21567
G01 X-60.00210 Y-26.31735
G01 X-60.00375 Y-26.51011
G01 X-59.99316 Y-26.70297
G01 X-59.96171 Y-26.95194
G01 X-59.70423 Y-27.07907
G01 X-59.44221 Y-27.22555
G01 X-59.13781 Y-27.42065
G01 X-59.02433 Y-27.48874
G01 X-58.85354 Y-27.55887
G01 X-58.67401 Y-27.60175
G01 X-58.57818 Y-27.61165
G01 X-58.47660 Y-27.61623
G01 X-58.30584 Y-27.60246
G01 X-58.12636 Y-27.55900
G01 X-58.06715 Y-27.53650
G01 X-57.95565 Y-27.48874
G01 X-57.69969 Y-27.33477
G01 X-57.64290 Y-27.32799
G01 X-57.45766 Y-27.31521
G01 X-56.25342 Y-27.31519
G01 X-56.06320 Y-27.32921
G01 X-55.93134 Y-27.35224
G01 X-55.80820 Y-27.38427
G01 X-55.65314 Y-27.43904
G01 X-55.53002 Y-27.49400
G01 X-55.31156 Y-27.61712
G01 X-55.15725 Y-27.54470
G01 X-55.07595 Y-27.50182
G01 X-54.97798 Y-27.44371
G01 X-54.86767 Y-27.36901
G01 X-54.72205 Y-27.25420
G01 X-54.62223 Y-27.16235
G01 X-53.00785 Y-25.54788
G01 X-52.91072 Y-25.45834
G01 X-52.84606 Y-25.40447
G01 X-52.81352 Y-25.37953
G01 X-52.69168 Y-25.35034
G01 X-52.53404 Y-25.32464
G01 X-52.45358 Y-25.31651
G01 X-52.29998 Y-25.30996
G01 X-23.60997 Y-25.30996
G01 X-23.50700 Y-25.31303
G01 X-23.38345 Y-25.32410
G01 X-23.29389 Y-25.37689
G01 X-23.16908 Y-25.46266
G01 X-23.05498 Y-25.55542
G01 X-22.99577 Y-25.61006
G01 X-21.88536 Y-26.72263
G01 X-21.80202 Y-26.82080
G01 X-21.74686 Y-26.89388
G01 X-21.72519 Y-27.00373
G01 X-21.70837 Y-27.13055
G01 X-21.69994 Y-27.30000
G01 X-21.69994 Y-34.42998
G01 X-21.70291 Y-34.52729
G01 X-21.71422 Y-34.65182
G01 X-21.73474 Y-34.77831
G01 X-21.76522 Y-34.90803
G01 X-21.81218 Y-35.05716
G01 X-22.31048 Y-36.26800
G01 X-22.16314 Y-36.58052
G01 X-22.11800 Y-36.70363
G01 X-22.04500 Y-36.97254
G01 X-22.07078 Y-37.09551
G01 X-22.13421 Y-37.31148
G01 X-22.18308 Y-37.43670
G01 X-22.25417 Y-37.58301
G01 X-22.31919 Y-37.69213
G01 X-22.39646 Y-37.80061
G01 X-22.47632 Y-37.89489
G01 X-23.59453 Y-39.01674
G01 X-23.71797 Y-39.12596
G01 X-23.81802 Y-39.19939
G01 X-23.92541 Y-39.26611
G01 X-24.06628 Y-39.33784
G01 X-24.18960 Y-39.38864
G01 X-24.39539 Y-39.45329
G01 X-24.53705 Y-39.48575
G01 X-24.73412 Y-39.51956
G01 X-24.83862 Y-39.63756
G01 X-24.98464 Y-39.78493
G01 X-25.08033 Y-39.82060
G01 X-27.21756 Y-39.82019
G01 X-25.08033 Y-39.82060
G01 X-24.98464 Y-39.78493
G01 X-24.83862 Y-39.63756
G01 X-24.73412 Y-39.51956
G01 X-24.81932 Y-39.06517
G01 X-24.85549 Y-38.79146
G01 X-24.88833 Y-38.35806
G01 X-24.91784 Y-38.22725
G01 X-24.93298 Y-38.17198
G01 X-24.96798 Y-38.08250
G01 X-25.15150 Y-37.67755
G01 X-25.26069 Y-37.39109
G01 X-25.29640 Y-37.28055
G01 X-25.16636 Y-37.12324
G01 X-25.05637 Y-37.06843
G01 X-24.93326 Y-37.01443
G01 X-24.77951 Y-36.96122
G01 X-24.65637 Y-36.93005
G01 X-24.52508 Y-36.90798
G01 X-24.33976 Y-36.89518
G01 X-23.84147 Y-36.89485
G01 X-23.76034 Y-36.88697
G01 X-23.64858 Y-36.86269
G01 X-23.54703 Y-36.82616
G01 X-23.48569 Y-36.79825
G01 X-23.06103 Y-36.55212
G01 X-22.61970 Y-36.31359
G01 X-22.44929 Y-36.28535
G01 X-22.31048 Y-36.26800
G04 P0 ( dwell for no time -- G64 should not smooth over this point )
G00 Z2.00000 ( retract )

G00 X-24.47395 Y-27.69067 ( rapid move to begin. )
G01 F100.00000
( Mill infeed pass 1/1 )
G01 Z-0.30000
G04 P0 ( dwell for no time -- G64 should not smooth over this point )
G01 F100.00000
G01 X-24.47395 Y-27.69067
G01 X-24.63087 Y-27.99911
G01 X-24.76303 Y-28.29324
G01 X-24.85785 Y-28.53842
G01 X-24.93547 Y-28.77571
G01 X-25.00687 Y-28.94693
G01 X-25.10755 Y-29.11099
G01 X-25.31388 Y-29.37086
G01 X-25.51182 Y-29.65991
G01 X-26.68804 Y-29.65996
G01 X-26.84075 Y-29.43322
G01 X-26.98787 Y-29.23913
G01 X-27.09122 Y-29.11269
G01 X-27.17862 Y-28.97266
G01 X-27.22952 Y-28.86433
G01 X-27.26671 Y-28.76908
G01 X-27.30745 Y-28.60337
G01 X-27.31903 Y-28.51259
G01 X-27.32701 Y-28.38996
G01 X-27.31624 Y-28.23802
G01 X-27.30128 Y-28.14777
G01 X-27.22307 Y-27.79555
G01 X-27.18096 Y-27.52357
G01 X-27.16668 Y-27.38600
G04 P0 ( dwell for no time -- G64 should not smooth over this point )
G00 Z2.00000 ( retract )

G00 X-24.16499 Y-33.65810 ( rapid move to begin. )
G01 F100.00000
( Mill infeed pass 1/1 )
G01 Z-0.30000
G04 P0 ( dwell for no time -- G64 should not smooth over this point )
G01 F100.00000
G01 X-24.16499 Y-33.65810
G01 X-24.38119 Y-33.42668
G01 X-24.57713 Y-33.17486
G01 X-24.65660 Y-33.05178
G01 X-24.75292 Y-32.87309
G01 X-24.80613 Y-32.74995
G01 X-24.90471 Y-32.46892
G01 X-24.99270 Y-32.33857
G01 X-25.01815 Y-32.30819
G01 X-25.14827 Y-32.18332
G01 X-25.28645 Y-32.06935
G01 X-25.49173 Y-32.12694
G01 X-25.69953 Y-32.16824
G01 X-25.86770 Y-32.18914
G01 X-26.08375 Y-32.19976
G01 X-26.20511 Y-32.19762
G01 X-26.33986 Y-32.18843
G01 X-26.50829 Y-32.16697
G01 X-26.72919 Y-32.12178
G01 X-26.91324 Y-32.06956
G01 X-26.94908 Y-31.98144
G01 X-27.06076 Y-31.73524
G01 X-27.19333 Y-31.48711
G01 X-27.26671 Y-31.30908
G01 X-27.30745 Y-31.14337
G01 X-27.31903 Y-31.05259
G01 X-27.32701 Y-30.92996
G01 X-27.31984 Y-30.81619
G01 X-27.31141 Y-30.73811
G01 X-27.26706 Y-30.55076
G01 X-27.19300 Y-30.37307
G01 X-27.09244 Y-30.20893
G01 X-26.87207 Y-29.92986
G01 X-26.68804 Y-29.65996
G01 X-25.51182 Y-29.65991
G01 X-25.35454 Y-29.89323
G01 X-25.22236 Y-30.06761
G01 X-25.10867 Y-30.20723
G01 X-25.01647 Y-30.35567
G01 X-24.95462 Y-30.49572
G01 X-24.91416 Y-30.60639
G01 X-24.85267 Y-30.79819
G01 X-24.80082 Y-30.92757
G01 X-24.88840 Y-31.16628
G01 X-24.92602 Y-31.29018
G01 X-24.97901 Y-31.42468
G01 X-25.00687 Y-31.48693
G01 X-25.14258 Y-31.74228
G01 X-25.25462 Y-31.98990
G01 X-25.28645 Y-32.06935
G01 X-25.49173 Y-32.12694
G01 X-25.69953 Y-32.16824
G01 X-25.86770 Y-32.18914
G01 X-26.08375 Y-32.19976
G01 X-26.20511 Y-32.19762
G01 X-26.33986 Y-32.18843
G01 X-26.50829 Y-32.16697
G01 X-26.72919 Y-32.12178
G01 X-26.91324 Y-32.06956
G01 X-27.06054 Y-32.19122
G01 X-27.18370 Y-32.31045
G01 X-27.28080 Y-32.43095
G01 X-27.36089 Y-32.55523
G01 X-27.48553 Y-32.59800
G01 X-27.70237 Y-32.68086
G01 X-27.81748 Y-32.74814
G01 X-27.87730 Y-32.79534
G01 X-27.95766 Y-32.86709
G01 X-29.22538 Y-34.13902
G01 X-29.30704 Y-34.25261
G01 X-29.34504 Y-34.32353
G01 X-29.38375 Y-34.41128
G01 X-29.42388 Y-34.56201
G01 X-29.43709 Y-34.73773
G01 X-29.43523 Y-45.94847
G01 X-29.43686 Y-46.01467
G01 X-29.44867 Y-46.13140
G01 X-29.52568 Y-46.31604
G01 X-29.55154 Y-46.40674
G01 X-29.56211 Y-46.44921
G01 X-29.57704 Y-46.63884
G01 X-29.57633 Y-59.82998
G01 X-29.56523 Y-60.03130
G01 X-29.56523 Y-71.66079
G01 X-29.56686 Y-71.72696
G01 X-29.57679 Y-71.83222
G01 X-29.62441 Y-71.95894
G01 X-29.66213 Y-72.09920
G01 X-29.67699 Y-72.28886
G01 X-29.67521 Y-76.12710
G01 X-29.68466 Y-76.28311
G01 X-29.70554 Y-76.42487
G01 X-29.77265 Y-76.51679
G01 X-29.89472 Y-76.65695
G01 X-29.99807 Y-76.75743
G01 X-30.08110 Y-76.82908
G01 X-30.18115 Y-76.90251
G01 X-30.28855 Y-76.96924
G01 X-30.42941 Y-77.04099
G01 X-30.55273 Y-77.09177
G01 X-30.75852 Y-77.15641
G01 X-31.02451 Y-77.21270
G01 X-31.13396 Y-77.34965
G01 X-31.29192 Y-77.52377
G01 X-31.40157 Y-77.63083
G01 X-31.54358 Y-77.75572
G01 X-31.75443 Y-77.81267
G01 X-31.99626 Y-77.85986
G01 X-32.20160 Y-77.88430
G01 X-32.42458 Y-77.89464
G01 X-32.64363 Y-77.88839
G01 X-32.78636 Y-77.87556
G01 X-32.93078 Y-77.85557
G01 X-33.17340 Y-77.80594
G01 X-33.32832 Y-77.76395
G01 X-33.47320 Y-77.71712
G01 X-33.49182 Y-77.60957
G01 X-33.52943 Y-77.43548
G01 X-33.63820 Y-77.06373
G01 X-33.67627 Y-76.89017
G01 X-33.69626 Y-76.76594
G01 X-33.71018 Y-76.64069
G01 X-33.71836 Y-76.50622
G01 X-33.71714 Y-76.30338
G01 X-33.70261 Y-76.12449
G01 X-33.67028 Y-75.91847
G01 X-33.62971 Y-75.74356
G01 X-33.58953 Y-75.60678
G01 X-33.50563 Y-75.57270
G01 X-33.25877 Y-75.46094
G01 X-33.00713 Y-75.32667
G01 X-32.92773 Y-75.29185
G01 X-32.82908 Y-75.25319
G01 X-32.69227 Y-75.21870
G01 X-32.64188 Y-75.20826
G01 X-32.57404 Y-75.20099
G01 X-32.44998 Y-75.19289
G01 X-32.42095 Y-75.19429
G01 X-32.25809 Y-75.20841
G01 X-32.07084 Y-75.25309
G01 X-31.89103 Y-75.32779
G01 X-31.72900 Y-75.42769
G01 X-31.65529 Y-75.48756
G01 X-31.58224 Y-75.55225
G01 X-31.45755 Y-75.69893
G01 X-31.35669 Y-75.86294
G01 X-31.30419 Y-75.98557
G01 X-31.28326 Y-76.04089
G01 X-31.26784 Y-76.09726
G01 X-31.23830 Y-76.22799
G01 X-31.19456 Y-76.52845
G01 X-31.15512 Y-76.71867
G01 X-31.13510 Y-76.80805
G01 X-31.02451 Y-77.21270
G04 P0 ( dwell for no time -- G64 should not smooth over this point )
G00 Z2.00000 ( retract )

G00 X-33.58953 Y-75.60678 ( rapid move to begin. )
G01 F100.00000
( Mill infeed pass 1/1 )
G01 Z-0.30000
G04 P0 ( dwell for no time -- G64 should not smooth over this point )
G01 F100.00000
G01 X-33.58953 Y-75.60678
G01 X-33.71107 Y-75.45959
G01 X-33.83035 Y-75.33637
G01 X-33.85857 Y-75.31270
G01 X-33.98310 Y-75.22784
G01 X-34.06649 Y-75.20051
G01 X-34.13997 Y-75.19472
G01 X-35.83999 Y-75.19472
G01 X-35.91345 Y-75.20051
G01 X-35.99681 Y-75.22781
G01 X-36.12138 Y-75.31268
G01 X-36.15175 Y-75.33815
G01 X-36.27667 Y-75.46833
G01 X-36.39062 Y-75.60648
G01 X-36.33136 Y-75.81880
G01 X-36.28874 Y-76.03891
G01 X-36.26931 Y-76.20422
G01 X-36.26186 Y-76.32614
G01 X-36.26029 Y-76.44775
G01 X-36.27187 Y-76.66360
G01 X-36.29359 Y-76.83218
G01 X-36.33588 Y-77.04018
G01 X-36.37080 Y-77.16957
G01 X-36.41091 Y-77.29558
G01 X-36.54662 Y-77.43868
G01 X-36.70748 Y-77.58504
G01 X-36.87822 Y-77.71816
G01 X-37.00842 Y-77.80706
G01 X-37.09897 Y-77.86347
G01 X-37.22051 Y-77.87851
G01 X-37.36295 Y-77.89004
G01 X-37.50458 Y-77.89464
G01 X-37.65945 Y-77.89187
G01 X-37.80499 Y-77.88194
G01 X-37.94771 Y-77.86517
G01 X-38.09211 Y-77.84117
G01 X-38.24756 Y-77.80731
G01 X-38.33382 Y-77.86365
G01 X-38.53135 Y-77.97150
G01 X-38.65447 Y-78.02550
G01 X-38.80819 Y-78.07869
G01 X-38.93128 Y-78.10985
G01 X-39.06262 Y-78.13192
G01 X-39.18573 Y-78.14213
G01 X-39.67550 Y-78.14473
G01 X-39.81464 Y-78.13751
G01 X-39.92703 Y-78.12225
G01 X-40.05015 Y-78.09641
G01 X-40.19665 Y-78.05247
G01 X-40.29434 Y-78.01435
G01 X-40.35868 Y-77.83520
G01 X-40.38987 Y-77.71209
G01 X-40.41192 Y-77.58079
G01 X-40.42472 Y-77.39545
G01 X-40.42462 Y-35.20516
G01 X-40.44969 Y-35.04573
G01 X-40.48720 Y-34.93554
G01 X-40.50067 Y-34.89927
G01 X-40.59193 Y-34.74293
G01 X-40.69866 Y-34.62081
G01 X-42.57717 Y-32.74385
G01 X-42.62347 Y-32.69358
G01 X-42.65918 Y-32.55170
G01 X-42.68783 Y-32.46310
G01 X-42.77270 Y-32.33857
G01 X-42.79815 Y-32.30819
G01 X-42.92827 Y-32.18332
G01 X-43.06645 Y-32.06935
G01 X-43.27173 Y-32.12694
G01 X-43.47953 Y-32.16824
G01 X-43.64770 Y-32.18914
G01 X-43.86375 Y-32.19976
G01 X-43.98511 Y-32.19762
G01 X-44.11986 Y-32.18843
G01 X-44.28829 Y-32.16697
G01 X-44.50919 Y-32.12178
G01 X-44.69324 Y-32.06956
G01 X-44.72908 Y-31.98144
G01 X-44.84076 Y-31.73524
G01 X-44.97333 Y-31.48711
G01 X-45.04671 Y-31.30908
G01 X-45.09151 Y-31.12186
G01 X-45.10701 Y-30.92996
G01 X-45.09141 Y-30.73811
G01 X-45.04716 Y-30.55120
G01 X-44.99789 Y-30.42867
G01 X-44.84508 Y-30.09697
G01 X-44.75567 Y-29.87210
G01 X-44.68476 Y-29.66001
G01 X-44.81333 Y-29.50367
G01 X-44.99448 Y-29.41610
G01 X-45.15415 Y-29.35559
G01 X-45.27726 Y-29.32062
G01 X-45.41125 Y-29.29405
G01 X-45.53436 Y-29.28026
G01 X-45.61844 Y-29.27556
G01 X-47.90858 Y-29.27523
G01 X-48.09402 Y-29.28800
G01 X-48.16641 Y-29.29740
G01 X-48.43105 Y-29.46458
G01 X-48.45559 Y-29.47873
G01 X-48.55333 Y-29.52092
G01 X-48.62646 Y-29.54884
G01 X-48.68063 Y-29.56385
G01 X-48.82450 Y-29.59443
G01 X-48.98998 Y-29.60700
G01 X-49.17411 Y-29.59242
G01 X-49.54604 Y-29.50126
G01 X-49.67228 Y-29.47426
G01 X-49.78500 Y-29.53926
G01 X-49.89597 Y-29.61587
G01 X-49.99153 Y-29.69445
G01 X-50.04472 Y-29.74261
G01 X-50.11741 Y-29.81884
G01 X-50.19727 Y-29.91312
G01 X-50.26440 Y-30.00505
G01 X-50.28528 Y-30.14683
G01 X-50.29473 Y-30.30286
G01 X-50.29473 Y-34.20415
G01 X-50.28193 Y-34.38947
G01 X-50.25988 Y-34.52078
G01 X-50.22869 Y-34.64390
G01 X-50.17548 Y-34.79772
G01 X-50.12147 Y-34.92081
G01 X-50.03925 Y-35.07773
G01 X-50.11853 Y-35.30699
G01 X-50.14764 Y-35.41164
G01 X-50.18632 Y-35.58532
G01 X-50.20458 Y-35.69619
G01 X-50.22031 Y-35.83285
G01 X-50.22760 Y-35.94621
G01 X-50.22968 Y-36.07239
G01 X-50.22508 Y-36.20160
G01 X-50.21253 Y-36.34240
G01 X-50.17598 Y-36.56622
G01 X-50.12927 Y-36.75583
G01 X-50.08551 Y-36.89571
G01 X-50.03900 Y-37.02307
G01 X-50.11271 Y-37.16111
G01 X-50.18696 Y-37.33185
G01 X-50.22838 Y-37.45499
G01 X-50.26305 Y-37.59454
G01 X-50.28282 Y-37.71768
G01 X-50.29198 Y-37.80993
G01 X-50.29473 Y-37.89578
G01 X-50.29282 Y-43.47329
G01 X-50.30408 Y-43.63710
G01 X-50.34873 Y-43.81944
G01 X-50.35472 Y-43.93961
G01 X-50.35472 Y-44.34068
G01 X-50.34195 Y-44.52600
G01 X-50.31987 Y-44.65729
G01 X-50.28871 Y-44.78040
G01 X-50.23547 Y-44.93423
G01 X-50.18147 Y-45.05734
G01 X-50.07365 Y-45.25480
G01 X-50.01177 Y-45.35655
G01 X-50.08195 Y-45.56501
G01 X-50.16430 Y-45.75800
G01 X-50.26925 Y-45.96249
G01 X-50.36669 Y-46.12917
G01 X-50.43537 Y-46.23826
G01 X-50.72996 Y-46.25995
G01 X-52.64997 Y-46.25995
G01 X-52.92995 Y-45.97994
G01 X-53.08746 Y-45.79996
G01 X-53.19995 Y-45.61995
G01 X-53.26747 Y-45.43996
G01 X-53.28997 Y-45.25996
G01 X-53.28997 Y-43.05996
G01 X-53.26013 Y-42.85272
G01 X-53.17064 Y-42.64546
G01 X-52.92995 Y-42.50771
G01 X-52.42962 Y-42.30032
G01 X-52.09549 Y-41.48712
G01 X-52.06864 Y-41.40665
G01 X-52.03369 Y-41.27741
G01 X-52.00831 Y-41.14300
G01 X-51.99475 Y-41.02197
G01 X-51.98998 Y-40.89997
G01 X-51.99003 Y-36.58987
G01 X-51.99445 Y-36.48126
G01 X-52.01172 Y-36.33363
G01 X-52.03077 Y-36.23511
G01 X-52.08680 Y-36.03760
G01 X-52.13067 Y-35.92063
G01 X-52.38108 Y-35.31608
G01 X-52.47910 Y-35.29554
G01 X-52.69510 Y-35.23211
G01 X-52.82033 Y-35.18324
G01 X-52.96663 Y-35.11215
G01 X-53.07575 Y-35.04715
G01 X-53.18423 Y-34.96988
G01 X-53.32429 Y-34.84791
G01 X-54.03823 Y-34.13399
G01 X-54.08819 Y-34.08705
G01 X-54.14265 Y-34.04695
G01 X-54.21898 Y-33.99607
G01 X-54.33983 Y-33.93966
G01 X-54.64996 Y-33.85436
G01 X-54.80983 Y-33.80039
G01 X-54.97234 Y-33.72853
G01 X-55.09543 Y-33.66193
G01 X-55.31517 Y-33.51698
G01 X-55.43828 Y-33.42112
G01 X-55.72370 Y-33.15993
G01 X-56.91613 Y-33.15993
G01 X-57.11958 Y-33.08119
G01 X-57.32306 Y-33.02493
G01 X-57.52651 Y-32.99120
G01 X-57.72999 Y-32.97994
G01 X-59.22997 Y-32.97992
G01 X-59.56911 Y-33.01116
G01 X-59.90822 Y-33.10491
G01 X-60.12006 Y-33.10491
G01 X-60.31709 Y-33.09788
G01 X-60.50566 Y-32.99607
G01 X-60.70987 Y-32.86600
G01 X-60.89509 Y-32.72569
G01 X-60.99796 Y-32.63687
G01 X-61.09516 Y-32.54477
G01 X-61.79194 Y-31.84782
G01 X-61.87157 Y-31.59778
G01 X-62.02386 Y-31.22440
G01 X-62.06979 Y-31.10014
G01 X-62.11391 Y-30.95297
G01 X-62.13207 Y-30.87809
G01 X-62.15793 Y-30.74043
G01 X-62.17601 Y-30.57322
G01 X-62.18012 Y-30.44995
G01 X-62.17997 Y-26.11999
G01 X-62.18221 Y-26.03170
G01 X-62.19107 Y-25.91549
G01 X-62.21886 Y-25.73371
G01 X-62.33644 Y-25.57620
G01 X-62.45287 Y-25.44709
G01 X-64.30997 Y-23.58997
G01 X-64.39597 Y-23.50961
G01 X-64.50549 Y-23.41949
G01 X-64.65944 Y-23.31270
G01 X-64.69058 Y-23.30813
G01 X-64.85543 Y-23.29007
G01 X-64.99000 Y-23.28497
G01 X-87.28000 Y-23.28497
G01 X-87.42861 Y-23.29078
G01 X-87.54451 Y-23.30287
G01 X-87.65183 Y-23.32030
G01 X-87.78848 Y-23.35106
G01 X-87.96359 Y-23.40407
G01 X-88.04406 Y-23.43366
G01 X-88.45957 Y-23.60458
G01 X-90.17534 Y-25.32035
G01 X-90.44829 Y-25.98031
G01 X-90.48832 Y-26.08920
G01 X-90.52457 Y-26.20846
G01 X-90.55129 Y-26.31973
G01 X-90.57014 Y-26.42697
G01 X-90.58586 Y-26.57505
G01 X-90.58995 Y-26.68999
G01 X-90.58995 Y-31.89999
G01 X-90.59602 Y-32.03981
G01 X-90.61205 Y-32.17852
G01 X-90.63366 Y-32.29341
G01 X-90.68766 Y-32.48866
G01 X-90.73445 Y-32.61683
G01 X-90.91029 Y-33.04149
G01 X-90.85629 Y-33.12414
G01 X-90.74842 Y-33.32170
G01 X-90.69442 Y-33.44481
G01 X-90.64123 Y-33.59856
G01 X-90.61007 Y-33.72167
G01 X-90.58799 Y-33.85297
G01 X-90.57522 Y-34.03831
G01 X-90.57522 Y-34.97710
G01 X-90.58467 Y-35.13308
G01 X-90.60554 Y-35.27488
G01 X-90.67265 Y-35.36678
G01 X-90.79467 Y-35.50689
G01 X-91.25017 Y-35.96239
G01 X-91.35368 Y-36.05571
G01 X-91.44395 Y-36.12436
G01 X-91.54923 Y-36.19317
G01 X-91.68393 Y-36.26571
G01 X-91.85726 Y-36.34019
G01 X-92.12645 Y-36.12370
G01 X-92.31062 Y-35.96323
G01 X-93.04417 Y-35.22838
G01 X-93.13599 Y-35.12228
G01 X-93.20976 Y-35.02198
G01 X-93.28430 Y-34.90034
G01 X-93.34280 Y-34.78477
G01 X-93.41136 Y-34.61469
G01 X-93.45286 Y-34.48213
G01 X-93.50968 Y-34.22457
G01 X-93.61135 Y-34.14918
G01 X-93.74793 Y-34.03765
G01 X-93.87597 Y-33.92023
G01 X-94.02670 Y-33.76940
G01 X-94.02657 Y-33.54423
G01 X-94.04285 Y-33.22160
G01 X-94.07643 Y-32.91446
G01 X-94.17663 Y-32.75508
G01 X-94.24658 Y-32.66227
G01 X-94.34399 Y-32.55373
G01 X-95.56025 Y-31.33748
G01 X-95.70035 Y-31.21546
G01 X-95.80879 Y-31.13824
G01 X-95.83721 Y-31.12130
G01 X-95.93096 Y-31.11711
G01 X-96.15057 Y-31.11602
G01 X-96.31397 Y-31.10161
G01 X-96.49359 Y-31.05907
G01 X-96.60266 Y-31.01602
G01 X-96.66395 Y-30.98797
G01 X-96.82169 Y-30.89204
G01 X-97.07533 Y-30.68213
G01 X-97.39956 Y-30.44495
G01 X-97.39941 Y-29.06052
G01 X-97.27665 Y-28.92176
G01 X-97.15615 Y-28.80093
G01 X-97.02506 Y-28.68343
G01 X-96.89791 Y-28.58140
G01 X-96.76695 Y-28.48701
G01 X-96.61412 Y-28.38882
G01 X-96.44485 Y-28.29296
G01 X-96.28120 Y-28.21155
G01 X-95.45466 Y-28.30411
G01 X-95.29108 Y-28.42026
G01 X-95.15296 Y-28.52971
G01 X-95.02639 Y-28.64068
G01 X-94.94303 Y-28.71988
G01 X-94.82974 Y-28.93228
G01 X-94.71379 Y-29.10421
G01 X-94.59723 Y-29.25854
G01 X-94.51051 Y-29.36189
G01 X-94.38766 Y-29.49407
G01 X-94.29197 Y-29.58709
G01 X-94.12974 Y-29.72770
G01 X-94.01019 Y-29.82064
G01 X-93.89614 Y-29.90075
G01 X-93.65987 Y-30.04561
G01 X-93.41997 Y-30.16806
G01 X-93.24084 Y-30.24584
G01 X-93.08512 Y-30.30482
G01 X-92.94283 Y-30.14162
G01 X-92.87696 Y-30.06027
G01 X-92.75019 Y-29.89110
G01 X-92.64473 Y-29.73408
G01 X-92.52543 Y-29.53017
G01 X-92.42220 Y-29.31744
G01 X-92.35726 Y-29.15305
G01 X-92.31908 Y-29.03659
G01 X-92.28776 Y-28.92151
G01 X-92.24778 Y-28.71785
G01 X-92.23005 Y-28.55222
G01 X-92.22520 Y-28.40612
G01 X-92.22843 Y-28.29428
G01 X-92.24666 Y-28.11066
G01 X-92.27407 Y-27.95821
G01 X-92.31410 Y-27.80066
G01 X-92.34974 Y-27.68882
G01 X-92.41319 Y-27.52395
G01 X-92.50229 Y-27.33396
G01 X-92.60729 Y-27.14716
G01 X-92.89398 Y-27.14592
G01 X-93.15784 Y-27.13205
G01 X-93.27671 Y-27.07208
G01 X-93.38583 Y-27.00706
G01 X-93.49421 Y-26.92984
G01 X-93.58847 Y-26.85001
G01 X-94.50033 Y-25.94033
G01 X-94.54005 Y-25.90218
G01 X-94.59286 Y-25.86159
G01 X-94.67018 Y-25.80724
G01 X-94.71844 Y-25.78255
G01 X-94.82555 Y-25.73312
G01 X-94.94094 Y-25.69124
G01 X-95.05839 Y-25.60739
G01 X-95.21524 Y-25.51138
G01 X-95.38742 Y-25.44031
G01 X-95.56594 Y-25.39804
G01 X-95.64686 Y-25.38951
G01 X-95.74998 Y-25.38313
G01 X-95.88519 Y-25.39233
G01 X-95.93406 Y-25.39774
G01 X-96.06695 Y-25.42794
G01 X-96.15450 Y-25.45613
G01 X-96.28397 Y-25.51201
G01 X-96.54208 Y-25.66413
G01 X-96.76299 Y-25.69088
G01 X-96.85613 Y-25.70655
G01 X-96.89390 Y-25.71516
G01 X-97.01960 Y-25.76040
G01 X-97.14282 Y-25.83012
G01 X-97.17688 Y-25.85215
G01 X-97.22661 Y-25.89304
G01 X-97.29910 Y-25.95860
G01 X-97.64518 Y-26.30739
G01 X-97.74856 Y-26.40058
G01 X-97.83896 Y-26.46939
G01 X-97.94429 Y-26.53817
G01 X-98.07894 Y-26.61072
G01 X-98.17497 Y-26.65283
G01 X-98.34713 Y-26.57163
G01 X-98.45625 Y-26.50663
G01 X-98.56476 Y-26.42931
G01 X-98.70479 Y-26.30734
G01 X-100.56874 Y-24.44323
G01 X-100.69897 Y-24.28923
G01 X-100.77530 Y-24.17722
G01 X-100.83839 Y-24.06617
G01 X-100.90880 Y-23.91331
G01 X-100.95551 Y-23.78588
G01 X-101.01739 Y-23.55761
G01 X-101.02615 Y-23.51110
G01 X-101.59836 Y-23.27410
G01 X-101.74814 Y-23.21987
G01 X-101.85622 Y-23.18893
G01 X-101.96125 Y-23.16559
G01 X-102.06768 Y-23.14872
G01 X-102.18584 Y-23.13788
G01 X-102.27997 Y-23.13495
G01 X-104.37999 Y-23.13495
G01 X-104.48743 Y-23.13874
G01 X-104.60935 Y-23.15098
G01 X-104.74334 Y-23.17471
G01 X-104.89764 Y-23.21535
G01 X-105.05124 Y-23.26998
G01 X-105.56934 Y-23.48448
G01 X-105.83470 Y-23.74976
G01 X-105.97874 Y-23.82667
G01 X-106.13808 Y-23.92375
G01 X-106.28456 Y-24.02639
G01 X-106.42002 Y-24.13490
G01 X-106.59431 Y-24.29787
G01 X-106.71168 Y-24.42609
G01 X-106.78306 Y-24.51285
G01 X-106.89670 Y-24.66779
G01 X-106.94516 Y-24.74153
G01 X-107.01031 Y-24.84890
G01 X-107.07468 Y-24.96711
G01 X-106.97366 Y-25.13841
G01 X-106.85583 Y-25.36231
G01 X-106.82014 Y-25.43365
G01 X-106.67841 Y-25.75418
G01 X-106.55362 Y-25.96182
G01 X-106.41649 Y-26.21191
G01 X-106.21961 Y-26.63093
G01 X-106.14948 Y-26.80269
G01 X-106.21961 Y-26.63093
G01 X-106.41649 Y-26.21191
G01 X-106.55362 Y-25.96182
G01 X-106.67841 Y-25.75418
G01 X-106.82014 Y-25.43365
G01 X-106.85583 Y-25.36231
G01 X-106.97366 Y-25.13841
G01 X-107.07468 Y-24.96711
G01 X-107.12062 Y-24.97724
G01 X-107.33101 Y-25.04143
G01 X-107.45519 Y-25.09136
G01 X-107.59835 Y-25.16279
G01 X-107.70648 Y-25.22878
G01 X-107.81018 Y-25.30389
G01 X-107.94102 Y-25.41882
G01 X-108.26642 Y-25.74422
G01 X-108.38836 Y-25.88423
G01 X-108.46568 Y-25.99273
G01 X-108.53068 Y-26.10185
G01 X-108.60183 Y-26.24826
G01 X-108.65067 Y-26.37348
G01 X-108.71404 Y-26.58923
G01 X-108.75727 Y-26.80195
G01 X-108.89332 Y-26.82860
G01 X-109.03396 Y-26.86205
G01 X-109.23545 Y-26.92720
G01 X-109.35796 Y-26.97884
G01 X-109.49644 Y-27.05082
G01 X-109.60309 Y-27.11831
G01 X-109.69956 Y-27.19004
G01 X-109.81574 Y-27.29352
G01 X-110.39788 Y-27.87569
G01 X-110.51983 Y-28.01569
G01 X-110.59715 Y-28.12420
G01 X-110.66215 Y-28.23332
G01 X-110.73329 Y-28.37972
G01 X-110.78216 Y-28.50497
G01 X-110.84485 Y-28.71762
G01 X-110.64025 Y-28.85884
G01 X-110.34894 Y-29.03659
G01 X-110.19822 Y-29.11762
G01 X-110.08455 Y-29.13774
G01 X-109.88376 Y-29.15455
G01 X-109.30210 Y-29.15470
G01 X-109.11658 Y-29.14193
G01 X-108.98526 Y-29.11988
G01 X-108.86215 Y-29.08869
G01 X-108.70840 Y-29.03550
G01 X-108.58529 Y-28.98150
G01 X-108.52321 Y-28.95219
G01 X-108.53238 Y-28.58877
G01 X-108.56032 Y-28.27625
G01 X-108.56634 Y-28.15928
G01 X-108.55382 Y-28.00187
G01 X-108.51498 Y-27.75420
G01 X-108.49321 Y-27.54841
G01 X-108.48290 Y-27.43319
G01 X-108.46698 Y-27.09299
G01 X-108.75727 Y-26.80195
G01 X-108.46698 Y-27.09299
G01 X-108.03566 Y-27.07000
G01 X-107.78534 Y-27.04216
G01 X-107.59647 Y-27.01079
G01 X-107.43576 Y-26.99537
G01 X-107.38991 Y-26.99357
G01 X-107.12840 Y-27.00564
G01 X-107.00630 Y-27.00729
G01 X-106.72863 Y-27.00099
G01 X-106.49462 Y-26.98346
G01 X-106.24664 Y-26.86083
G01 X-106.14948 Y-26.80269
G01 X-105.92891 Y-26.83063
G01 X-105.80694 Y-26.83954
G01 X-105.57404 Y-26.84399
G01 X-105.32830 Y-26.83071
G01 X-105.16033 Y-26.81077
G01 X-105.03338 Y-26.79022
G01 X-104.20973 Y-25.40104
G01 X-104.10166 Y-25.31285
G01 X-103.97646 Y-25.22136
G01 X-103.88652 Y-25.16127
G01 X-103.74547 Y-25.13960
G01 X-103.53003 Y-25.11963
G01 X-103.30176 Y-25.11600
G01 X-103.08360 Y-25.12946
G01 X-102.91045 Y-25.15189
G01 X-102.77926 Y-25.17539
G01 X-102.59323 Y-25.31214
G01 X-102.51431 Y-25.37704
G01 X-102.37689 Y-25.50193
G01 X-102.24855 Y-25.63444
G01 X-102.08650 Y-25.82903
G01 X-101.97425 Y-25.98649
G01 X-101.85782 Y-26.17572
G01 X-101.67085 Y-26.21440
G01 X-101.45485 Y-26.27780
G01 X-101.32963 Y-26.32669
G01 X-101.18332 Y-26.39779
G01 X-101.07420 Y-26.46281
G01 X-100.96572 Y-26.54008
G01 X-100.87144 Y-26.61994
G01 X-99.75440 Y-27.73558
G01 X-99.69026 Y-27.80868
G01 X-99.62028 Y-27.90154
G01 X-99.55203 Y-28.00741
G01 X-99.49981 Y-28.10002
G01 X-99.54195 Y-28.32156
G01 X-99.59280 Y-28.55958
G01 X-99.62028 Y-28.66415
G01 X-99.66057 Y-28.78727
G01 X-99.73420 Y-28.96060
G01 X-99.78993 Y-29.06720
G01 X-99.93994 Y-29.20136
G01 X-99.93982 Y-30.44553
G01 X-100.20276 Y-30.63403
G01 X-100.51683 Y-30.89125
G01 X-100.67578 Y-30.98841
G01 X-100.84637 Y-31.05904
G01 X-101.02584 Y-31.10243
G01 X-101.38071 Y-31.13568
G01 X-101.48391 Y-31.15051
G01 X-101.74713 Y-32.33146
G01 X-101.48391 Y-31.15051
G01 X-101.55962 Y-31.09935
G01 X-101.90158 Y-30.89189
G01 X-102.21037 Y-30.63862
G01 X-102.47961 Y-30.44520
G01 X-102.74060 Y-30.63222
G01 X-103.05726 Y-30.89062
G01 X-103.43107 Y-31.11894
G01 X-103.70422 Y-31.30713
G01 X-104.09091 Y-31.60464
G01 X-104.22246 Y-31.71380
G01 X-104.09091 Y-31.60464
G01 X-103.70422 Y-31.30713
G01 X-103.43107 Y-31.11894
G01 X-103.05726 Y-30.89062
G01 X-102.74060 Y-30.63222
G01 X-102.47961 Y-30.44520
G01 X-102.47905 Y-30.05082
G01 X-102.53082 Y-29.92006
G01 X-102.59942 Y-29.77147
G01 X-102.69480 Y-29.59964
G01 X-102.77870 Y-29.47218
G01 X-102.86206 Y-29.36232
G01 X-102.95642 Y-29.25354
G01 X-103.03945 Y-29.16913
G01 X-103.19066 Y-29.03728
G01 X-103.30435 Y-28.95313
G01 X-103.41288 Y-28.93261
G01 X-103.53272 Y-28.91653
G01 X-103.73145 Y-28.90517
G01 X-103.89038 Y-28.90992
G01 X-104.02568 Y-28.92356
G01 X-104.17422 Y-28.94866
G01 X-104.31489 Y-28.98231
G01 X-104.46104 Y-29.02737
G01 X-104.64644 Y-29.09997
G01 X-106.58669 Y-29.09997
G01 X-106.75829 Y-29.15727
G01 X-106.91938 Y-29.19834
G01 X-107.04135 Y-29.22148
G01 X-107.23970 Y-29.24442
G01 X-107.40452 Y-29.24960
G01 X-107.52649 Y-29.24533
G01 X-107.68006 Y-29.23022
G01 X-107.79804 Y-29.21127
G01 X-107.94739 Y-29.17787
G01 X-108.14889 Y-29.11645
G01 X-108.27320 Y-29.06916
G01 X-108.40226 Y-29.01252
G01 X-108.52321 Y-28.95219
G01 X-108.70840 Y-29.03550
G01 X-108.86215 Y-29.08869
G01 X-108.98526 Y-29.11988
G01 X-109.11658 Y-29.14193
G01 X-109.30210 Y-29.15470
G01 X-109.88376 Y-29.15455
G01 X-110.08455 Y-29.13774
G01 X-110.19822 Y-29.11762
G01 X-110.34894 Y-29.03659
G01 X-110.64025 Y-28.85884
G01 X-110.84485 Y-28.71762
G01 X-110.98871 Y-28.78384
G01 X-111.14762 Y-28.86888
G01 X-111.23733 Y-28.92290
G01 X-111.36768 Y-29.01023
G01 X-111.48612 Y-29.10007
G01 X-111.59676 Y-29.19448
G01 X-111.71007 Y-29.30365
G01 X-111.80952 Y-29.41160
G01 X-111.90174 Y-29.52420
G01 X-111.98912 Y-29.64429
G01 X-112.11320 Y-29.84343
G01 X-112.19270 Y-29.99461
G01 X-112.27233 Y-30.17111
G01 X-112.30901 Y-30.26385
G01 X-112.36966 Y-30.43880
G01 X-112.37060 Y-30.48843
G01 X-112.44957 Y-30.62775
G01 X-112.50481 Y-30.71627
G01 X-112.61734 Y-30.87853
G01 X-112.77753 Y-31.07634
G01 X-112.89537 Y-31.20194
G01 X-112.96829 Y-31.27281
G01 X-113.12036 Y-31.40598
G01 X-113.19653 Y-31.46623
G01 X-113.37492 Y-31.59272
G01 X-113.51073 Y-31.53628
G01 X-113.80364 Y-31.43057
G01 X-114.08581 Y-31.34482
G01 X-114.30021 Y-31.29031
G01 X-114.47400 Y-31.21805
G01 X-114.63118 Y-31.12135
G01 X-114.77159 Y-31.00159
G01 X-114.89150 Y-30.86128
G01 X-115.11855 Y-30.49405
G01 X-115.30565 Y-30.22694
G01 X-115.36346 Y-30.15320
G01 X-115.30565 Y-30.22694
G01 X-115.11855 Y-30.49405
G01 X-114.89150 Y-30.86128
G01 X-114.77159 Y-31.00159
G01 X-114.63118 Y-31.12135
G01 X-114.47400 Y-31.21805
G01 X-114.30021 Y-31.29031
G01 X-114.08581 Y-31.34482
G01 X-113.80364 Y-31.43057
G01 X-113.51073 Y-31.53628
G01 X-113.37492 Y-31.59272
G01 X-113.40334 Y-31.72821
G01 X-113.46666 Y-31.94385
G01 X-113.51553 Y-32.06910
G01 X-113.58668 Y-32.21553
G01 X-113.65170 Y-32.32462
G01 X-113.72894 Y-32.43308
G01 X-113.85094 Y-32.57314
G01 X-114.61337 Y-33.33925
G01 X-114.69615 Y-33.45716
G01 X-114.73394 Y-33.53298
G01 X-114.76801 Y-33.61131
G01 X-114.79871 Y-33.72965
G01 X-114.80837 Y-33.78568
G01 X-114.81708 Y-33.92665
G01 X-114.81522 Y-36.75766
G01 X-114.82084 Y-36.88057
G01 X-114.83656 Y-36.99944
G01 X-114.98866 Y-37.25565
G01 X-115.05901 Y-37.42637
G01 X-115.10196 Y-37.60594
G01 X-115.11693 Y-37.78999
G01 X-115.10087 Y-37.98181
G01 X-114.98332 Y-38.47208
G01 X-115.06201 Y-38.60493
G01 X-115.13925 Y-38.71338
G01 X-115.21911 Y-38.80767
G01 X-115.59892 Y-39.19111
G01 X-115.68975 Y-39.27401
G01 X-115.78449 Y-39.34668
G01 X-115.99041 Y-39.39908
G01 X-116.16719 Y-39.43647
G01 X-116.36244 Y-39.47216
G01 X-116.67796 Y-39.51214
G01 X-116.73277 Y-39.64851
G01 X-116.77831 Y-39.77955
G01 X-116.81210 Y-39.89382
G01 X-116.84039 Y-40.00835
G01 X-116.86465 Y-40.13076
G01 X-116.88985 Y-40.32245
G01 X-116.89736 Y-40.43164
G01 X-116.89942 Y-40.57569
G01 X-116.88929 Y-40.76255
G01 X-116.87760 Y-40.86423
G01 X-116.85411 Y-41.00601
G01 X-116.80658 Y-41.20548
G01 X-116.74997 Y-41.38341
G01 X-116.74763 Y-45.17309
G01 X-116.73285 Y-45.34499
G01 X-116.70001 Y-45.53466
G01 X-116.66208 Y-45.68335
G01 X-116.63612 Y-45.76727
G01 X-116.57852 Y-45.92338
G01 X-116.48106 Y-45.94385
G01 X-116.26488 Y-46.00743
G01 X-116.13963 Y-46.05637
G01 X-115.99325 Y-46.12757
G01 X-115.88416 Y-46.19264
G01 X-115.77570 Y-46.26996
G01 X-115.68147 Y-46.34984
G01 X-115.53067 Y-46.49338
G01 X-115.41179 Y-46.57677
G01 X-115.26889 Y-46.64431
G01 X-115.11797 Y-46.68439
G01 X-114.94222 Y-46.69704
G01 X-112.79989 Y-46.69513
G01 X-112.12592 Y-46.66163
G01 X-111.89524 Y-46.65909
G01 X-111.81749 Y-46.58139
G01 X-111.69803 Y-46.47270
G01 X-111.51071 Y-46.32246
G01 X-111.40992 Y-46.25073
G01 X-111.27901 Y-46.16526
G01 X-111.07363 Y-46.04863
G01 X-109.09024 Y-44.06524
G01 X-109.04592 Y-43.82168
G01 X-108.97937 Y-43.55833
G01 X-108.82626 Y-43.19064
G01 X-108.74000 Y-43.01785
G01 X-108.64630 Y-42.86141
G01 X-108.58308 Y-42.76928
G01 X-108.50967 Y-42.67411
G01 X-108.42987 Y-42.58142
G01 X-108.34978 Y-42.49783
G01 X-108.27320 Y-42.42623
G01 X-108.10399 Y-42.28925
G01 X-107.98989 Y-42.21162
G01 X-107.88222 Y-42.14678
G01 X-107.74506 Y-42.07431
G01 X-107.53749 Y-41.98417
G01 X-107.33127 Y-41.91325
G01 X-107.16055 Y-41.93537
G01 X-106.96261 Y-41.97429
G01 X-106.79167 Y-42.01940
G01 X-106.58481 Y-42.08823
G01 X-106.37092 Y-42.17584
G01 X-106.14907 Y-42.28437
G01 X-106.00701 Y-42.36321
G01 X-105.77907 Y-42.50502
G01 X-105.59259 Y-42.46977
G01 X-105.39317 Y-42.44256
G01 X-104.46988 Y-42.06009
G01 X-104.37085 Y-42.01597
G01 X-104.24382 Y-41.95181
G01 X-104.06518 Y-41.84393
G01 X-103.97209 Y-41.77868
G01 X-103.76135 Y-41.61015
G01 X-101.06135 Y-38.91135
G01 X-100.88924 Y-38.82161
G01 X-100.73374 Y-38.72588
G01 X-100.55414 Y-38.59479
G01 X-100.42503 Y-38.48387
G01 X-100.30634 Y-38.36670
G01 X-100.17126 Y-38.21135
G01 X-100.04924 Y-38.04442
G01 X-99.94015 Y-37.86647
G01 X-99.94012 Y-36.24105
G01 X-100.16463 Y-36.15868
G01 X-100.31972 Y-36.11082
G01 X-100.57179 Y-36.14908
G01 X-100.66943 Y-36.16772
G01 X-100.88017 Y-36.21913
G01 X-101.01195 Y-36.25908
G01 X-101.15559 Y-36.31042
G01 X-101.35300 Y-36.39665
G01 X-101.50133 Y-36.47544
G01 X-101.65995 Y-36.57603
G01 X-101.78419 Y-36.66934
G01 X-101.90613 Y-36.77569
G01 X-102.03874 Y-36.91227
G01 X-102.15525 Y-37.05647
G01 X-102.25129 Y-37.19731
G01 X-102.31525 Y-37.30584
G01 X-102.40552 Y-37.48552
G01 X-102.55563 Y-37.63564
G01 X-102.63653 Y-37.79954
G01 X-102.72287 Y-37.94524
G01 X-102.79371 Y-38.04874
G01 X-102.84964 Y-38.12225
G01 X-102.94740 Y-38.23663
G01 X-103.01078 Y-38.30269
G01 X-103.09808 Y-38.38494
G01 X-103.20001 Y-38.46998
G01 X-103.30062 Y-38.54422
G01 X-103.41743 Y-38.61996
G01 X-103.58614 Y-38.71293
G01 X-103.71967 Y-38.77478
G01 X-103.86981 Y-38.83381
G01 X-104.05388 Y-38.89327
G01 X-104.11895 Y-39.06251
G01 X-104.19007 Y-39.20891
G01 X-104.25510 Y-39.31803
G01 X-104.33236 Y-39.42651
G01 X-104.45436 Y-39.56657
G01 X-104.63978 Y-39.75148
G01 X-104.74006 Y-39.83893
G01 X-104.85505 Y-39.92441
G01 X-104.96754 Y-39.94196
G01 X-105.15289 Y-39.95473
G01 X-105.91613 Y-39.95473
G01 X-105.99276 Y-39.95257
G01 X-106.08166 Y-39.94429
G01 X-106.20478 Y-39.92557
G01 X-106.34321 Y-39.89240
G01 X-106.46632 Y-39.85212
G01 X-106.63510 Y-39.78041
G01 X-106.75819 Y-39.71610
G01 X-106.91923 Y-39.61849
G01 X-107.09784 Y-39.65570
G01 X-107.23279 Y-39.67627
G01 X-107.36210 Y-39.68994
G01 X-107.50421 Y-39.69819
G01 X-107.71404 Y-39.69753
G01 X-108.24188 Y-39.67419
G01 X-108.60355 Y-39.66997
G01 X-108.96027 Y-39.67168
G01 X-109.17426 Y-39.37897
G01 X-109.24930 Y-39.10846
G01 X-109.29931 Y-38.86149
G01 X-109.31280 Y-38.78003
G01 X-109.22341 Y-38.18448
G01 X-109.49121 Y-37.76086
G01 X-109.63032 Y-37.50948
G01 X-109.75153 Y-37.25575
G01 X-109.90507 Y-37.00013
G01 X-109.92214 Y-36.81984
G01 X-109.92471 Y-36.75504
G01 X-109.92372 Y-36.46714
G01 X-109.91683 Y-36.36805
G01 X-109.90020 Y-36.24494
G01 X-109.86989 Y-36.10849
G01 X-109.83187 Y-35.98537
G01 X-109.76509 Y-35.82065
G01 X-109.71856 Y-35.72789
G01 X-109.53408 Y-35.59043
G01 X-109.42593 Y-35.52447
G01 X-109.21455 Y-35.41903
G01 X-109.09039 Y-35.36909
G01 X-108.95455 Y-35.32088
G01 X-108.90066 Y-35.23389
G01 X-108.79568 Y-35.07969
G01 X-108.64297 Y-34.88525
G01 X-108.52486 Y-34.75431
G01 X-108.46068 Y-34.68908
G01 X-108.33182 Y-34.56910
G01 X-108.25166 Y-34.50130
G01 X-108.02055 Y-34.44024
G01 X-107.85499 Y-34.40836
G01 X-107.68887 Y-34.38601
G01 X-107.45382 Y-34.37098
G01 X-107.29119 Y-34.37199
G01 X-107.05034 Y-34.39051
G01 X-106.88895 Y-34.41449
G01 X-106.68644 Y-34.45751
G01 X-106.60805 Y-34.40631
G01 X-106.41049 Y-34.29843
G01 X-106.28738 Y-34.24443
G01 X-106.13363 Y-34.19124
G01 X-106.01052 Y-34.16008
G01 X-105.87922 Y-34.13801
G01 X-105.69391 Y-34.12523
G01 X-103.36188 Y-34.12523
G01 X-103.26851 Y-34.12942
G01 X-103.14540 Y-34.14220
G01 X-103.01222 Y-34.16745
G01 X-102.88911 Y-34.20133
G01 X-102.73112 Y-34.25970
G01 X-102.60803 Y-34.31677
G01 X-102.42455 Y-34.41987
G01 X-102.37199 Y-34.49998
G01 X-102.38441 Y-34.55919
G01 X-102.44784 Y-34.77511
G01 X-102.49671 Y-34.90034
G01 X-102.56783 Y-35.04667
G01 X-102.63283 Y-35.15576
G01 X-102.71004 Y-35.26417
G01 X-102.78987 Y-35.35845
G01 X-103.63892 Y-36.21113
G01 X-103.72980 Y-36.29409
G01 X-103.81423 Y-36.35977
G01 X-103.82530 Y-36.36724
G01 X-104.11365 Y-36.44064
G01 X-104.27344 Y-36.50656
G01 X-104.37044 Y-36.56221
G01 X-104.44133 Y-36.60841
G01 X-104.54326 Y-36.69281
G01 X-104.62203 Y-36.77221
G01 X-104.70148 Y-36.86866
G01 X-104.72370 Y-36.90140
G01 X-104.79866 Y-37.02566
G01 X-104.86927 Y-37.19629
G01 X-104.91184 Y-37.37595
G01 X-104.92650 Y-37.55997
G01 X-104.92307 Y-37.62868
G01 X-104.91250 Y-37.74410
G01 X-104.87361 Y-37.90775
G01 X-104.83821 Y-38.00310
G01 X-104.79802 Y-38.09398
G01 X-104.70204 Y-38.25169
G01 X-104.58360 Y-38.39047
G01 X-104.29160 Y-38.65133
G01 X-104.05388 Y-38.89327
G04 P0 ( dwell for no time -- G64 should not smooth over this point )
G00 Z2.00000 ( retract )

G00 X-97.39956 Y-30.44495 ( rapid move to begin. )
G01 F100.00000
( Mill infeed pass 1/1 )
G01 Z-0.30000
G04 P0 ( dwell for no time -- G64 should not smooth over this point )
G01 F100.00000
G01 X-97.39956 Y-30.44495
G01 X-97.65768 Y-30.63014
G01 X-97.82748 Y-30.76514
G01 X-97.97721 Y-30.89074
G01 X-98.13598 Y-30.98800
G01 X-98.27998 Y-31.04916
G01 X-98.39725 Y-31.08277
G01 X-98.48589 Y-31.10217
G01 X-98.66997 Y-31.11617
G01 X-98.85407 Y-31.10230
G01 X-98.97136 Y-31.07596
G01 X-99.07116 Y-31.04510
G01 X-99.20423 Y-30.98851
G01 X-99.36169 Y-30.89204
G01 X-99.65719 Y-30.64858
G01 X-99.93982 Y-30.44553
G01 X-99.93994 Y-29.20136
G01 X-100.24914 Y-29.08643
G01 X-100.45719 Y-28.99733
G01 X-100.70303 Y-28.87944
G01 X-100.82719 Y-28.82801
G01 X-100.91507 Y-28.80243
G01 X-101.13567 Y-28.74871
G01 X-101.32104 Y-28.59113
G01 X-101.88528 Y-28.02689
G01 X-101.98894 Y-27.90988
G01 X-102.07461 Y-27.79461
G01 X-102.09216 Y-27.68244
G01 X-102.10509 Y-27.49669
G01 X-102.10517 Y-27.17602
G01 X-102.08850 Y-26.97526
G01 X-102.02897 Y-26.62715
G01 X-102.00715 Y-26.52075
G01 X-101.92107 Y-26.31476
G01 X-101.85782 Y-26.17572
G04 P0 ( dwell for no time -- G64 should not smooth over this point )
G00 Z2.00000 ( retract )

G00 X-101.02615 Y-23.51110 ( rapid move to begin. )
G01 F100.00000
( Mill infeed pass 1/1 )
G01 Z-0.30000
G04 P0 ( dwell for no time -- G64 should not smooth over this point )
G01 F100.00000
G01 X-101.02615 Y-23.51110
G01 X-100.94210 Y-23.45619
G01 X-100.74477 Y-23.34847
G01 X-100.62165 Y-23.29447
G01 X-100.46783 Y-23.24123
G01 X-100.34472 Y-23.21006
G01 X-100.21332 Y-23.18799
G01 X-100.02811 Y-23.17524
G01 X-92.86642 Y-23.17524
G01 X-92.74590 Y-23.18062
G01 X-92.64047 Y-23.19358
G01 X-92.51735 Y-23.21730
G01 X-92.37354 Y-23.25784
G01 X-92.25040 Y-23.30353
G01 X-92.07115 Y-23.38824
G01 X-91.88680 Y-23.49591
G01 X-91.92853 Y-23.67318
G01 X-91.96894 Y-23.80691
G01 X-92.03401 Y-23.97313
G01 X-92.09155 Y-24.08966
G01 X-92.21776 Y-24.30318
G01 X-92.27270 Y-24.40935
G01 X-92.30011 Y-24.46985
G01 X-92.34527 Y-24.64201
G01 X-92.35713 Y-24.80666
G01 X-92.35522 Y-26.27808
G01 X-92.37138 Y-26.48636
G01 X-92.39744 Y-26.62771
G01 X-92.43135 Y-26.75085
G01 X-92.48964 Y-26.90866
G01 X-92.54669 Y-27.03177
G01 X-92.60729 Y-27.14716
G04 P0 ( dwell for no time -- G64 should not smooth over this point )
G00 Z2.00000 ( retract )

G00 X-86.52054 Y-29.51815 ( rapid move to begin. )
G01 F100.00000
( Mill infeed pass 1/1 )
G01 Z-0.30000
G04 P0 ( dwell for no time -- G64 should not smooth over this point )
G01 F100.00000
G01 X-86.52054 Y-29.51815
G01 X-86.39130 Y-29.51978
G01 X-86.07149 Y-29.54226
G01 X-85.72082 Y-29.58287
G01 X-85.60901 Y-29.58475
G01 X-85.46593 Y-29.57185
G01 X-85.28635 Y-29.52913
G01 X-85.11564 Y-29.45874
G01 X-84.85994 Y-29.30482
G01 X-84.67985 Y-29.28780
G01 X-83.01285 Y-29.28523
G01 X-82.85687 Y-29.29466
G01 X-82.71503 Y-29.31554
G01 X-82.62314 Y-29.38264
G01 X-82.48303 Y-29.50467
G01 X-81.29205 Y-30.69565
G01 X-81.22901 Y-30.76461
G01 X-81.15098 Y-30.86070
G01 X-81.07463 Y-30.97273
G01 X-81.01153 Y-31.08378
G01 X-80.94115 Y-31.23664
G01 X-80.89444 Y-31.36407
G01 X-80.83251 Y-31.59242
G01 X-80.82380 Y-31.63885
G04 P0 ( dwell for no time -- G64 should not smooth over this point )
G00 Z2.00000 ( retract )

G00 X-88.50402 Y-35.88896 ( rapid move to begin. )
G01 F100.00000
( Mill infeed pass 1/1 )
G01 Z-0.30000
G04 P0 ( dwell for no time -- G64 should not smooth over this point )
G01 F100.00000
G01 X-88.50402 Y-35.88896
G01 X-88.61314 Y-35.68560
G01 X-88.65150 Y-35.60468
G01 X-88.70550 Y-35.48156
G01 X-88.75868 Y-35.32782
G01 X-88.78988 Y-35.20470
G01 X-88.81192 Y-35.07339
G01 X-88.82472 Y-34.88807
G01 X-88.82472 Y-33.13219
G01 X-88.82198 Y-33.04634
G01 X-88.81281 Y-32.95409
G01 X-88.79305 Y-32.83095
G01 X-88.75838 Y-32.69140
G01 X-88.71695 Y-32.56826
G01 X-88.64271 Y-32.39752
G01 X-88.58830 Y-32.29549
G04 P0 ( dwell for no time -- G64 should not smooth over this point )
G00 Z2.00000 ( retract )

G00 X-90.91029 Y-33.04149 ( rapid move to begin. )
G01 F100.00000
( Mill infeed pass 1/1 )
G01 Z-0.30000
G04 P0 ( dwell for no time -- G64 should not smooth over this point )
G01 F100.00000
G01 X-90.91029 Y-33.04149
G01 X-90.95845 Y-33.05056
G01 X-91.18601 Y-33.11230
G01 X-91.31342 Y-33.15904
G01 X-91.46587 Y-33.22925
G01 X-91.57689 Y-33.29234
G01 X-91.68116 Y-33.36252
G01 X-91.91994 Y-33.55680
G01 X-92.00298 Y-33.64710
G01 X-92.14854 Y-33.77166
G01 X-92.31430 Y-33.87235
G01 X-92.48034 Y-33.94022
G01 X-92.92982 Y-34.04319
G01 X-93.24725 Y-34.13430
G01 X-93.50968 Y-34.22457
G01 X-93.61135 Y-34.14918
G01 X-93.74793 Y-34.03765
G01 X-93.87597 Y-33.92023
G01 X-94.02670 Y-33.76940
G01 X-94.23007 Y-33.79061
G01 X-94.53691 Y-33.81593
G01 X-94.84912 Y-33.83354
G01 X-99.80690 Y-33.83470
G01 X-99.96308 Y-33.82528
G01 X-100.10492 Y-33.80440
G01 X-100.19684 Y-33.73727
G01 X-100.33733 Y-33.61489
G01 X-101.36125 Y-32.59089
G01 X-101.48325 Y-32.50100
G01 X-101.74713 Y-32.33146
G01 X-101.91550 Y-32.35772
G01 X-102.14273 Y-32.37471
G01 X-102.81720 Y-32.37471
G01 X-102.97247 Y-32.36575
G01 X-103.09132 Y-32.34827
G01 X-103.21443 Y-32.32061
G01 X-103.36341 Y-32.27354
G01 X-103.48652 Y-32.22346
G01 X-103.67514 Y-32.12701
G01 X-103.79823 Y-32.05119
G01 X-104.05787 Y-31.85808
G01 X-104.22246 Y-31.71380
G01 X-104.42175 Y-31.68208
G01 X-104.61824 Y-31.63997
G01 X-107.59954 Y-31.63997
G01 X-107.88933 Y-31.90314
G01 X-108.01244 Y-31.99816
G01 X-108.23469 Y-32.14345
G01 X-108.35778 Y-32.20941
G01 X-108.52336 Y-32.28183
G01 X-108.64650 Y-32.32353
G01 X-108.77000 Y-32.35538
G01 X-109.00317 Y-32.40456
G01 X-109.07221 Y-32.42821
G01 X-109.13101 Y-32.45101
G01 X-109.17231 Y-32.47243
G01 X-109.30810 Y-32.54941
G01 X-109.48948 Y-32.64527
G01 X-109.64178 Y-32.71020
G01 X-109.77223 Y-32.75383
G01 X-110.00421 Y-32.80966
G01 X-110.15445 Y-32.83356
G01 X-110.54325 Y-32.86046
G01 X-110.63987 Y-32.85973
G01 X-111.98376 Y-34.20562
G01 X-112.13436 Y-34.37534
G01 X-112.29204 Y-34.58248
G01 X-112.32313 Y-34.73955
G01 X-112.35046 Y-34.93285
G01 X-112.36572 Y-35.12294
G01 X-112.36992 Y-35.26983
G01 X-112.36956 Y-38.70452
G01 X-112.37713 Y-38.98156
G01 X-113.04743 Y-39.66248
G01 X-114.05244 Y-40.66743
G01 X-114.16181 Y-40.78442
G01 X-114.27616 Y-41.05572
G01 X-114.41601 Y-41.41681
G01 X-114.43295 Y-41.46459
G01 X-114.43473 Y-41.53903
G01 X-114.43491 Y-42.44576
G01 X-114.49496 Y-42.65534
G01 X-114.51865 Y-42.75704
G01 X-114.55299 Y-42.94563
G01 X-114.57905 Y-43.19224
G01 X-114.58462 Y-43.37355
G01 X-114.57791 Y-43.56308
G01 X-114.56702 Y-43.68508
G01 X-114.54926 Y-43.82028
G01 X-114.52643 Y-43.94665
G01 X-114.47707 Y-44.15203
G01 X-114.44337 Y-44.26636
G01 X-114.36902 Y-44.47903
G01 X-114.23826 Y-44.53334
G01 X-114.07718 Y-44.59140
G01 X-113.85213 Y-44.65731
G01 X-113.63466 Y-44.70349
G01 X-113.51266 Y-44.72186
G01 X-113.36968 Y-44.73679
G01 X-113.25597 Y-44.74322
G01 X-113.09564 Y-44.67776
G01 X-112.91998 Y-44.59227
G01 X-112.78787 Y-44.51675
G01 X-112.64779 Y-44.42422
G01 X-112.54223 Y-44.34449
G01 X-112.41988 Y-44.23923
G01 X-112.32562 Y-44.14708
G01 X-112.21795 Y-44.02739
G01 X-112.13540 Y-43.92285
G01 X-112.03387 Y-43.77522
G01 X-111.96552 Y-43.66080
G01 X-111.91190 Y-43.56036
G01 X-111.83446 Y-43.39344
G01 X-111.79174 Y-43.28714
G01 X-111.74762 Y-43.16260
G01 X-111.70954 Y-43.03972
G01 X-111.65798 Y-42.83842
G01 X-111.62272 Y-42.66423
G01 X-111.59356 Y-42.47853
G01 X-111.57792 Y-42.35061
G01 X-111.54264 Y-42.26545
G01 X-111.35612 Y-42.23014
G01 X-111.11516 Y-42.17129
G01 X-110.91627 Y-42.11008
G01 X-110.82082 Y-42.07612
G01 X-110.73222 Y-42.04160
G01 X-110.55199 Y-41.96192
G01 X-110.45628 Y-41.91381
G01 X-110.15415 Y-41.74731
G01 X-110.08849 Y-41.70025
G01 X-109.94564 Y-41.58630
G01 X-109.81488 Y-41.46644
G01 X-109.69949 Y-41.34533
G01 X-109.62659 Y-41.26006
G01 X-109.52275 Y-41.12458
G01 X-109.44173 Y-41.00502
G01 X-109.37523 Y-40.89557
G01 X-109.28696 Y-40.73035
G01 X-109.22613 Y-40.59959
G01 X-109.16400 Y-40.44747
G01 X-109.11143 Y-40.29888
G01 X-109.06225 Y-40.13703
G01 X-109.01724 Y-39.96070
G01 X-108.96027 Y-39.67168
G01 X-109.17426 Y-39.37897
G01 X-109.24930 Y-39.10846
G01 X-109.29931 Y-38.86149
G01 X-109.31280 Y-38.78003
G01 X-109.22341 Y-38.18448
G01 X-108.89476 Y-37.90539
G01 X-108.69113 Y-37.71435
G01 X-108.50906 Y-37.52367
G01 X-108.29982 Y-37.28309
G01 X-108.28265 Y-37.18248
G01 X-108.26962 Y-37.05934
G01 X-108.26543 Y-36.98075
G01 X-108.26522 Y-36.82319
G01 X-108.28486 Y-36.57984
G01 X-108.43815 Y-36.32403
G01 X-108.60124 Y-35.95629
G01 X-108.72148 Y-35.72218
G01 X-108.95455 Y-35.32088
G04 P0 ( dwell for no time -- G64 should not smooth over this point )
G00 Z2.00000 ( retract )

G00 X-116.67796 Y-39.51214 ( rapid move to begin. )
G01 F100.00000
( Mill infeed pass 1/1 )
G01 Z-0.30000
G04 P0 ( dwell for no time -- G64 should not smooth over this point )
G01 F100.00000
G01 X-116.67796 Y-39.51214
G01 X-116.74146 Y-39.38681
G01 X-116.79548 Y-39.26368
G01 X-116.84870 Y-39.10988
G01 X-116.87989 Y-38.98676
G01 X-116.90196 Y-38.85537
G01 X-116.91471 Y-38.67015
G01 X-116.91471 Y-31.66288
G01 X-116.90529 Y-31.50687
G01 X-116.88441 Y-31.36504
G01 X-116.81730 Y-31.27317
G01 X-116.69528 Y-31.13306
G01 X-116.14763 Y-30.58541
G01 X-116.08489 Y-30.52656
G01 X-116.01327 Y-30.46788
G01 X-115.91222 Y-30.39481
G01 X-115.78901 Y-30.32061
G01 X-115.67268 Y-30.26286
G01 X-115.49940 Y-30.19461
G01 X-115.36346 Y-30.15320
G01 X-115.26483 Y-29.94226
G01 X-115.19666 Y-29.81841
G01 X-115.12513 Y-29.70291
G01 X-115.05050 Y-29.59517
G01 X-114.97230 Y-29.49377
G01 X-114.89059 Y-29.39832
G01 X-114.80481 Y-29.30792
G01 X-114.70524 Y-29.21371
G01 X-114.60768 Y-29.13078
G01 X-114.45256 Y-29.01544
G01 X-114.37461 Y-28.96395
G01 X-114.24383 Y-28.88610
G01 X-114.08266 Y-28.80266
G01 X-112.48996 Y-27.20998
G01 X-112.41378 Y-27.12926
G01 X-112.28127 Y-26.96743
G01 X-112.20667 Y-26.86058
G01 X-112.14459 Y-26.76040
G01 X-112.05348 Y-26.58923
G01 X-111.92727 Y-26.29515
G01 X-111.79468 Y-26.27554
G01 X-111.54022 Y-26.21732
G01 X-111.40858 Y-26.17483
G01 X-111.24175 Y-26.10587
G01 X-111.12702 Y-26.04651
G01 X-111.00746 Y-25.97180
G01 X-110.90789 Y-25.89726
G01 X-110.84193 Y-25.84178
G01 X-106.90203 Y-21.90430
G01 X-106.78001 Y-21.76419
G01 X-106.70277 Y-21.65576
G01 X-106.61082 Y-21.51545
G01 X-106.36749 Y-21.11997
G01 X-106.07005 Y-20.61416
G01 X-105.77938 Y-20.05554
G01 X-105.65626 Y-19.78988
G01 X-105.39416 Y-19.17611
G01 X-105.32937 Y-19.00050
G04 P0 ( dwell for no time -- G64 should not smooth over this point )
G00 Z2.00000 ( retract )

G00 X-111.92727 Y-26.29515 ( rapid move to begin. )
G01 F100.00000
( Mill infeed pass 1/1 )
G01 Z-0.30000
G04 P0 ( dwell for no time -- G64 should not smooth over this point )
G01 F100.00000
G01 X-111.92727 Y-26.29515
G01 X-112.01538 Y-26.13238
G01 X-112.05203 Y-25.80655
G01 X-112.06191 Y-25.68006
G01 X-112.07403 Y-25.43434
G01 X-112.07225 Y-25.27084
G01 X-112.07604 Y-25.16911
G01 X-112.08833 Y-25.03521
G01 X-112.10253 Y-24.96599
G01 X-112.13075 Y-24.85631
G01 X-112.20118 Y-24.68560
G01 X-112.29791 Y-24.52825
G01 X-112.36915 Y-24.44199
G01 X-112.41795 Y-24.38794
G01 X-112.54662 Y-24.27699
G01 X-112.60555 Y-24.23698
G01 X-112.71561 Y-24.17122
G01 X-112.88630 Y-24.10066
G01 X-113.06588 Y-24.05779
G01 X-113.24995 Y-24.04326
G01 X-113.43405 Y-24.05766
G01 X-113.61337 Y-24.10158
G01 X-113.78426 Y-24.17140
G01 X-113.94118 Y-24.26863
G01 X-114.05775 Y-24.36543
G01 X-114.12851 Y-24.43937
G01 X-114.20131 Y-24.52878
G01 X-114.29877 Y-24.68560
G01 X-114.36834 Y-24.85659
G01 X-114.41141 Y-25.03602
G01 X-114.42234 Y-25.14166
G01 X-114.42518 Y-25.25349
G01 X-114.41197 Y-25.40399
G01 X-114.36928 Y-25.58364
G01 X-114.27093 Y-25.84493
G01 X-114.20849 Y-26.03302
G01 X-114.20974 Y-26.05242
G01 X-114.30651 Y-26.21943
G01 X-114.38373 Y-26.32786
G01 X-114.50578 Y-26.46799
G01 X-118.10671 Y-30.06875
G01 X-118.26071 Y-30.19900
G01 X-118.37272 Y-30.27533
G01 X-118.56909 Y-30.38632
G01 X-118.91135 Y-30.56364
G01 X-119.14638 Y-30.67731
G01 X-119.53988 Y-30.87621
G01 X-119.96360 Y-31.07245
G01 X-120.24432 Y-31.19559
G01 X-120.89890 Y-31.45869
G01 X-120.99949 Y-31.49331
G04 P0 ( dwell for no time -- G64 should not smooth over this point )
G00 Z2.00000 ( retract )

G00 X-110.63987 Y-32.85973 ( rapid move to begin. )
G01 F100.00000
( Mill infeed pass 1/1 )
G01 Z-0.30000
G04 P0 ( dwell for no time -- G64 should not smooth over this point )
G01 F100.00000
G01 X-110.63987 Y-32.85973
G01 X-110.63926 Y-32.78208
G01 X-110.60622 Y-32.39221
G01 X-110.58031 Y-32.24398
G01 X-110.51942 Y-32.00710
G01 X-110.47411 Y-31.87832
G01 X-110.40393 Y-31.72046
G01 X-110.34206 Y-31.60822
G01 X-110.26603 Y-31.49343
G01 X-110.13459 Y-31.33181
G01 X-110.07891 Y-31.25617
G01 X-109.91145 Y-31.01015
G01 X-109.85529 Y-30.96458
G01 X-109.75849 Y-30.94007
G01 X-109.62720 Y-30.91800
G01 X-109.50406 Y-30.90779
G01 X-109.07780 Y-30.90525
G01 X-108.88943 Y-30.91878
G01 X-108.75776 Y-30.94147
G01 X-108.63464 Y-30.97319
G01 X-108.48003 Y-31.02740
G01 X-108.35692 Y-31.08201
G01 X-108.15806 Y-31.19166
G01 X-108.03492 Y-31.27281
G01 X-107.75618 Y-31.49407
G01 X-107.59954 Y-31.63997
G04 P0 ( dwell for no time -- G64 should not smooth over this point )
G00 Z2.00000 ( retract )

G00 X-106.68644 Y-34.45751 ( rapid move to begin. )
G01 F100.00000
( Mill infeed pass 1/1 )
G01 Z-0.30000
G04 P0 ( dwell for no time -- G64 should not smooth over this point )
G01 F100.00000
G01 X-106.68644 Y-34.45751
G01 X-106.59926 Y-34.69744
G01 X-106.51887 Y-34.89101
G01 X-106.41166 Y-35.11974
G01 X-106.34547 Y-35.24679
G01 X-106.27122 Y-35.42647
G01 X-106.22820 Y-35.60597
G01 X-106.21773 Y-35.70928
G01 X-106.21410 Y-35.81090
G01 X-106.22743 Y-35.97410
G01 X-106.27104 Y-36.15352
G01 X-106.34178 Y-36.32406
G01 X-106.49330 Y-36.58006
G01 X-106.50912 Y-36.69937
G01 X-106.51473 Y-36.82230
G01 X-106.51265 Y-37.72827
G01 X-106.50607 Y-37.81725
G01 X-106.47440 Y-37.92974
G01 X-106.43696 Y-38.09045
G01 X-106.42291 Y-38.26998
G01 X-106.43742 Y-38.45413
G01 X-106.48098 Y-38.63355
G01 X-106.50437 Y-38.69535
G01 X-106.55149 Y-38.80414
G01 X-106.68943 Y-39.06921
G01 X-106.76520 Y-39.23650
G01 X-106.80206 Y-39.32029
G01 X-106.91923 Y-39.61849
G04 P0 ( dwell for no time -- G64 should not smooth over this point )
G00 Z2.00000 ( retract )

G00 X-102.52101 Y-43.56384 ( rapid move to begin. )
G01 F100.00000
( Mill infeed pass 1/1 )
G01 Z-0.30000
G04 P0 ( dwell for no time -- G64 should not smooth over this point )
G01 F100.00000
G01 X-102.52101 Y-43.56384
G01 X-102.56780 Y-43.57266
G01 X-102.79577 Y-43.63446
G01 X-102.92317 Y-43.68114
G01 X-103.07616 Y-43.75158
G01 X-103.18718 Y-43.81467
G01 X-103.29927 Y-43.89105
G01 X-103.39536 Y-43.96908
G01 X-103.45289 Y-44.02092
G01 X-103.67326 Y-44.24472
G01 X-103.78888 Y-44.38452
G01 X-103.85246 Y-44.64334
G01 X-103.88611 Y-44.73928
G01 X-103.93191 Y-44.84406
G01 X-104.07130 Y-45.10451
G01 X-104.07758 Y-45.27855
G01 X-104.07006 Y-45.41218
G01 X-104.05807 Y-45.49813
G01 X-103.96168 Y-45.64073
G01 X-103.83717 Y-45.78497
G01 X-103.46427 Y-46.15787
G01 X-103.32421 Y-46.27987
G01 X-103.21576 Y-46.35711
G01 X-103.04794 Y-46.45431
G01 X-102.78187 Y-46.47621
G01 X-102.43046 Y-46.48543
G04 P0 ( dwell for no time -- G64 should not smooth over this point )
G00 Z2.00000 ( retract )

G00 X-100.14375 Y-48.57956 ( rapid move to begin. )
G01 F100.00000
( Mill infeed pass 1/1 )
G01 Z-0.30000
G04 P0 ( dwell for no time -- G64 should not smooth over this point )
G01 F100.00000
G01 X-100.14375 Y-48.57956
G01 X-100.17291 Y-48.61817
G01 X-100.29354 Y-48.80691
G01 X-100.40542 Y-49.01926
G01 X-100.55709 Y-49.32967
G01 X-100.65231 Y-49.45987
G01 X-101.78774 Y-50.59512
G01 X-101.91017 Y-50.73561
G01 X-101.98746 Y-50.84409
G01 X-102.05249 Y-50.95319
G01 X-102.12368 Y-51.09962
G01 X-102.17258 Y-51.22487
G01 X-102.23608 Y-51.44099
G01 X-102.25655 Y-51.53851
G04 P0 ( dwell for no time -- G64 should not smooth over this point )
G00 Z2.00000 ( retract )

G00 X-103.29310 Y-49.18761 ( rapid move to begin. )
G01 F100.00000
( Mill infeed pass 1/1 )
G01 Z-0.30000
G04 P0 ( dwell for no time -- G64 should not smooth over this point )
G01 F100.00000
G01 X-103.29310 Y-49.18761
G01 X-103.40206 Y-49.07270
G01 X-103.59526 Y-48.88024
G01 X-103.75246 Y-48.73889
G01 X-103.98070 Y-48.54382
G01 X-104.10222 Y-48.40181
G01 X-104.19868 Y-48.24430
G01 X-104.26272 Y-48.09139
G01 X-104.34395 Y-47.78345
G01 X-104.41585 Y-47.68982
G01 X-104.49881 Y-47.59891
G01 X-105.58128 Y-46.51903
G01 X-105.69599 Y-46.38728
G01 X-105.77417 Y-46.25155
G01 X-105.82510 Y-46.11439
G01 X-105.85304 Y-45.95856
G01 X-105.85763 Y-45.77961
G01 X-105.86785 Y-45.65650
G01 X-105.88994 Y-45.52518
G01 X-105.92116 Y-45.40207
G01 X-105.97442 Y-45.24825
G01 X-106.01631 Y-45.15279
G01 X-106.15197 Y-45.01667
G01 X-106.41458 Y-44.77713
G01 X-106.43541 Y-44.46806
G01 X-106.43929 Y-44.35622
G01 X-106.43546 Y-44.15617
G01 X-105.77907 Y-42.50502
G01 X-106.43546 Y-44.15617
G01 X-106.43929 Y-44.35622
G01 X-106.43541 Y-44.46806
G01 X-106.41458 Y-44.77713
G01 X-106.70340 Y-44.97626
G01 X-106.93594 Y-45.14454
G01 X-107.06533 Y-45.24898
G01 X-107.12324 Y-45.30118
G01 X-109.46332 Y-47.64474
G01 X-109.57886 Y-47.78449
G01 X-109.65118 Y-48.07336
G01 X-109.72189 Y-48.24402
G01 X-109.87330 Y-48.50008
G01 X-109.88910 Y-48.61936
G01 X-109.89471 Y-48.74230
G01 X-109.89471 Y-49.21547
G01 X-109.88196 Y-49.40071
G01 X-109.85989 Y-49.53211
G01 X-109.82870 Y-49.65522
G01 X-109.77548 Y-49.80904
G01 X-109.76438 Y-49.83437
G01 X-109.66659 Y-49.87249
G01 X-109.52016 Y-49.91641
G01 X-109.39705 Y-49.94224
G01 X-109.28463 Y-49.95751
G01 X-109.14546 Y-49.96472
G01 X-104.35053 Y-49.96472
G01 X-104.16523 Y-49.95192
G01 X-104.03391 Y-49.92987
G01 X-103.91080 Y-49.89868
G01 X-103.75698 Y-49.84547
G01 X-103.69343 Y-49.81758
G01 X-103.65220 Y-49.77460
G01 X-103.54126 Y-49.63780
G01 X-103.47057 Y-49.53434
G01 X-103.37100 Y-49.35837
G01 X-103.29310 Y-49.18761
G01 X-103.05142 Y-49.08921
G01 X-102.89069 Y-49.00971
G01 X-102.74088 Y-48.92330
G01 X-102.59485 Y-48.82578
G01 X-102.46785 Y-48.72805
G01 X-102.34197 Y-48.61728
G01 X-102.23123 Y-48.50569
G01 X-102.22648 Y-48.50033
G01 X-102.17476 Y-48.34600
G01 X-102.14692 Y-48.24430
G01 X-102.11581 Y-48.10039
G01 X-102.09092 Y-47.92434
G01 X-102.08157 Y-47.78629
G01 X-102.08050 Y-47.67445
G01 X-102.08975 Y-47.50659
G01 X-102.11464 Y-47.32538
G01 X-102.14906 Y-47.16648
G01 X-102.17669 Y-47.06699
G01 X-102.24461 Y-46.87090
G01 X-102.28507 Y-46.77329
G01 X-102.35010 Y-46.63534
G01 X-102.43046 Y-46.48543
G01 X-102.37667 Y-46.38180
G01 X-102.31962 Y-46.25868
G01 X-102.26135 Y-46.10092
G01 X-102.22742 Y-45.97778
G01 X-102.20217 Y-45.84446
G01 X-102.18535 Y-45.64365
G01 X-102.18518 Y-44.56199
G01 X-102.19798 Y-44.37654
G01 X-102.22002 Y-44.24523
G01 X-102.25122 Y-44.12211
G01 X-102.30440 Y-43.96834
G01 X-102.35840 Y-43.84523
G01 X-102.46628 Y-43.64766
G01 X-102.52101 Y-43.56384
G01 X-102.44878 Y-43.38945
G01 X-102.31530 Y-43.11434
G01 X-102.25063 Y-43.00154
G01 X-102.17654 Y-42.88942
G01 X-102.10644 Y-42.79689
G01 X-101.99087 Y-42.66644
G01 X-98.00746 Y-38.68247
G01 X-97.90959 Y-38.57587
G01 X-97.85308 Y-38.50670
G01 X-97.78965 Y-38.44630
G01 X-97.67365 Y-38.32273
G01 X-97.58092 Y-38.21052
G01 X-97.52544 Y-38.13658
G01 X-97.44035 Y-38.01148
G01 X-97.41836 Y-37.86350
G01 X-97.40228 Y-37.66233
G01 X-97.40058 Y-37.51689
G01 X-97.40378 Y-37.42535
G01 X-97.41572 Y-37.27940
G01 X-97.43632 Y-37.13196
G01 X-97.46601 Y-36.98199
G01 X-97.50568 Y-36.82820
G01 X-97.55328 Y-36.66739
G01 X-97.59616 Y-36.48301
G01 X-97.61544 Y-36.37788
G01 X-97.64744 Y-36.15103
G01 X-97.76740 Y-36.11466
G01 X-97.96088 Y-36.06513
G01 X-98.18008 Y-36.02358
G01 X-98.41960 Y-35.99551
G01 X-98.53395 Y-35.98840
G01 X-98.75935 Y-35.98682
G01 X-99.00131 Y-36.00300
G01 X-99.12331 Y-36.01819
G01 X-99.35462 Y-36.05990
G01 X-99.60314 Y-36.12388
G01 X-99.74573 Y-36.16937
G01 X-99.94012 Y-36.24105
G01 X-99.74573 Y-36.16937
G01 X-99.60314 Y-36.12388
G01 X-99.35462 Y-36.05990
G01 X-99.12331 Y-36.01819
G01 X-98.88130 Y-35.99264
G01 X-98.75935 Y-35.98682
G01 X-98.53395 Y-35.98840
G01 X-98.29763 Y-36.00757
G01 X-98.18008 Y-36.02358
G01 X-97.96088 Y-36.06513
G01 X-97.76740 Y-36.11466
G01 X-97.64744 Y-36.15103
G01 X-97.28872 Y-36.02650
G01 X-97.10934 Y-35.99536
G01 X-96.92997 Y-35.98497
G01 X-95.32809 Y-35.98499
G01 X-95.07457 Y-36.11870
G01 X-94.86109 Y-36.29243
G01 X-94.68763 Y-36.50620
G01 X-94.55418 Y-36.75997
G01 X-94.40843 Y-37.11186
G01 X-94.44689 Y-37.32223
G01 X-94.47183 Y-37.53109
G01 X-94.81516 Y-38.35999
G01 X-94.90388 Y-38.52868
G01 X-95.01925 Y-38.67071
G01 X-95.16129 Y-38.78608
G01 X-95.32999 Y-38.87480
G01 X-95.42357 Y-38.91356
G01 X-95.46642 Y-38.95641
G01 X-95.66748 Y-39.04112
G01 X-95.74465 Y-39.07775
G01 X-95.86870 Y-39.14554
G01 X-96.02011 Y-39.24651
G01 X-96.16751 Y-39.36931
G01 X-99.42994 Y-42.62994
G01 X-99.51289 Y-42.71970
G01 X-99.60962 Y-42.84226
G01 X-99.70542 Y-42.99057
G01 X-99.74792 Y-43.06786
G01 X-99.81985 Y-43.21988
G01 X-100.06991 Y-43.82361
G01 X-100.06997 Y-47.01700
G01 X-100.13192 Y-47.23181
G01 X-100.17197 Y-47.41545
G01 X-100.19948 Y-47.59546
G01 X-100.20987 Y-47.69714
G01 X-100.21906 Y-47.87478
G01 X-100.21695 Y-48.05142
G01 X-100.20654 Y-48.20087
G01 X-100.17550 Y-48.42584
G01 X-100.14375 Y-48.57956
G01 X-99.89918 Y-48.68710
G01 X-99.71104 Y-48.78106
G01 X-99.36418 Y-48.97839
G01 X-99.19367 Y-49.04928
G01 X-99.01404 Y-49.09208
G01 X-98.82999 Y-49.10681
G01 X-98.64591 Y-49.09208
G01 X-98.46621 Y-49.04941
G01 X-98.35915 Y-49.00651
G01 X-98.24998 Y-48.95210
G01 X-98.13494 Y-48.87879
G01 X-97.99133 Y-48.77539
G01 X-97.88450 Y-48.63015
G01 X-97.78066 Y-48.46297
G01 X-97.66133 Y-48.20239
G01 X-97.62331 Y-48.12807
G01 X-97.49453 Y-47.89272
G01 X-97.38618 Y-47.71489
G04 P0 ( dwell for no time -- G64 should not smooth over this point )
G00 Z2.00000 ( retract )

G00 X-95.27945 Y-46.05332 ( rapid move to begin. )
G01 F100.00000
( Mill infeed pass 1/1 )
G01 Z-0.30000
G04 P0 ( dwell for no time -- G64 should not smooth over this point )
G01 F100.00000
G01 X-95.27945 Y-46.05332
G01 X-95.11445 Y-45.92310
G01 X-94.74630 Y-45.64916
G01 X-94.51567 Y-45.49447
G01 X-94.03035 Y-45.20491
G01 X-93.84984 Y-45.18779
G01 X-93.56894 Y-45.18523
G01 X-93.40211 Y-45.19557
G01 X-93.29464 Y-45.21111
G01 X-93.07971 Y-45.35571
G01 X-92.86914 Y-45.47847
G01 X-92.62393 Y-45.53146
G01 X-92.43998 Y-45.54598
G01 X-92.34659 Y-45.54118
G01 X-92.23554 Y-45.52810
G01 X-92.07636 Y-45.48906
G01 X-91.99675 Y-45.45805
G01 X-91.88588 Y-45.40715
G01 X-91.74834 Y-45.32193
G01 X-91.67875 Y-45.26488
G01 X-91.58944 Y-45.18180
G01 X-91.48786 Y-45.06171
G01 X-91.39145 Y-44.90423
G01 X-91.32053 Y-44.73372
G01 X-91.29261 Y-44.62323
G01 X-91.27229 Y-44.50293
G01 X-91.26290 Y-44.36999
G01 X-91.27778 Y-44.18696
G01 X-91.32340 Y-43.99892
G01 X-91.39145 Y-43.83573
G01 X-91.45782 Y-43.72430
G01 X-91.48804 Y-43.67832
G01 X-91.60765 Y-43.53768
G01 X-91.75500 Y-43.41274
G01 X-91.86706 Y-43.33644
G01 X-92.05494 Y-43.19567
G01 X-92.36833 Y-42.93001
G04 P0 ( dwell for no time -- G64 should not smooth over this point )
G00 Z2.00000 ( retract )

G00 X-87.71033 Y-42.90670 ( rapid move to begin. )
G01 F100.00000
( Mill infeed pass 1/1 )
G01 Z-0.30000
G04 P0 ( dwell for no time -- G64 should not smooth over this point )
G01 F100.00000
G01 X-87.71033 Y-42.90670
G01 X-87.95091 Y-43.19989
G01 X-88.06422 Y-43.32638
G01 X-88.28551 Y-43.55300
G01 X-88.39216 Y-43.67901
G01 X-88.48790 Y-43.83603
G01 X-88.53384 Y-43.94068
G01 X-88.56750 Y-44.03661
G01 X-88.60237 Y-44.18587
G01 X-88.61705 Y-44.36999
G01 X-88.60849 Y-44.49539
G01 X-88.60207 Y-44.55404
G01 X-88.55866 Y-44.73346
G01 X-88.48558 Y-44.90994
G01 X-88.40705 Y-45.05348
G01 X-88.31502 Y-45.23740
G01 X-88.18609 Y-45.53382
G01 X-88.11436 Y-45.72538
G01 X-88.20354 Y-45.78365
G01 X-88.40108 Y-45.89150
G01 X-88.52419 Y-45.94550
G01 X-88.67794 Y-45.99869
G01 X-88.80105 Y-46.02988
G01 X-88.93237 Y-46.05193
G01 X-89.11769 Y-46.06473
G01 X-89.31967 Y-46.06732
G01 X-89.41025 Y-46.08134
G01 X-89.48848 Y-46.10024
G01 X-89.58203 Y-46.13377
G01 X-89.61162 Y-46.14563
G01 X-89.70892 Y-46.20069
G01 X-89.74644 Y-46.22424
G01 X-89.78370 Y-46.25424
G01 X-89.87976 Y-46.33943
G01 X-91.33668 Y-47.79747
G01 X-91.41629 Y-47.88517
G01 X-91.51410 Y-48.00846
G01 X-91.67125 Y-48.19292
G01 X-91.80000 Y-48.33638
G01 X-92.02949 Y-48.29368
G01 X-92.47681 Y-48.20039
G01 X-92.68718 Y-48.40953
G01 X-92.80358 Y-48.53676
G01 X-92.99596 Y-48.76066
G01 X-93.13818 Y-48.88215
G01 X-93.29568 Y-48.97857
G01 X-93.41443 Y-49.02921
G01 X-93.46635 Y-49.04910
G01 X-93.75522 Y-49.12309
G01 X-93.76566 Y-49.13013
G01 X-93.85014 Y-49.19586
G01 X-93.94105 Y-49.27882
G01 X-98.01084 Y-53.35130
G01 X-98.13449 Y-53.45948
G01 X-98.21993 Y-53.51214
G01 X-98.26870 Y-53.53939
G01 X-98.42623 Y-53.59781
G01 X-98.59605 Y-53.62519
G01 X-101.36519 Y-53.62519
G01 X-101.55081 Y-53.63799
G01 X-101.68210 Y-53.66004
G01 X-101.80522 Y-53.69123
G01 X-101.95899 Y-53.74442
G01 X-102.08210 Y-53.79842
G01 X-102.18203 Y-53.84767
G01 X-102.15553 Y-53.96070
G01 X-102.13085 Y-54.10599
G01 X-102.11784 Y-54.23413
G01 X-102.11395 Y-54.32786
G01 X-102.11535 Y-55.99082
G01 X-102.12051 Y-56.03344
G01 X-102.14873 Y-56.11912
G01 X-102.19462 Y-56.19351
G01 X-102.25642 Y-56.25531
G01 X-102.33084 Y-56.30121
G01 X-102.41649 Y-56.32943
G01 X-102.45911 Y-56.33458
G01 X-104.12083 Y-56.33458
G01 X-104.16345 Y-56.32943
G01 X-104.24910 Y-56.30121
G01 X-104.32353 Y-56.25531
G01 X-104.38532 Y-56.19351
G01 X-104.43122 Y-56.11912
G01 X-104.45944 Y-56.03344
G01 X-104.46523 Y-55.95998
G01 X-104.46630 Y-54.31203
G01 X-104.45863 Y-54.18592
G01 X-104.43607 Y-54.02321
G01 X-104.39978 Y-53.84820
G01 X-104.57018 Y-53.76550
G01 X-104.69330 Y-53.71744
G01 X-104.83981 Y-53.67350
G01 X-104.96292 Y-53.64770
G01 X-105.07531 Y-53.63240
G01 X-105.21446 Y-53.62522
G01 X-109.15229 Y-53.62522
G01 X-109.33761 Y-53.63799
G01 X-109.46891 Y-53.66007
G01 X-109.59202 Y-53.69123
G01 X-109.74577 Y-53.74442
G01 X-109.86888 Y-53.79842
G01 X-110.09771 Y-53.92671
G01 X-110.33243 Y-53.86669
G01 X-110.51038 Y-53.83461
G01 X-110.70365 Y-53.81300
G01 X-110.82493 Y-53.80647
G01 X-110.94558 Y-53.80538
G01 X-111.14089 Y-53.81508
G01 X-111.37617 Y-53.84531
G01 X-111.58696 Y-53.88983
G01 X-111.81002 Y-53.95496
G01 X-112.16308 Y-53.95247
G01 X-112.38924 Y-53.93228
G01 X-112.58203 Y-53.89811
G01 X-112.77139 Y-53.84940
G01 X-112.96753 Y-53.78361
G01 X-113.16659 Y-53.70325
G01 X-114.14032 Y-52.72951
G01 X-114.36163 Y-52.59230
G01 X-114.62503 Y-52.55570
G01 X-114.76897 Y-52.52557
G01 X-114.98510 Y-52.46210
G01 X-115.11032 Y-52.41323
G01 X-115.25663 Y-52.34214
G01 X-115.36574 Y-52.27714
G01 X-115.47423 Y-52.19982
G01 X-115.61428 Y-52.07787
G01 X-116.69528 Y-50.99685
G01 X-116.79891 Y-50.87988
G01 X-116.88441 Y-50.76487
G01 X-116.90196 Y-50.65232
G01 X-116.91471 Y-50.46706
G01 X-116.91456 Y-46.90638
G01 X-116.91052 Y-46.82853
G01 X-116.89774 Y-46.70542
G01 X-116.87250 Y-46.57225
G01 X-116.83861 Y-46.44913
G01 X-116.78027 Y-46.29125
G01 X-116.72322 Y-46.16811
G01 X-116.60570 Y-45.96313
G01 X-116.57852 Y-45.92338
G04 P0 ( dwell for no time -- G64 should not smooth over this point )
G00 Z2.00000 ( retract )

G00 X-120.99949 Y-50.63508 ( rapid move to begin. )
G01 F100.00000
( Mill infeed pass 1/1 )
G01 Z-0.30000
G04 P0 ( dwell for no time -- G64 should not smooth over this point )
G01 F100.00000
G01 X-120.99949 Y-50.63508
G01 X-120.58613 Y-50.78755
G01 X-120.04887 Y-51.01692
G01 X-119.69784 Y-51.18029
G01 X-119.34178 Y-51.35128
G01 X-119.13894 Y-51.45570
G01 X-118.90145 Y-51.57150
G01 X-118.50648 Y-51.77696
G01 X-118.34412 Y-51.87279
G01 X-118.23569 Y-51.95004
G01 X-118.09553 Y-52.07213
G01 X-114.37608 Y-55.79285
G01 X-114.30540 Y-55.85173
G01 X-114.19965 Y-55.92384
G01 X-114.10855 Y-55.96750
G01 X-114.05233 Y-55.98952
G01 X-113.92973 Y-56.02214
G01 X-113.74116 Y-56.03684
G01 X-111.94228 Y-56.03519
G01 X-111.81937 Y-56.04081
G01 X-111.70027 Y-56.05658
G01 X-111.44409 Y-56.20819
G01 X-111.27350 Y-56.27881
G01 X-111.09410 Y-56.32254
G01 X-110.93842 Y-56.33550
G01 X-110.78673 Y-56.32864
G01 X-110.67617 Y-56.31180
G01 X-110.54660 Y-56.27837
G01 X-110.37607 Y-56.20781
G01 X-110.21871 Y-56.11144
G01 X-110.14879 Y-56.05490
G01 X-110.05948 Y-55.97182
G01 X-109.95839 Y-55.85132
G01 X-109.86156 Y-55.69415
G01 X-109.83736 Y-55.63994
G01 X-109.79080 Y-55.52361
G01 X-109.74757 Y-55.34409
G01 X-109.73439 Y-55.18630
G01 X-109.73459 Y-55.13121
G01 X-109.74742 Y-54.97584
G01 X-109.78056 Y-54.83416
G01 X-109.79057 Y-54.79626
G01 X-109.93469 Y-54.44256
G01 X-109.96075 Y-54.36928
G01 X-110.04228 Y-54.12717
G01 X-110.09771 Y-53.92671
G04 P0 ( dwell for no time -- G64 should not smooth over this point )
G00 Z2.00000 ( retract )

G00 X-114.36163 Y-52.59230 ( rapid move to begin. )
G01 F100.00000
( Mill infeed pass 1/1 )
G01 Z-0.30000
G04 P0 ( dwell for no time -- G64 should not smooth over this point )
G01 F100.00000
G01 X-114.36163 Y-52.59230
G01 X-114.37065 Y-52.48610
G01 X-114.37964 Y-52.28496
G01 X-114.37959 Y-52.03977
G01 X-114.37052 Y-51.90188
G01 X-114.35218 Y-51.76454
G01 X-114.33539 Y-51.56360
G01 X-114.33458 Y-50.15913
G01 X-114.32963 Y-50.11781
G01 X-114.29922 Y-50.02715
G01 X-114.25533 Y-49.95647
G01 X-114.19351 Y-49.89464
G01 X-114.11909 Y-49.84872
G01 X-114.03346 Y-49.82053
G01 X-113.99084 Y-49.81537
G01 X-112.33217 Y-49.81268
G01 X-112.20664 Y-49.81699
G01 X-112.04810 Y-49.83488
G01 X-111.86192 Y-49.86957
G04 P0 ( dwell for no time -- G64 should not smooth over this point )
G00 Z2.00000 ( retract )

G00 X-111.89524 Y-46.65909 ( rapid move to begin. )
G01 F100.00000
( Mill infeed pass 1/1 )
G01 Z-0.30000
G04 P0 ( dwell for no time -- G64 should not smooth over this point )
G01 F100.00000
G01 X-111.89524 Y-46.65909
G01 X-111.89161 Y-46.93623
G01 X-111.90207 Y-47.20062
G01 X-111.91012 Y-47.31565
G01 X-111.93903 Y-47.58886
G01 X-111.94706 Y-47.70996
G01 X-111.93253 Y-47.89411
G01 X-111.88942 Y-48.07372
G01 X-111.84261 Y-48.19056
G01 X-111.81254 Y-48.25510
G01 X-111.66461 Y-48.50138
G01 X-111.64518 Y-48.74230
G01 X-111.64660 Y-49.11212
G01 X-111.65234 Y-49.20465
G01 X-111.66761 Y-49.31710
G01 X-111.69341 Y-49.44021
G01 X-111.73733 Y-49.58669
G01 X-111.78533 Y-49.70981
G01 X-111.86192 Y-49.86957
G01 X-111.82658 Y-50.02977
G01 X-111.81480 Y-50.18997
G01 X-111.81277 Y-50.51608
G01 X-111.80791 Y-50.59655
G01 X-111.78739 Y-50.76668
G01 X-111.75214 Y-50.94051
G01 X-111.70022 Y-51.12095
G01 X-111.65648 Y-51.24186
G01 X-111.58272 Y-51.42088
G01 X-111.53095 Y-51.47282
G01 X-111.08249 Y-51.65951
G01 X-110.90649 Y-51.72382
G01 X-110.82496 Y-51.74821
G01 X-110.67861 Y-51.78311
G01 X-110.52654 Y-51.80696
G01 X-110.33090 Y-51.81963
G01 X-110.15575 Y-51.81333
G01 X-110.00515 Y-51.79494
G01 X-103.25988 Y-51.79487
G01 X-103.11891 Y-51.78849
G01 X-103.03460 Y-51.77996
G01 X-102.85510 Y-51.74935
G01 X-102.76460 Y-51.72753
G01 X-102.59269 Y-51.67437
G01 X-102.25655 Y-51.53851
G01 X-102.21685 Y-51.56566
G01 X-102.01174 Y-51.68326
G01 X-101.88866 Y-51.74031
G01 X-101.73090 Y-51.79858
G01 X-101.60776 Y-51.83248
G01 X-101.47446 Y-51.85773
G01 X-101.35134 Y-51.87048
G01 X-101.27360 Y-51.87452
G01 X-99.32293 Y-51.87470
G01 X-99.13756 Y-51.86192
G01 X-99.02503 Y-51.84440
G01 X-98.91000 Y-51.75888
G01 X-98.79306 Y-51.65527
G01 X-97.12334 Y-49.98552
G01 X-97.00137 Y-49.84552
G01 X-96.96017 Y-49.79243
G01 X-96.86949 Y-49.72218
G01 X-96.79860 Y-49.65982
G01 X-96.44833 Y-49.31054
G01 X-96.32557 Y-49.16973
G01 X-96.24831 Y-49.06124
G01 X-96.18328 Y-48.95212
G01 X-96.11216 Y-48.80572
G01 X-96.09697 Y-48.76683
G01 X-96.17254 Y-48.62322
G01 X-96.21679 Y-48.54923
G01 X-96.28557 Y-48.44395
G01 X-96.35422 Y-48.35368
G01 X-96.44754 Y-48.25014
G01 X-96.53355 Y-48.16414
G01 X-96.67365 Y-48.04212
G01 X-96.78209 Y-47.96490
G01 X-96.89118 Y-47.89990
G01 X-97.03751 Y-47.82876
G01 X-97.16276 Y-47.77989
G01 X-97.38618 Y-47.71489
G01 X-97.47139 Y-47.55723
G01 X-97.56611 Y-47.40552
G01 X-97.79758 Y-47.08853
G01 X-97.82542 Y-46.98294
G01 X-97.86179 Y-46.78820
G01 X-97.87218 Y-46.69500
G01 X-97.87993 Y-46.54004
G01 X-97.87876 Y-43.64446
G01 X-97.87774 Y-43.62437
G01 X-97.81742 Y-43.50380
G01 X-97.74221 Y-43.37855
G01 X-97.66329 Y-43.26778
G01 X-97.58706 Y-43.17616
G01 X-97.52247 Y-43.10746
G01 X-95.67246 Y-41.25745
G01 X-95.59365 Y-41.18399
G01 X-95.47640 Y-41.08991
G01 X-95.33154 Y-40.99436
G01 X-95.22626 Y-40.93609
G01 X-94.92301 Y-40.92666
G01 X-94.80818 Y-40.91640
G01 X-94.63548 Y-40.88747
G01 X-94.43604 Y-40.83378
G01 X-94.26779 Y-40.77213
G01 X-93.34478 Y-40.38978
G01 X-92.50046 Y-39.54544
G01 X-92.34341 Y-39.45707
G01 X-92.15977 Y-39.33904
G01 X-91.98984 Y-39.21392
G01 X-91.90097 Y-39.14168
G01 X-91.72172 Y-39.06187
G01 X-91.63135 Y-39.01592
G01 X-91.50219 Y-38.94181
G01 X-91.38268 Y-38.86337
G01 X-91.22452 Y-38.74206
G01 X-91.07997 Y-38.60996
G01 X-88.87555 Y-36.40414
G01 X-88.75145 Y-36.26282
G01 X-88.69557 Y-36.19073
G01 X-88.61299 Y-36.07298
G01 X-88.50402 Y-35.88896
G01 X-88.44215 Y-35.87730
G01 X-88.21406 Y-35.81545
G01 X-88.08668 Y-35.76876
G01 X-87.93379 Y-35.69835
G01 X-87.82277 Y-35.63526
G01 X-87.71073 Y-35.55893
G01 X-87.61464 Y-35.48090
G01 X-87.55673 Y-35.42871
G01 X-84.37904 Y-32.24858
G01 X-84.24726 Y-32.13395
G01 X-84.11163 Y-32.05556
G01 X-84.03279 Y-32.02508
G01 X-83.97526 Y-32.00552
G01 X-83.80561 Y-31.97619
G01 X-81.82210 Y-31.97471
G01 X-81.63663 Y-31.96196
G01 X-81.50523 Y-31.93989
G01 X-81.38212 Y-31.90872
G01 X-81.22822 Y-31.85546
G01 X-81.10511 Y-31.80143
G01 X-80.90790 Y-31.69376
G01 X-80.82380 Y-31.63885
G01 X-80.06774 Y-31.95201
G01 X-79.97587 Y-31.98652
G01 X-79.85886 Y-32.02275
G01 X-79.74313 Y-32.04990
G01 X-79.63112 Y-32.06791
G01 X-79.51672 Y-32.07791
G01 X-70.86962 Y-32.08005
G01 X-70.74607 Y-32.08617
G01 X-70.60129 Y-32.10560
G01 X-70.45250 Y-32.13976
G01 X-70.29672 Y-32.19094
G01 X-70.11539 Y-32.26463
G01 X-66.52497 Y-35.85494
G01 X-66.44799 Y-35.93681
G01 X-66.41352 Y-36.04649
G01 X-66.37615 Y-36.20432
G01 X-66.35891 Y-36.31339
G01 X-66.34555 Y-36.49114
G01 X-66.34476 Y-38.94013
G01 X-66.33859 Y-39.06355
G01 X-66.32121 Y-39.20269
G01 X-66.28990 Y-39.35301
G01 X-66.20277 Y-39.46078
G01 X-66.15505 Y-39.51308
G01 X-65.17082 Y-40.49885
G01 X-65.01857 Y-40.56207
G01 X-64.87885 Y-40.61168
G01 X-64.77479 Y-40.64038
G01 X-64.66696 Y-40.66164
G01 X-64.55172 Y-40.67541
G01 X-64.45005 Y-40.68000
G01 X-63.43979 Y-40.68013
G01 X-63.33392 Y-40.68580
G01 X-63.23064 Y-40.69867
G01 X-63.11525 Y-40.72207
G01 X-62.96524 Y-40.76639
G01 X-62.59244 Y-40.91749
G01 X-57.83995 Y-45.66996
G01 X-57.73769 Y-45.78129
G01 X-57.64089 Y-45.90473
G01 X-57.59441 Y-45.97207
G01 X-57.51663 Y-46.09953
G01 X-57.43962 Y-46.25050
G01 X-57.35514 Y-46.44845
G01 X-57.35496 Y-48.32007
G01 X-57.34793 Y-48.48319
G01 X-57.33462 Y-48.61100
G01 X-57.32001 Y-48.70701
G01 X-57.24033 Y-48.82551
G01 X-57.17935 Y-48.90668
G01 X-57.03955 Y-49.06856
G01 X-55.84133 Y-50.26856
G01 X-55.51814 Y-50.40241
G01 X-55.31793 Y-50.47206
G01 X-55.18514 Y-50.50582
G01 X-55.09281 Y-50.52299
G01 X-54.99170 Y-50.53622
G01 X-54.90188 Y-50.54283
G01 X-47.10967 Y-50.54415
G01 X-46.97185 Y-50.53536
G01 X-46.83200 Y-50.51504
G01 X-46.76913 Y-50.50218
G01 X-46.62435 Y-50.46388
G01 X-46.48320 Y-50.41453
G01 X-45.62557 Y-50.05997
G01 X-45.07693 Y-50.05997
G01 X-44.86868 Y-49.97994
G01 X-42.69081 Y-49.97978
G01 X-42.60287 Y-50.20140
G01 X-42.55090 Y-50.35829
G01 X-42.49149 Y-50.58156
G01 X-42.45939 Y-50.74105
G01 X-42.43810 Y-50.88359
G01 X-42.42380 Y-51.02509
G01 X-42.41638 Y-51.16543
G01 X-42.41570 Y-51.30576
G01 X-42.42177 Y-51.44640
G01 X-42.43470 Y-51.58821
G01 X-42.45479 Y-51.73170
G01 X-42.50104 Y-51.95923
G01 X-42.54095 Y-52.10838
G01 X-42.58999 Y-52.26195
G01 X-42.64285 Y-52.40503
G01 X-42.69055 Y-52.51938
G01 X-44.53647 Y-52.51963
G01 X-44.61445 Y-52.49995
G01 X-47.79105 Y-52.49995
G01 X-47.96575 Y-52.44785
G01 X-48.18358 Y-52.39984
G01 X-48.28526 Y-52.38387
G01 X-48.43479 Y-52.36779
G01 X-48.63517 Y-52.36025
G01 X-48.85815 Y-52.37046
G01 X-48.99526 Y-52.38656
G01 X-49.09758 Y-52.40350
G01 X-49.21525 Y-52.42811
G01 X-49.33204 Y-52.45791
G01 X-49.43771 Y-52.48953
G01 X-49.58051 Y-52.53970
G04 P0 ( dwell for no time -- G64 should not smooth over this point )
G00 Z2.00000 ( retract )

G00 X-44.69324 Y-57.46956 ( rapid move to begin. )
G01 F100.00000
( Mill infeed pass 1/1 )
G01 Z-0.30000
G04 P0 ( dwell for no time -- G64 should not smooth over this point )
G01 F100.00000
G01 X-44.69324 Y-57.46956
G01 X-44.50919 Y-57.52178
G01 X-44.36962 Y-57.55259
G01 X-44.16393 Y-57.58393
G01 X-43.98511 Y-57.59762
G01 X-43.78242 Y-57.59793
G01 X-43.64770 Y-57.58914
G01 X-43.47953 Y-57.56824
G01 X-43.27173 Y-57.52694
G01 X-43.12949 Y-57.48884
G01 X-42.93432 Y-57.42808
G01 X-42.84547 Y-57.40481
G01 X-42.59451 Y-57.35538
G01 X-42.54095 Y-57.18838
G01 X-42.48248 Y-56.95785
G01 X-42.44524 Y-56.74959
G01 X-42.42091 Y-56.51243
G01 X-42.41524 Y-56.30931
G01 X-42.41961 Y-56.16865
G01 X-42.43081 Y-56.02745
G01 X-42.44910 Y-55.88411
G01 X-42.47480 Y-55.73893
G01 X-42.53018 Y-55.50924
G01 X-42.60287 Y-55.28140
G01 X-42.69083 Y-55.06021
G01 X-44.56573 Y-55.05966
G01 X-42.69083 Y-55.06021
G01 X-42.60287 Y-54.83855
G01 X-42.55542 Y-54.69656
G01 X-42.51704 Y-54.56271
G01 X-42.48248 Y-54.41785
G01 X-42.45710 Y-54.28577
G01 X-42.43853 Y-54.16017
G01 X-42.42545 Y-54.03586
G01 X-42.41717 Y-53.89834
G01 X-42.41557 Y-53.74424
G01 X-42.42581 Y-53.54036
G01 X-42.44138 Y-53.39827
G01 X-42.46426 Y-53.25367
G01 X-42.51885 Y-53.01084
G01 X-42.58898 Y-52.78092
G01 X-42.69055 Y-52.51938
G01 X-42.61565 Y-52.33386
G01 X-42.56302 Y-52.18059
G01 X-42.51824 Y-52.02702
G01 X-42.46929 Y-51.81308
G01 X-42.44524 Y-51.66959
G01 X-42.42835 Y-51.52776
G01 X-42.41570 Y-51.30576
G01 X-42.41638 Y-51.16543
G01 X-42.42380 Y-51.02509
G01 X-42.43810 Y-50.88359
G01 X-42.45939 Y-50.74105
G01 X-42.49149 Y-50.58156
G01 X-42.53018 Y-50.42924
G01 X-42.57679 Y-50.27696
G01 X-42.63312 Y-50.12004
G01 X-42.69081 Y-49.97978
G01 X-42.64092 Y-49.85906
G01 X-42.56139 Y-49.63480
G01 X-42.53195 Y-49.53630
G01 X-42.48174 Y-49.33351
G01 X-42.46007 Y-49.22167
G01 X-42.43366 Y-49.03805
G01 X-42.41857 Y-48.84710
G01 X-42.41560 Y-48.66792
G01 X-42.43033 Y-48.41372
G01 X-42.45695 Y-48.21641
G01 X-42.49805 Y-48.01405
G01 X-42.52677 Y-47.90222
G01 X-42.59467 Y-47.68484
G01 X-42.84382 Y-47.63574
G01 X-42.93320 Y-47.61240
G01 X-43.21796 Y-47.52655
G01 X-43.37930 Y-47.48959
G01 X-43.54948 Y-47.46180
G01 X-43.70615 Y-47.44618
G01 X-43.92413 Y-47.44062
G01 X-44.07681 Y-47.44786
G01 X-44.22855 Y-47.46412
G01 X-44.37267 Y-47.48804
G01 X-44.53378 Y-47.52444
G01 X-44.83802 Y-47.61512
G01 X-45.10337 Y-47.56188
G01 X-45.36873 Y-47.44999
G01 X-45.63401 Y-47.44999
G01 X-46.24724 Y-47.70582
G01 X-46.33367 Y-47.74735
G01 X-46.47988 Y-47.82947
G01 X-46.62936 Y-47.93262
G01 X-46.75821 Y-48.04067
G01 X-47.12468 Y-48.40455
G01 X-47.27045 Y-48.53198
G01 X-47.32872 Y-48.57590
G01 X-47.44139 Y-48.65131
G01 X-47.55364 Y-48.71514
G01 X-47.58132 Y-48.71801
G01 X-47.74000 Y-48.72495
G01 X-53.49030 Y-48.72490
G01 X-53.63600 Y-48.71811
G01 X-53.72467 Y-48.70889
G01 X-53.91110 Y-48.67623
G01 X-54.10064 Y-48.62464
G01 X-54.25929 Y-48.56747
G01 X-54.34097 Y-48.53356
G01 X-55.04145 Y-47.82993
G01 X-55.07559 Y-47.72734
G01 X-55.10061 Y-47.64115
G01 X-55.13574 Y-47.48997
G01 X-55.15923 Y-47.34265
G01 X-55.17201 Y-47.19757
G01 X-55.17519 Y-47.08995
G01 X-55.17539 Y-45.93956
G01 X-55.18522 Y-45.76976
G01 X-55.21235 Y-45.58116
G01 X-55.23462 Y-45.47758
G01 X-55.29378 Y-45.27365
G01 X-55.36096 Y-45.09613
G01 X-55.45918 Y-45.07553
G01 X-55.67511 Y-45.01210
G01 X-55.80033 Y-44.96323
G01 X-55.94666 Y-44.89214
G01 X-56.05575 Y-44.82711
G01 X-56.16421 Y-44.74987
G01 X-56.25850 Y-44.67001
G01 X-58.80596 Y-42.12618
G01 X-58.88442 Y-42.04066
G01 X-58.94886 Y-41.95867
G01 X-59.01953 Y-41.85521
G01 X-59.09270 Y-41.72588
G01 X-59.14787 Y-41.60690
G01 X-59.21493 Y-41.42212
G01 X-59.25252 Y-41.28562
G01 X-59.30076 Y-41.03784
G01 X-59.45968 Y-40.90213
G01 X-59.59669 Y-40.76903
G01 X-59.73151 Y-40.61983
G01 X-59.82041 Y-40.50952
G01 X-61.27997 Y-39.04999
G01 X-61.41144 Y-38.92725
G01 X-61.54205 Y-38.88748
G01 X-61.65567 Y-38.85852
G01 X-61.84340 Y-38.82240
G01 X-62.01764 Y-38.80251
G01 X-62.17969 Y-38.79517
G01 X-62.27883 Y-38.79517
G01 X-62.44561 Y-38.84597
G01 X-62.62709 Y-38.88941
G01 X-62.79193 Y-38.91803
G01 X-62.95538 Y-38.93630
G01 X-63.11413 Y-38.94437
G01 X-63.28983 Y-38.94219
G01 X-63.45256 Y-38.92987
G01 X-63.61675 Y-38.90724
G01 X-63.79120 Y-38.87196
G01 X-63.96559 Y-38.82492
G01 X-64.06874 Y-38.73711
G01 X-64.17461 Y-38.63711
G01 X-64.27537 Y-38.53175
G01 X-64.34928 Y-38.44747
G01 X-64.39975 Y-38.26716
G01 X-64.44713 Y-38.03355
G01 X-64.47042 Y-37.84074
G01 X-64.47976 Y-37.61270
G01 X-64.47265 Y-37.42677
G01 X-64.44558 Y-37.19695
G01 X-64.40583 Y-36.99749
G01 X-64.36521 Y-36.84572
G01 X-64.33229 Y-36.74128
G01 X-64.44149 Y-36.54171
G01 X-64.49551 Y-36.41857
G01 X-64.54875 Y-36.26465
G01 X-64.57992 Y-36.14156
G01 X-64.60196 Y-36.01032
G01 X-64.61217 Y-35.88720
G01 X-64.61428 Y-35.52988
G01 X-64.61990 Y-35.43932
G01 X-64.63910 Y-35.32777
G01 X-64.68779 Y-35.18852
G01 X-64.71931 Y-35.12553
G01 X-64.78114 Y-35.02373
G01 X-64.88860 Y-34.90087
G01 X-68.34872 Y-31.44322
G01 X-68.40091 Y-31.38531
G01 X-68.47894 Y-31.28922
G01 X-68.55527 Y-31.17718
G01 X-68.61836 Y-31.06616
G01 X-68.68875 Y-30.91327
G01 X-68.73546 Y-30.78589
G01 X-68.79733 Y-30.55765
G01 X-68.80612 Y-30.51096
G01 X-68.95423 Y-30.45153
G01 X-69.15730 Y-30.38396
G01 X-69.30615 Y-30.34779
G01 X-69.52141 Y-30.31498
G01 X-69.71996 Y-30.30484
G01 X-71.27122 Y-30.30291
G01 X-71.43482 Y-30.28963
G01 X-71.51531 Y-30.27820
G01 X-71.69133 Y-30.24213
G01 X-71.81638 Y-30.22724
G01 X-71.96641 Y-30.19996
G01 X-72.39999 Y-30.19996
G01 X-72.57949 Y-30.18676
G01 X-72.75900 Y-30.14713
G01 X-72.93852 Y-30.08109
G01 X-73.11803 Y-29.98866
G01 X-73.28152 Y-30.04787
G01 X-73.47937 Y-30.10670
G01 X-73.57319 Y-30.12961
G01 X-73.75897 Y-30.16550
G01 X-73.92704 Y-30.18693
G01 X-74.09750 Y-30.19801
G01 X-74.27804 Y-30.19824
G01 X-74.44533 Y-30.18767
G01 X-74.61457 Y-30.16649
G01 X-74.70611 Y-30.15066
G01 X-74.87906 Y-30.11233
G01 X-74.96572 Y-30.08897
G01 X-75.15592 Y-30.02796
G01 X-75.25762 Y-29.98991
G01 X-75.46054 Y-29.90281
G01 X-75.65749 Y-29.98790
G01 X-75.88271 Y-30.06745
G01 X-76.09856 Y-30.12615
G01 X-76.30768 Y-30.16669
G01 X-76.41954 Y-30.18178
G01 X-76.61002 Y-30.19694
G01 X-76.79470 Y-30.19880
G01 X-76.88185 Y-30.19527
G01 X-77.08754 Y-30.17599
G01 X-77.19942 Y-30.15897
G01 X-77.42627 Y-30.11079
G01 X-77.49193 Y-30.15369
G01 X-77.68934 Y-30.26146
G01 X-77.81248 Y-30.31548
G01 X-77.96628 Y-30.36870
G01 X-78.08939 Y-30.39989
G01 X-78.22078 Y-30.42196
G01 X-78.40603 Y-30.43471
G01 X-78.83668 Y-30.43291
G01 X-78.92312 Y-30.42529
G01 X-79.06488 Y-30.40441
G01 X-79.15677 Y-30.33730
G01 X-79.29691 Y-30.21526
G01 X-81.30874 Y-28.20322
G01 X-81.36093 Y-28.14533
G01 X-81.43896 Y-28.04925
G01 X-81.51532 Y-27.93721
G01 X-81.57838 Y-27.82616
G01 X-81.64021 Y-27.69596
G01 X-81.80569 Y-27.29695
G01 X-81.97351 Y-27.26416
G01 X-82.06401 Y-27.25176
G01 X-82.18128 Y-27.24079
G01 X-82.32984 Y-27.23502
G01 X-84.75890 Y-27.23497
G01 X-84.86116 Y-27.20269
G01 X-85.02501 Y-27.15898
G01 X-85.24838 Y-27.11567
G01 X-85.40180 Y-27.09687
G01 X-85.55359 Y-27.08699
G01 X-85.71206 Y-27.08610
G01 X-85.81307 Y-27.09060
G01 X-85.99252 Y-27.18633
G01 X-86.18236 Y-27.30881
G01 X-86.31726 Y-27.41186
G01 X-86.40228 Y-27.48504
G01 X-86.51335 Y-27.59189
G01 X-86.62364 Y-27.71338
G01 X-86.71541 Y-27.82877
G01 X-86.75658 Y-28.02113
G01 X-86.77533 Y-28.15346
G01 X-86.78378 Y-28.24498
G01 X-86.78952 Y-28.37599
G01 X-86.78571 Y-28.54569
G01 X-86.77403 Y-28.67774
G01 X-86.76143 Y-28.76926
G01 X-86.72602 Y-28.94896
G01 X-86.68823 Y-29.09026
G01 X-86.65904 Y-29.18181
G01 X-86.58653 Y-29.37238
G01 X-86.52054 Y-29.51815
G01 X-86.57395 Y-29.62859
G01 X-86.64068 Y-29.80032
G01 X-86.67677 Y-29.92341
G01 X-86.70657 Y-30.06753
G01 X-86.72143 Y-30.19064
G01 X-86.72643 Y-30.32437
G01 X-86.72000 Y-30.46258
G01 X-86.58119 Y-30.72562
G01 X-86.53395 Y-30.83563
G01 X-86.51056 Y-30.89626
G01 X-86.48592 Y-30.99156
G01 X-86.46773 Y-31.07588
G01 X-86.46217 Y-31.12519
G01 X-86.45315 Y-31.25998
G01 X-86.46768 Y-31.44406
G01 X-86.51086 Y-31.62361
G01 X-86.58130 Y-31.79432
G01 X-86.67789 Y-31.95173
G01 X-86.76113 Y-32.05127
G01 X-86.79786 Y-32.09206
G01 X-86.93631 Y-32.21035
G01 X-87.09585 Y-32.30824
G01 X-87.25401 Y-32.37448
G01 X-87.37182 Y-32.40618
G01 X-87.44596 Y-32.42178
G01 X-87.54906 Y-32.43209
G01 X-87.62996 Y-32.43616
G01 X-87.72828 Y-32.43075
G01 X-87.81396 Y-32.42160
G01 X-88.14332 Y-32.35289
G01 X-88.22282 Y-32.34014
G01 X-88.48703 Y-32.30369
G01 X-88.58830 Y-32.29549
G01 X-88.67133 Y-32.08358
G01 X-88.71063 Y-31.96161
G01 X-88.74568 Y-31.83237
G01 X-88.76742 Y-31.73412
G01 X-88.79516 Y-31.56313
G01 X-88.81335 Y-31.33849
G01 X-88.81304 Y-31.17268
G01 X-88.80628 Y-31.06087
G01 X-88.78629 Y-30.89359
G01 X-88.73859 Y-30.65988
G01 X-88.70763 Y-30.54805
G01 X-88.66496 Y-30.41988
G01 X-88.66496 Y-27.44998
G01 X-88.66084 Y-27.32636
G01 X-88.63979 Y-27.12908
G01 X-88.57636 Y-27.03071
G01 X-88.50527 Y-26.93332
G01 X-88.45287 Y-26.86914
G01 X-88.34454 Y-26.74960
G01 X-86.94032 Y-25.34539
G01 X-86.86397 Y-25.27427
G01 X-86.72793 Y-25.23170
G01 X-86.59811 Y-25.20109
G01 X-86.46794 Y-25.17976
G01 X-86.36821 Y-25.16970
G01 X-86.24000 Y-25.16495
G01 X-79.50999 Y-25.16495
G01 X-79.41159 Y-25.16795
G01 X-79.28492 Y-25.17940
G01 X-79.17049 Y-25.19738
G01 X-79.05792 Y-25.22228
G01 X-78.94209 Y-25.25530
G01 X-78.77864 Y-25.31440
G01 X-78.37613 Y-25.48110
G01 X-78.29213 Y-25.42624
G01 X-78.09477 Y-25.31847
G01 X-77.97164 Y-25.26447
G01 X-77.81781 Y-25.21123
G01 X-77.69470 Y-25.18006
G01 X-77.56330 Y-25.15799
G01 X-77.37809 Y-25.14521
G01 X-74.53187 Y-25.14521
G01 X-74.43852 Y-25.14943
G01 X-74.31541 Y-25.16218
G01 X-74.18223 Y-25.18743
G01 X-74.05912 Y-25.22134
G01 X-73.90128 Y-25.27963
G01 X-73.77817 Y-25.33668
G01 X-73.57307 Y-25.45428
G01 X-73.53377 Y-25.48110
G01 X-73.33197 Y-25.40792
G01 X-73.13763 Y-25.35583
G01 X-72.93471 Y-25.32098
G01 X-72.78826 Y-25.30813
G01 X-72.67998 Y-25.30495
G01 X-66.81161 Y-25.30495
G01 X-66.62231 Y-25.25827
G01 X-66.43823 Y-25.22692
G01 X-66.27135 Y-25.21039
G01 X-66.07709 Y-25.20539
G01 X-65.89980 Y-25.21433
G01 X-65.74974 Y-25.23139
G01 X-65.62071 Y-25.25387
G01 X-65.41918 Y-25.30206
G01 X-65.26495 Y-25.43205
G01 X-65.12249 Y-25.57290
G01 X-65.04103 Y-25.66398
G01 X-64.91487 Y-25.82372
G01 X-64.80859 Y-25.97958
G01 X-64.69988 Y-26.16761
G01 X-64.62856 Y-26.31082
G01 X-64.55723 Y-26.47584
G01 X-64.49368 Y-26.64803
G01 X-64.76419 Y-26.84407
G01 X-64.90773 Y-26.95367
G01 X-65.09467 Y-27.10581
G01 X-65.33003 Y-27.31900
G01 X-65.41812 Y-27.39225
G01 X-65.77504 Y-27.60779
G01 X-65.85606 Y-27.66157
G01 X-66.03694 Y-27.78460
G01 X-66.33800 Y-28.01087
G01 X-66.03694 Y-27.78460
G01 X-65.85606 Y-27.66157
G01 X-65.77504 Y-27.60779
G01 X-65.41812 Y-27.39225
G01 X-65.33003 Y-27.31900
G01 X-65.09467 Y-27.10581
G01 X-64.90773 Y-26.95367
G01 X-64.76419 Y-26.84407
G01 X-64.49368 Y-26.64803
G01 X-64.46026 Y-26.66682
G01 X-64.37674 Y-26.78443
G01 X-64.29630 Y-26.90754
G01 X-64.18843 Y-27.10510
G01 X-64.13443 Y-27.22822
G01 X-64.08124 Y-27.38196
G01 X-64.05007 Y-27.50508
G01 X-64.02800 Y-27.63637
G01 X-64.01522 Y-27.82186
G01 X-64.01540 Y-28.56370
G01 X-64.03219 Y-28.76446
G01 X-64.05744 Y-28.89778
G01 X-64.09137 Y-29.02090
G01 X-64.14964 Y-29.17866
G01 X-64.20669 Y-29.30177
G01 X-64.32429 Y-29.50688
G01 X-64.35109 Y-29.54612
G01 X-64.44916 Y-29.52557
G01 X-64.66511 Y-29.46215
G01 X-64.79033 Y-29.41328
G01 X-64.93666 Y-29.34216
G01 X-65.04575 Y-29.27716
G01 X-65.15419 Y-29.19994
G01 X-65.29429 Y-29.07792
G01 X-65.81540 Y-28.55864
G01 X-66.02137 Y-28.34927
G01 X-66.24585 Y-28.11328
G01 X-66.33800 Y-28.01087
G01 X-66.47831 Y-27.99799
G01 X-66.59015 Y-27.98298
G01 X-66.81761 Y-27.94020
G01 X-67.05169 Y-27.87907
G01 X-67.23119 Y-27.81996
G01 X-69.95791 Y-27.81996
G01 X-70.19344 Y-27.66466
G01 X-70.42895 Y-27.55372
G01 X-70.66446 Y-27.48717
G01 X-70.90000 Y-27.46497
G01 X-72.21396 Y-27.46497
G01 X-72.39997 Y-27.54201
G01 X-72.57952 Y-27.63644
G01 X-72.73070 Y-27.75925
G01 X-72.85351 Y-27.91043
G01 X-72.94795 Y-28.08999
G01 X-72.99829 Y-28.21155
G01 X-72.95808 Y-28.40142
G01 X-72.93146 Y-28.60076
G01 X-72.92036 Y-28.80667
G01 X-72.92410 Y-28.98049
G01 X-72.94586 Y-29.20103
G01 X-72.96989 Y-29.34223
G01 X-73.00243 Y-29.48612
G01 X-73.06293 Y-29.70870
G01 X-73.10014 Y-29.88315
G01 X-73.11803 Y-29.98866
G04 P0 ( dwell for no time -- G64 should not smooth over this point )
G00 Z2.00000 ( retract )

G00 X-68.80612 Y-30.51096 ( rapid move to begin. )
G01 F100.00000
( Mill infeed pass 1/1 )
G01 Z-0.30000
G04 P0 ( dwell for no time -- G64 should not smooth over this point )
G01 F100.00000
G01 X-68.80612 Y-30.51096
G01 X-68.72222 Y-30.45615
G01 X-68.52484 Y-30.34840
G01 X-68.40173 Y-30.29440
G01 X-68.24788 Y-30.24119
G01 X-68.12474 Y-30.21000
G01 X-67.99342 Y-30.18795
G01 X-67.80810 Y-30.17517
G01 X-66.98288 Y-30.17520
G01 X-66.82683 Y-30.18465
G01 X-66.68507 Y-30.20553
G01 X-66.59312 Y-30.27269
G01 X-66.45307 Y-30.39468
G01 X-61.56329 Y-35.28548
G01 X-61.48472 Y-35.35035
G01 X-61.08472 Y-35.63379
G01 X-60.86499 Y-35.80399
G01 X-60.61399 Y-36.03805
G01 X-60.50405 Y-36.15748
G01 X-60.30662 Y-36.18926
G01 X-60.06448 Y-36.24504
G01 X-59.89260 Y-36.15296
G01 X-59.63982 Y-36.12004
G01 X-59.44079 Y-36.08387
G01 X-59.07622 Y-35.99020
G01 X-58.93342 Y-35.96068
G01 X-58.79293 Y-35.93948
G01 X-58.57299 Y-35.92190
G01 X-58.38181 Y-35.92205
G01 X-58.26070 Y-35.92962
G01 X-58.13439 Y-35.94372
G01 X-57.92486 Y-35.98083
G01 X-57.68351 Y-36.04433
G01 X-57.49421 Y-36.02378
G01 X-57.30485 Y-35.97547
G01 X-56.91859 Y-35.97577
G01 X-56.81150 Y-35.97986
G01 X-56.63779 Y-35.99670
G01 X-56.52992 Y-36.01306
G01 X-56.38219 Y-35.91626
G01 X-56.18478 Y-35.80846
G01 X-56.06165 Y-35.75446
G01 X-55.90775 Y-35.70122
G01 X-55.78463 Y-35.67006
G01 X-55.65342 Y-35.64801
G01 X-55.46246 Y-35.63523
G01 X-55.27094 Y-35.63668
G01 X-55.16683 Y-35.64466
G01 X-55.02505 Y-35.66554
G01 X-54.93317 Y-35.73264
G01 X-54.79307 Y-35.85467
G01 X-53.90468 Y-36.74306
G01 X-53.80102 Y-36.86005
G01 X-53.71555 Y-36.97503
G01 X-53.69800 Y-37.08753
G01 X-53.68779 Y-37.21067
G01 X-53.68540 Y-37.43432
G01 X-53.70219 Y-37.63455
G01 X-53.72744 Y-37.76772
G01 X-53.76135 Y-37.89083
G01 X-53.81966 Y-38.04874
G01 X-53.87674 Y-38.17183
G01 X-53.99429 Y-38.37686
G01 X-54.02342 Y-38.41953
G04 P0 ( dwell for no time -- G64 should not smooth over this point )
G00 Z2.00000 ( retract )

G00 X-52.38108 Y-35.31608 ( rapid move to begin. )
G01 F100.00000
( Mill infeed pass 1/1 )
G01 Z-0.30000
G04 P0 ( dwell for no time -- G64 should not smooth over this point )
G01 F100.00000
G01 X-52.38108 Y-35.31608
G01 X-52.35426 Y-35.27684
G01 X-52.23679 Y-35.07194
G01 X-52.17971 Y-34.94883
G01 X-52.12134 Y-34.79084
G01 X-52.08743 Y-34.66772
G01 X-52.06219 Y-34.53455
G01 X-52.04540 Y-34.33366
G01 X-52.04522 Y-33.18459
G01 X-52.05800 Y-32.99915
G01 X-52.08007 Y-32.86785
G01 X-52.11723 Y-32.72231
G01 X-52.20057 Y-32.63026
G01 X-52.33209 Y-32.50664
G01 X-52.41979 Y-32.48350
G01 X-52.54291 Y-32.45769
G01 X-52.65530 Y-32.44240
G01 X-52.79449 Y-32.43522
G01 X-54.25238 Y-32.43519
G01 X-54.43770 Y-32.44799
G01 X-54.56899 Y-32.47004
G01 X-54.69210 Y-32.50123
G01 X-54.84587 Y-32.55442
G01 X-54.96899 Y-32.60842
G01 X-55.16655 Y-32.71627
G01 X-55.28966 Y-32.79671
G01 X-55.56569 Y-33.01393
G01 X-55.72370 Y-33.15993
G04 P0 ( dwell for no time -- G64 should not smooth over this point )
G00 Z2.00000 ( retract )

G00 X-55.31156 Y-27.61712 ( rapid move to begin. )
G01 F100.00000
( Mill infeed pass 1/1 )
G01 Z-0.30000
G04 P0 ( dwell for no time -- G64 should not smooth over this point )
G01 F100.00000
G01 X-55.31156 Y-27.61712
G01 X-55.33569 Y-27.74086
G01 X-55.39170 Y-27.94221
G01 X-55.45941 Y-28.11904
G01 X-55.61262 Y-28.45651
G01 X-55.68265 Y-28.67353
G01 X-55.90175 Y-28.92847
G01 X-55.99840 Y-29.08574
G01 X-56.05469 Y-29.21795
G01 X-56.06927 Y-29.25630
G01 X-56.08994 Y-29.33469
G01 X-56.11140 Y-29.43601
G01 X-56.12347 Y-29.55900
G01 X-56.12311 Y-29.68094
G01 X-56.07338 Y-30.10565
G01 X-56.04999 Y-30.46936
G01 X-55.84514 Y-30.56057
G01 X-55.77127 Y-30.58892
G01 X-55.58517 Y-30.64947
G01 X-55.40635 Y-30.69308
G01 X-55.23229 Y-30.72183
G01 X-55.11026 Y-30.73390
G01 X-54.93876 Y-30.73959
G01 X-54.76792 Y-30.73222
G01 X-54.59561 Y-30.71157
G01 X-54.41982 Y-30.67682
G01 X-54.25098 Y-30.63052
G01 X-54.11667 Y-30.58472
G01 X-53.98611 Y-30.53235
G01 X-53.84839 Y-30.46885
G01 X-53.70757 Y-30.53715
G01 X-53.54600 Y-30.59994
G01 X-53.42287 Y-30.63603
G01 X-53.28804 Y-30.66392
G01 X-53.16490 Y-30.67873
G01 X-53.07580 Y-30.68419
G01 X-52.79587 Y-30.68470
G01 X-52.60918 Y-30.67192
G01 X-52.47786 Y-30.64988
G01 X-52.35474 Y-30.61868
G01 X-52.17532 Y-30.55424
G01 X-52.13727 Y-30.45681
G01 X-52.09328 Y-30.31025
G01 X-52.06742 Y-30.18716
G01 X-52.05210 Y-30.07467
G01 X-52.04486 Y-29.93545
G01 X-52.04664 Y-29.65765
G01 X-52.03402 Y-29.48102
G01 X-51.99818 Y-29.34137
G01 X-51.98550 Y-29.31124
G01 X-51.87672 Y-29.08155
G01 X-51.82289 Y-28.97703
G01 X-51.78309 Y-28.88539
G01 X-51.73572 Y-28.75864
G01 X-51.67834 Y-28.55247
G01 X-51.64995 Y-28.40675
G01 X-51.61444 Y-28.06761
G01 X-51.60885 Y-27.84351
G04 P0 ( dwell for no time -- G64 should not smooth over this point )
G00 Z2.00000 ( retract )

G00 X-42.81491 Y-27.38463 ( rapid move to begin. )
G01 F100.00000
( Mill infeed pass 1/1 )
G01 Z-0.30000
G04 P0 ( dwell for no time -- G64 should not smooth over this point )
G01 F100.00000
G01 X-42.81491 Y-27.38463
G01 X-42.77214 Y-27.70792
G01 X-42.72875 Y-27.93576
G01 X-42.67800 Y-28.15049
G01 X-42.66548 Y-28.22059
G01 X-42.65321 Y-28.38996
G01 X-42.66795 Y-28.58193
G01 X-42.71334 Y-28.76906
G01 X-42.78275 Y-28.93837
G01 X-42.82276 Y-29.00921
G01 X-42.88728 Y-29.11119
G01 X-43.09759 Y-29.37586
G01 X-43.29174 Y-29.66001
G01 X-44.68476 Y-29.66001
G01 X-43.29174 Y-29.66001
G01 X-43.13454 Y-29.89323
G01 X-43.00236 Y-30.06761
G01 X-42.88867 Y-30.20723
G01 X-42.85705 Y-30.25518
G01 X-42.78659 Y-30.37286
G01 X-42.71329 Y-30.55089
G01 X-42.66830 Y-30.73806
G01 X-42.65286 Y-30.92999
G01 X-42.66856 Y-31.12183
G01 X-42.71296 Y-31.30918
G01 X-42.78687 Y-31.48693
G01 X-42.92258 Y-31.74228
G01 X-43.03462 Y-31.98990
G01 X-43.06645 Y-32.06935
G01 X-43.27173 Y-32.12694
G01 X-43.47953 Y-32.16824
G01 X-43.64770 Y-32.18914
G01 X-43.86375 Y-32.19976
G01 X-43.98511 Y-32.19762
G01 X-44.11986 Y-32.18843
G01 X-44.28829 Y-32.16697
G01 X-44.50919 Y-32.12178
G01 X-44.69324 Y-32.06956
G01 X-44.84054 Y-32.19122
G01 X-44.96362 Y-32.31037
G01 X-44.98727 Y-32.33857
G01 X-45.07213 Y-32.46313
G01 X-45.09944 Y-32.54649
G01 X-45.10457 Y-32.58886
G01 X-45.10523 Y-34.32000
G01 X-45.10216 Y-34.40267
G01 X-45.09200 Y-34.49719
G01 X-45.06936 Y-34.63265
G01 X-45.03439 Y-34.78243
G01 X-45.00957 Y-34.86628
G01 X-44.78179 Y-34.89881
G01 X-44.57353 Y-34.83491
G01 X-44.42685 Y-34.79914
G01 X-44.32517 Y-34.77925
G01 X-44.13518 Y-34.75302
G01 X-43.99533 Y-34.74286
G01 X-43.89367 Y-34.74027
G01 X-43.72652 Y-34.74479
G01 X-43.52245 Y-34.76531
G01 X-43.33708 Y-34.79818
G01 X-43.16314 Y-34.84166
G01 X-43.03421 Y-34.94951
G01 X-42.93950 Y-35.03833
G01 X-42.84938 Y-35.13135
G01 X-42.76350 Y-35.22894
G01 X-42.68146 Y-35.33163
G01 X-42.59535 Y-35.45134
G01 X-42.51151 Y-35.58189
G01 X-42.42863 Y-35.72744
G01 X-42.41694 Y-35.90795
G01 X-42.41702 Y-36.11568
G01 X-42.43081 Y-36.31250
G01 X-42.46005 Y-36.52299
G01 X-42.49929 Y-36.71197
G01 X-42.55962 Y-36.93003
G01 X-42.60539 Y-37.06574
G01 X-42.69035 Y-37.28019
G01 X-44.92804 Y-37.28029
G01 X-42.69035 Y-37.28019
G01 X-42.61941 Y-37.45636
G01 X-42.55382 Y-37.64920
G01 X-42.48738 Y-37.89992
G01 X-42.44196 Y-38.15431
G01 X-42.41910 Y-38.39911
G01 X-42.41524 Y-38.55674
G01 X-42.42014 Y-38.71867
G01 X-42.42776 Y-38.82034
G01 X-42.44735 Y-38.98362
G01 X-42.49264 Y-39.22306
G01 X-42.51778 Y-39.32474
G01 X-42.56904 Y-39.49913
G01 X-42.63127 Y-39.67493
G01 X-42.69093 Y-39.81996
G01 X-42.63312 Y-39.96004
G01 X-42.57679 Y-40.11696
G01 X-42.53018 Y-40.26924
G01 X-42.47480 Y-40.49893
G01 X-42.44910 Y-40.64411
G01 X-42.42522 Y-40.84729
G01 X-42.41694 Y-40.98795
G01 X-42.41763 Y-41.20965
G01 X-42.42804 Y-41.36398
G01 X-42.44524 Y-41.50959
G01 X-42.46929 Y-41.65308
G01 X-42.50104 Y-41.79923
G01 X-42.54095 Y-41.94838
G01 X-42.58999 Y-42.10195
G01 X-42.64885 Y-42.25996
G01 X-42.69081 Y-42.36024
G01 X-42.63312 Y-42.50004
G01 X-42.57679 Y-42.65696
G01 X-42.53018 Y-42.80924
G01 X-42.47480 Y-43.03893
G01 X-42.44910 Y-43.18411
G01 X-42.43081 Y-43.32745
G01 X-42.41961 Y-43.46865
G01 X-42.41542 Y-43.66829
G01 X-42.42804 Y-43.90398
G01 X-42.44524 Y-44.04959
G01 X-42.46929 Y-44.19308
G01 X-42.51824 Y-44.40702
G01 X-42.59451 Y-44.65538
G01 X-42.84547 Y-44.70481
G01 X-43.22098 Y-44.81424
G01 X-43.35309 Y-44.84515
G01 X-43.52245 Y-44.87464
G01 X-43.73922 Y-44.89587
G01 X-43.86375 Y-44.89976
G01 X-43.98511 Y-44.89762
G01 X-44.11986 Y-44.88843
G01 X-44.24529 Y-44.87352
G01 X-44.36962 Y-44.85259
G01 X-44.50919 Y-44.82178
G01 X-44.71874 Y-44.76100
G01 X-44.82093 Y-44.84253
G01 X-44.92062 Y-44.93323
G01 X-45.01742 Y-45.03445
G01 X-45.09565 Y-45.12978
G01 X-45.16822 Y-45.23321
G01 X-45.31196 Y-45.26989
G01 X-45.44335 Y-45.29196
G01 X-45.62860 Y-45.30471
G01 X-45.93548 Y-45.30471
G01 X-46.07452 Y-45.29752
G01 X-46.36545 Y-45.25533
G01 X-46.56060 Y-45.21822
G01 X-46.42702 Y-45.24472
G01 X-46.15999 Y-45.28744
G01 X-45.98199 Y-45.30326
G01 X-45.56647 Y-45.30214
G01 X-45.44335 Y-45.29196
G01 X-45.31196 Y-45.26989
G01 X-45.16822 Y-45.23321
G01 X-45.09565 Y-45.12978
G01 X-45.01742 Y-45.03445
G01 X-44.92062 Y-44.93323
G01 X-44.82093 Y-44.84253
G01 X-44.71874 Y-44.76100
G01 X-44.81445 Y-44.52084
G01 X-44.91849 Y-44.29524
G01 X-44.97696 Y-44.17888
G01 X-45.04671 Y-44.00908
G01 X-45.08745 Y-43.84337
G01 X-45.09903 Y-43.75259
G01 X-45.10701 Y-43.62996
G01 X-45.09624 Y-43.47802
G01 X-45.08128 Y-43.38777
G01 X-45.04706 Y-43.25076
G01 X-44.99804 Y-43.12859
G01 X-44.96314 Y-43.05508
G01 X-44.87244 Y-42.90893
G01 X-44.65207 Y-42.62986
G01 X-44.46804 Y-42.35996
G01 X-44.62075 Y-42.13322
G01 X-44.76787 Y-41.93913
G01 X-44.87122 Y-41.81269
G01 X-44.91148 Y-41.75110
G01 X-44.97333 Y-41.64708
G01 X-45.12679 Y-41.30883
G01 X-45.26751 Y-41.04770
G01 X-45.37587 Y-40.87053
G01 X-45.26751 Y-41.04770
G01 X-45.12679 Y-41.30883
G01 X-44.97333 Y-41.64708
G01 X-44.91148 Y-41.75110
G01 X-44.87122 Y-41.81269
G01 X-44.76787 Y-41.93913
G01 X-44.62075 Y-42.13322
G01 X-44.46804 Y-42.35996
G01 X-42.69081 Y-42.36024
G01 X-42.64885 Y-42.25996
G01 X-42.58999 Y-42.10195
G01 X-42.54095 Y-41.94838
G01 X-42.50104 Y-41.79923
G01 X-42.46929 Y-41.65308
G01 X-42.44524 Y-41.50959
G01 X-42.42804 Y-41.36398
G01 X-42.41763 Y-41.20965
G01 X-42.41524 Y-41.06931
G01 X-42.42522 Y-40.84729
G01 X-42.44034 Y-40.70609
G01 X-42.46264 Y-40.56273
G01 X-42.49236 Y-40.41757
G01 X-42.53018 Y-40.26924
G01 X-42.57679 Y-40.11696
G01 X-42.63312 Y-39.96004
G01 X-42.69093 Y-39.81996
G01 X-44.47894 Y-39.82047
G01 X-44.61209 Y-39.91978
G01 X-44.75072 Y-40.03777
G01 X-44.91077 Y-40.19603
G01 X-44.99969 Y-40.29626
G01 X-45.11404 Y-40.44130
G01 X-45.19271 Y-40.55372
G01 X-45.31051 Y-40.74665
G01 X-45.37587 Y-40.87053
G01 X-45.62202 Y-40.94256
G01 X-45.74620 Y-40.99248
G01 X-45.88953 Y-41.06400
G01 X-45.99768 Y-41.12997
G01 X-46.10139 Y-41.20507
G01 X-46.23223 Y-41.32001
G01 X-46.50741 Y-41.59882
G01 X-46.58727 Y-41.69311
G01 X-46.65440 Y-41.78503
G01 X-46.67528 Y-41.92687
G01 X-46.68473 Y-42.08287
G01 X-46.68475 Y-44.55549
G01 X-46.67198 Y-44.74080
G01 X-46.64990 Y-44.87212
G01 X-46.59938 Y-45.08233
G01 X-46.56060 Y-45.21822
G01 X-46.88320 Y-45.57796
G01 X-47.39814 Y-46.09313
G01 X-47.44569 Y-46.19244
G01 X-47.52008 Y-46.32726
G01 X-47.59910 Y-46.45127
G01 X-47.68178 Y-46.56478
G01 X-47.76303 Y-46.66310
G01 X-47.85737 Y-46.76419
G01 X-47.96100 Y-46.86165
G01 X-48.07345 Y-46.95480
G01 X-48.25917 Y-46.99627
G01 X-48.41823 Y-47.01880
G01 X-48.57550 Y-47.02896
G01 X-48.73293 Y-47.02713
G01 X-48.89219 Y-47.01299
G01 X-49.05536 Y-46.98573
G01 X-49.21657 Y-46.94629
G01 X-49.40189 Y-46.88517
G01 X-49.54484 Y-46.82663
G01 X-49.65851 Y-46.77301
G01 X-49.78091 Y-46.70814
G01 X-49.92094 Y-46.62518
G01 X-50.05477 Y-46.53694
G01 X-50.19709 Y-46.43354
G01 X-50.43537 Y-46.23826
G01 X-50.36669 Y-46.12917
G01 X-50.26925 Y-45.96249
G01 X-50.16430 Y-45.75800
G01 X-50.08195 Y-45.56501
G01 X-50.01177 Y-45.35655
G01 X-49.90481 Y-45.31655
G01 X-49.55549 Y-45.16219
G01 X-49.32704 Y-45.04454
G01 X-49.16897 Y-44.95386
G01 X-49.00583 Y-44.88576
G01 X-48.71327 Y-44.78665
G01 X-48.61619 Y-44.69475
G01 X-48.52455 Y-44.59219
G01 X-48.48902 Y-44.54515
G01 X-48.47220 Y-44.48043
G01 X-48.44916 Y-44.34855
G01 X-48.43522 Y-44.15856
G01 X-48.43545 Y-41.39987
G01 X-48.42214 Y-41.25018
G01 X-48.38401 Y-41.11125
G01 X-48.34701 Y-41.02671
G01 X-48.31429 Y-40.96433
G01 X-48.25239 Y-40.87391
G01 X-48.22567 Y-40.83835
G01 X-48.17962 Y-40.79029
G01 X-45.52222 Y-38.13442
G01 X-45.47995 Y-38.08852
G01 X-45.35986 Y-37.94371
G01 X-45.17734 Y-37.69076
G01 X-44.95618 Y-37.37171
G01 X-44.92804 Y-37.28029
G01 X-45.09309 Y-37.16429
G01 X-45.29812 Y-37.04674
G01 X-45.42120 Y-36.98966
G01 X-45.57912 Y-36.93135
G01 X-45.70223 Y-36.89744
G01 X-45.84348 Y-36.87140
G01 X-45.98183 Y-36.85850
G01 X-46.05186 Y-36.85522
G01 X-47.84724 Y-36.85522
G01 X-48.03258 Y-36.86800
G01 X-48.12486 Y-36.88118
G01 X-48.31716 Y-37.01412
G01 X-48.40334 Y-37.06813
G01 X-48.45640 Y-37.09855
G01 X-48.58157 Y-37.15215
G01 X-48.67837 Y-37.18321
G01 X-48.80593 Y-37.21197
G01 X-48.98996 Y-37.22700
G01 X-49.17403 Y-37.21204
G01 X-49.25574 Y-37.19459
G01 X-49.62653 Y-37.09873
G01 X-49.91772 Y-37.04128
G01 X-50.03900 Y-37.02307
G01 X-50.08551 Y-36.89571
G01 X-50.12927 Y-36.75583
G01 X-50.17598 Y-36.56622
G01 X-50.21253 Y-36.34240
G01 X-50.22508 Y-36.20160
G01 X-50.22968 Y-36.07239
G01 X-50.22760 Y-35.94621
G01 X-50.22031 Y-35.83285
G01 X-50.20458 Y-35.69619
G01 X-50.18632 Y-35.58532
G01 X-50.13608 Y-35.36805
G01 X-50.06293 Y-35.14014
G01 X-50.03925 Y-35.07773
G01 X-49.71812 Y-35.02063
G01 X-49.51208 Y-34.97349
G01 X-49.32244 Y-34.92203
G01 X-49.17408 Y-34.88766
G01 X-49.03382 Y-34.87527
G01 X-48.98998 Y-34.87316
G01 X-48.80593 Y-34.88804
G01 X-48.62724 Y-34.93033
G01 X-48.47106 Y-34.99495
G01 X-48.28808 Y-35.08827
G01 X-48.19481 Y-35.09912
G01 X-48.07190 Y-35.10470
G01 X-45.85445 Y-35.10470
G01 X-45.66916 Y-35.09193
G01 X-45.53784 Y-35.06988
G01 X-45.41473 Y-35.03869
G01 X-45.26091 Y-34.98548
G01 X-45.13782 Y-34.93148
G01 X-45.00957 Y-34.86628
G04 P0 ( dwell for no time -- G64 should not smooth over this point )
G00 Z2.00000 ( retract )

G00 X-54.70785 Y-41.19375 ( rapid move to begin. )
G01 F100.00000
( Mill infeed pass 1/1 )
G01 Z-0.30000
G04 P0 ( dwell for no time -- G64 should not smooth over this point )
G01 F100.00000
G01 X-54.70785 Y-41.19375
G01 X-54.56942 Y-41.11742
G01 X-54.44664 Y-41.04096
G01 X-54.28586 Y-40.92636
G01 X-54.17128 Y-40.83317
G01 X-54.01489 Y-40.68681
G01 X-53.92431 Y-40.58999
G01 X-53.82980 Y-40.47772
G01 X-53.81900 Y-40.43835
G01 X-53.77100 Y-40.22634
G01 X-53.75098 Y-40.09865
G01 X-53.73777 Y-39.97256
G01 X-53.73109 Y-39.84798
G01 X-53.73081 Y-39.72375
G01 X-53.74171 Y-39.54493
G01 X-53.76759 Y-39.35405
G01 X-53.80643 Y-39.16997
G01 X-53.84501 Y-39.03167
G01 X-53.90930 Y-38.84602
G01 X-53.95085 Y-38.65062
G01 X-54.00475 Y-38.47114
G01 X-54.02342 Y-38.41953
G01 X-54.14080 Y-38.39080
G01 X-54.33498 Y-38.33216
G01 X-54.46023 Y-38.28329
G01 X-54.60663 Y-38.21214
G01 X-54.71575 Y-38.14714
G01 X-54.82426 Y-38.06982
G01 X-54.96431 Y-37.94783
G01 X-56.00874 Y-36.90318
G01 X-56.13894 Y-36.74923
G01 X-56.21526 Y-36.63719
G01 X-56.30117 Y-36.48484
G01 X-56.45316 Y-36.17727
G01 X-56.52992 Y-36.01306
G04 P0 ( dwell for no time -- G64 should not smooth over this point )
G00 Z2.00000 ( retract )

G00 X-56.92263 Y-39.20020 ( rapid move to begin. )
G01 F100.00000
( Mill infeed pass 1/1 )
G01 Z-0.30000
G04 P0 ( dwell for no time -- G64 should not smooth over this point )
G01 F100.00000
G01 X-56.92263 Y-39.20020
G01 X-57.20424 Y-39.67828
G01 X-57.33332 Y-39.92570
G01 X-57.47089 Y-40.22888
G01 X-57.50957 Y-40.30050
G01 X-57.59060 Y-40.42220
G01 X-57.64536 Y-40.48445
G01 X-57.71686 Y-40.55892
G01 X-57.82723 Y-40.64696
G01 X-57.86360 Y-40.67340
G01 X-57.91960 Y-40.70581
G01 X-58.02717 Y-40.76220
G01 X-58.20342 Y-40.82212
G01 X-58.28135 Y-40.83746
G01 X-58.70982 Y-40.90269
G01 X-58.99090 Y-40.96042
G01 X-59.30076 Y-41.03784
G04 P0 ( dwell for no time -- G64 should not smooth over this point )
G00 Z2.00000 ( retract )

G00 X-64.33229 Y-36.74128 ( rapid move to begin. )
G01 F100.00000
( Mill infeed pass 1/1 )
G01 Z-0.30000
G04 P0 ( dwell for no time -- G64 should not smooth over this point )
G01 F100.00000
G01 X-64.33229 Y-36.74128
G01 X-64.11700 Y-36.69043
G01 X-63.86953 Y-36.61872
G01 X-63.78132 Y-36.59129
G01 X-63.49607 Y-36.49050
G01 X-63.35406 Y-36.45774
G01 X-63.16999 Y-36.44293
G01 X-62.98591 Y-36.45792
G01 X-62.80626 Y-36.50059
G01 X-62.63580 Y-36.57163
G01 X-62.37954 Y-36.72337
G01 X-62.36676 Y-36.72586
G01 X-62.26057 Y-36.73912
