( pcb2gcode 2.5.0 )
( Software-independent Gcode )

( This file uses 9 drill bit sizes. )
( Bit sizes: [0.8mm] [1.02mm] [1.1mm] [1.2mm] [1.4mm] [1.5mm] [1.52mm] [1.8mm] [2.2mm] )

G94       (Millimeters per minute feed rate.)
G21       (Units == Millimeters.)
G91.1     (Incremental arc distance mode.)
G90       (Absolute coordinates.)
G00 S24000     (RPM spindle speed.)

G00 Z35.00000 (Retract)
T1
M5      (Spindle stop.)
G04 P1.00000
(MSG, Change tool bit to drill size 0.8mm)
M0      (Temporary machine stop.)
M3      (Spindle on clockwise.)
G0 Z2.00000
G04 P1.00000

G1 F200.00000
G0 X-48.99000 Y-36.05000
G1 Z-2.50000
G1 Z2.00000
G0 X-48.99000 Y-28.43000
G1 Z-2.50000
G1 Z2.00000
G0 X-54.95000 Y-29.62000
G1 Z-2.50000
G1 Z2.00000
G0 X-58.49000 Y-26.44000
G1 Z-2.50000
G1 Z2.00000
G0 X-66.11000 Y-26.44000
G1 Z-2.50000
G1 Z2.00000
G0 X-71.65000 Y-28.84000
G1 Z-2.50000
G1 Z2.00000
G0 X-74.19000 Y-28.84000
G1 Z-2.50000
G1 Z2.00000
G0 X-76.73000 Y-28.84000
G1 Z-2.50000
G1 Z2.00000
G0 X-85.65000 Y-28.41000
G1 Z-2.50000
G1 Z2.00000
G0 X-87.63000 Y-31.26000
G1 Z-2.50000
G1 Z2.00000
G0 X-93.27000 Y-28.41000
G1 Z-2.50000
G1 Z2.00000
G0 X-95.75000 Y-26.56000
G1 Z-2.50000
G1 Z2.00000
G0 X-103.37000 Y-26.56000
G1 Z-2.50000
G1 Z2.00000
G0 X-105.63000 Y-25.22000
G1 Z-2.50000
G1 Z2.00000
G0 X-113.25000 Y-25.22000
G1 Z-2.50000
G1 Z2.00000
G0 X-113.94000 Y-30.17000
G1 Z-2.50000
G1 Z2.00000
G0 X-110.80000 Y-30.17000
G1 Z-2.50000
G1 Z2.00000
G0 X-107.39000 Y-28.17000
G1 Z-2.50000
G1 Z2.00000
G0 X-103.75000 Y-29.94000
G1 Z-2.50000
G1 Z2.00000
G0 X-101.21000 Y-29.94000
G1 Z-2.50000
G1 Z2.00000
G0 X-98.67000 Y-29.94000
G1 Z-2.50000
G1 Z2.00000
G0 X-96.13000 Y-29.94000
G1 Z-2.50000
G1 Z2.00000
G0 X-92.84000 Y-32.82000
G1 Z-2.50000
G1 Z2.00000
G0 X-92.84000 Y-37.82000
G1 Z-2.50000
G1 Z2.00000
G0 X-96.13000 Y-37.56000
G1 Z-2.50000
G1 Z2.00000
G0 X-98.67000 Y-37.56000
G1 Z-2.50000
G1 Z2.00000
G0 X-101.21000 Y-37.56000
G1 Z-2.50000
G1 Z2.00000
G0 X-103.75000 Y-37.56000
G1 Z-2.50000
G1 Z2.00000
G0 X-107.39000 Y-35.79000
G1 Z-2.50000
G1 Z2.00000
G0 X-107.60000 Y-38.27000
G1 Z-2.50000
G1 Z2.00000
G0 X-110.80000 Y-37.79000
G1 Z-2.50000
G1 Z2.00000
G0 X-113.94000 Y-37.79000
G1 Z-2.50000
G1 Z2.00000
G0 X-115.71000 Y-40.54000
G1 Z-2.50000
G1 Z2.00000
G0 X-113.16000 Y-43.37000
G1 Z-2.50000
G1 Z2.00000
G0 X-110.71000 Y-40.54000
G1 Z-2.50000
G1 Z2.00000
G0 X-107.60000 Y-43.27000
G1 Z-2.50000
G1 Z2.00000
G0 X-110.77000 Y-47.71000
G1 Z-2.50000
G1 Z2.00000
G0 X-113.16000 Y-50.99000
G1 Z-2.50000
G1 Z2.00000
G0 X-110.91000 Y-55.16000
G1 Z-2.50000
G1 Z2.00000
G0 X-103.29000 Y-55.16000
G1 Z-2.50000
G1 Z2.00000
G0 X-103.15000 Y-47.71000
G1 Z-2.50000
G1 Z2.00000
G0 X-104.98000 Y-44.31000
G1 Z-2.50000
G1 Z2.00000
G0 X-98.83000 Y-47.93000
G1 Z-2.50000
G1 Z2.00000
G0 X-93.83000 Y-47.93000
G1 Z-2.50000
G1 Z2.00000
G0 X-94.82000 Y-44.31000
G1 Z-2.50000
G1 Z2.00000
G0 X-92.44000 Y-44.37000
G1 Z-2.50000
G1 Z2.00000
G0 X-87.44000 Y-44.37000
G1 Z-2.50000
G1 Z2.00000
G0 X-84.24000 Y-46.21000
G1 Z-2.50000
G1 Z2.00000
G0 X-87.63000 Y-41.42000
G1 Z-2.50000
G1 Z2.00000
G0 X-84.24000 Y-38.59000
G1 Z-2.50000
G1 Z2.00000
G0 X-80.43000 Y-42.33000
G1 Z-2.50000
G1 Z2.00000
G0 X-80.43000 Y-39.79000
G1 Z-2.50000
G1 Z2.00000
G0 X-80.43000 Y-37.25000
G1 Z-2.50000
G1 Z2.00000
G0 X-75.97000 Y-34.64000
G1 Z-2.50000
G1 Z2.00000
G0 X-73.33000 Y-37.62000
G1 Z-2.50000
G1 Z2.00000
G0 X-75.97000 Y-42.26000
G1 Z-2.50000
G1 Z2.00000
G0 X-67.91000 Y-50.30000
G1 Z-2.50000
G1 Z2.00000
G0 X-67.91000 Y-42.68000
G1 Z-2.50000
G1 Z2.00000
G0 X-63.17000 Y-37.62000
G1 Z-2.50000
G1 Z2.00000
G0 X-58.48000 Y-34.65000
G1 Z-2.50000
G1 Z2.00000
G0 X-58.48000 Y-37.19000
G1 Z-2.50000
G1 Z2.00000
G0 X-58.48000 Y-39.73000
G1 Z-2.50000
G1 Z2.00000
G0 X-54.95000 Y-39.78000
G1 Z-2.50000
G1 Z2.00000
G0 X-48.63000 Y-46.00000
G1 Z-2.50000
G1 Z2.00000
G0 X-48.63000 Y-53.62000
G1 Z-2.50000
G1 Z2.00000
G0 X-49.52000 Y-61.37000
G1 Z-2.50000
G1 Z2.00000
G0 X-51.52000 Y-61.37000
G1 Z-2.50000
G1 Z2.00000
G0 X-49.66000 Y-67.44000
G1 Z-2.50000
G1 Z2.00000
G0 X-51.66000 Y-67.44000
G1 Z-2.50000
G1 Z2.00000
G0 X-68.00000 Y-68.40000
G1 Z-2.50000
G1 Z2.00000
G0 X-71.13000 Y-68.40000
G1 Z-2.50000
G1 Z2.00000
G0 X-74.31000 Y-68.38000
G1 Z-2.50000
G1 Z2.00000
G0 X-68.00000 Y-73.40000
G1 Z-2.50000
G1 Z2.00000
G0 X-71.13000 Y-73.40000
G1 Z-2.50000
G1 Z2.00000
G0 X-74.31000 Y-76.00000
G1 Z-2.50000
G1 Z2.00000

G00 Z35.00000 (Retract)
T2
M5      (Spindle stop.)
G04 P1.00000
(MSG, Change tool bit to drill size 1.02mm)
M0      (Temporary machine stop.)
M3      (Spindle on clockwise.)
G0 Z2.00000
G04 P1.00000

G1 F200.00000
G0 X-26.10000 Y-28.39000
G1 Z-2.50000
G1 Z2.00000
G0 X-26.10000 Y-30.93000
G1 Z-2.50000
G1 Z2.00000
G0 X-26.10000 Y-33.47000
G1 Z-2.50000
G1 Z2.00000
G0 X-26.10000 Y-36.01000
G1 Z-2.50000
G1 Z2.00000
G0 X-26.10000 Y-38.55000
G1 Z-2.50000
G1 Z2.00000
G0 X-26.10000 Y-41.09000
G1 Z-2.50000
G1 Z2.00000
G0 X-26.10000 Y-43.63000
G1 Z-2.50000
G1 Z2.00000
G0 X-26.10000 Y-46.17000
G1 Z-2.50000
G1 Z2.00000
G0 X-26.10000 Y-48.71000
G1 Z-2.50000
G1 Z2.00000
G0 X-26.10000 Y-51.25000
G1 Z-2.50000
G1 Z2.00000
G0 X-26.10000 Y-53.79000
G1 Z-2.50000
G1 Z2.00000
G0 X-26.10000 Y-56.33000
G1 Z-2.50000
G1 Z2.00000
G0 X-26.10000 Y-58.87000
G1 Z-2.50000
G1 Z2.00000
G0 X-26.10000 Y-61.41000
G1 Z-2.50000
G1 Z2.00000
G0 X-26.10000 Y-63.95000
G1 Z-2.50000
G1 Z2.00000
G0 X-26.10000 Y-66.49000
G1 Z-2.50000
G1 Z2.00000
G0 X-26.10000 Y-69.03000
G1 Z-2.50000
G1 Z2.00000
G0 X-26.10000 Y-71.57000
G1 Z-2.50000
G1 Z2.00000
G0 X-26.10000 Y-74.11000
G1 Z-2.50000
G1 Z2.00000
G0 X-26.10000 Y-76.65000
G1 Z-2.50000
G1 Z2.00000
G0 X-32.45000 Y-76.42000
G1 Z-2.50000
G1 Z2.00000
G0 X-34.99000 Y-76.42000
G1 Z-2.50000
G1 Z2.00000
G0 X-37.53000 Y-76.42000
G1 Z-2.50000
G1 Z2.00000
G0 X-43.88000 Y-76.65000
G1 Z-2.50000
G1 Z2.00000
G0 X-43.88000 Y-74.11000
G1 Z-2.50000
G1 Z2.00000
G0 X-43.88000 Y-71.57000
G1 Z-2.50000
G1 Z2.00000
G0 X-43.88000 Y-69.03000
G1 Z-2.50000
G1 Z2.00000
G0 X-43.88000 Y-66.49000
G1 Z-2.50000
G1 Z2.00000
G0 X-43.88000 Y-63.95000
G1 Z-2.50000
G1 Z2.00000
G0 X-43.88000 Y-61.41000
G1 Z-2.50000
G1 Z2.00000
G0 X-43.88000 Y-58.87000
G1 Z-2.50000
G1 Z2.00000
G0 X-43.88000 Y-56.33000
G1 Z-2.50000
G1 Z2.00000
G0 X-43.88000 Y-53.79000
G1 Z-2.50000
G1 Z2.00000
G0 X-43.88000 Y-51.25000
G1 Z-2.50000
G1 Z2.00000
G0 X-43.88000 Y-48.71000
G1 Z-2.50000
G1 Z2.00000
G0 X-43.88000 Y-46.17000
G1 Z-2.50000
G1 Z2.00000
G0 X-43.88000 Y-43.63000
G1 Z-2.50000
G1 Z2.00000
G0 X-43.88000 Y-41.09000
G1 Z-2.50000
G1 Z2.00000
G0 X-43.88000 Y-38.55000
G1 Z-2.50000
G1 Z2.00000
G0 X-43.88000 Y-36.01000
G1 Z-2.50000
G1 Z2.00000
G0 X-43.88000 Y-33.47000
G1 Z-2.50000
G1 Z2.00000
G0 X-43.88000 Y-30.93000
G1 Z-2.50000
G1 Z2.00000
G0 X-43.88000 Y-28.39000
G1 Z-2.50000
G1 Z2.00000

G00 Z35.00000 (Retract)
T3
M5      (Spindle stop.)
G04 P1.00000
(MSG, Change tool bit to drill size 1.1mm)
M0      (Temporary machine stop.)
M3      (Spindle on clockwise.)
G0 Z2.00000
G04 P1.00000

G1 F200.00000
G0 X-51.83000 Y-44.16000
G1 Z-2.50000
G1 Z2.00000
G0 X-51.83000 Y-56.86000
G1 Z-2.50000
G1 Z2.00000
G0 X-57.17000 Y-58.70000
G1 Z-2.50000
G1 Z2.00000
G0 X-57.17000 Y-61.24000
G1 Z-2.50000
G1 Z2.00000
G0 X-57.17000 Y-63.78000
G1 Z-2.50000
G1 Z2.00000
G0 X-72.63000 Y-49.87000
G1 Z-2.50000
G1 Z2.00000
G0 X-75.17000 Y-49.87000
G1 Z-2.50000
G1 Z2.00000
G0 X-77.71000 Y-49.87000
G1 Z-2.50000
G1 Z2.00000
G0 X-82.29000 Y-68.41000
G1 Z-2.50000
G1 Z2.00000
G0 X-86.25000 Y-68.47000
G1 Z-2.50000
G1 Z2.00000
G0 X-86.25000 Y-76.09000
G1 Z-2.50000
G1 Z2.00000
G0 X-82.29000 Y-76.03000
G1 Z-2.50000
G1 Z2.00000
G0 X-78.16000 Y-76.20000
G1 Z-2.50000
G1 Z2.00000
G0 X-78.16000 Y-68.58000
G1 Z-2.50000
G1 Z2.00000

G00 Z35.00000 (Retract)
T4
M5      (Spindle stop.)
G04 P1.00000
(MSG, Change tool bit to drill size 1.2mm)
M0      (Temporary machine stop.)
M3      (Spindle on clockwise.)
G0 Z2.00000
G04 P1.00000

G1 F200.00000
G0 X-74.95000 Y-57.25000
G1 Z-2.50000
G1 Z2.00000
G0 X-74.95000 Y-62.25000
G1 Z-2.50000
G1 Z2.00000

G00 Z35.00000 (Retract)
T5
M5      (Spindle stop.)
G04 P1.00000
(MSG, Change tool bit to drill size 1.4mm)
M0      (Temporary machine stop.)
M3      (Spindle on clockwise.)
G0 Z2.00000
G04 P1.00000

G1 F200.00000
G0 X-62.94000 Y-49.01000
G1 Z-2.50000
G1 Z2.00000
G0 X-62.94000 Y-64.25000
G1 Z-2.50000
G1 Z2.00000
G0 X-86.75000 Y-49.47000
G1 Z-2.50000
G1 Z2.00000
G0 X-86.75000 Y-64.71000
G1 Z-2.50000
G1 Z2.00000

G00 Z35.00000 (Retract)
T8
M5      (Spindle stop.)
G04 P1.00000
(MSG, Change tool bit to drill size 1.5mm)
M0      (Temporary machine stop.)
M3      (Spindle on clockwise.)
G0 Z2.00000
G04 P1.00000

G1 F200.00000
G0 X-32.56500 Y-31.55000
G1 Z-2.50000
G1 Z2.00000
G0 X-37.41500 Y-31.55000
G1 Z-2.50000
G1 Z2.00000

G00 Z35.00000 (Retract)
T6
M5      (Spindle stop.)
G04 P1.00000
(MSG, Change tool bit to drill size 1.52mm)
M0      (Temporary machine stop.)
M3      (Spindle on clockwise.)
G0 Z2.00000
G04 P1.00000

G1 F200.00000
G0 X-50.00000 Y-74.82000
G1 Z-2.50000
G1 Z2.00000
G0 X-55.08000 Y-74.82000
G1 Z-2.50000
G1 Z2.00000

G00 Z35.00000 (Retract)
T9
M5      (Spindle stop.)
G04 P1.00000
(MSG, Change tool bit to drill size 1.8mm)
M0      (Temporary machine stop.)
M3      (Spindle on clockwise.)
G0 Z2.00000
G04 P1.00000

G1 F200.00000
G0 X-32.26500 Y-28.52000
G1 Z-2.50000
G1 Z2.00000
G0 X-37.71500 Y-28.52000
G1 Z-2.50000
G1 Z2.00000

G00 Z35.00000 (Retract)
T7
M5      (Spindle stop.)
G04 P1.00000
(MSG, Change tool bit to drill size 2.2mm)
M0      (Temporary machine stop.)
M3      (Spindle on clockwise.)
G0 Z2.00000
G04 P1.00000

G1 F200.00000
G0 X-62.25000 Y-68.50000
G1 Z-2.50000
G1 Z2.00000
G0 X-62.31000 Y-74.81000
G1 Z-2.50000
G1 Z2.00000

G00 Z35.000 ( All done -- retract )

M5      (Spindle off.)
G04 P1.000000
M9      (Coolant off.)
M2      (Program end.)

