( pcb2gcode 2.5.0 )
( Software-independent Gcode )

( This file uses only one drill bit. Forced by 'onedrill' option )

G94       (Millimeters per minute feed rate.)
G21       (Units == Millimeters.)
G91.1     (Incremental arc distance mode.)
G90       (Absolute coordinates.)
G00 S24000     (RPM spindle speed.)

G00 Z35.00000 (Retract)
T1
M5      (Spindle stop.)
G04 P1.00000
(MSG, Change tool bit to drill size 0.8mm)
M0      (Temporary machine stop.)
M3      (Spindle on clockwise.)
G0 Z2.00000
G04 P1.00000

G1 F200.00000
G0 X-6.10000 Y-7.39000
G1 Z-2.50000
G1 Z2.00000
G0 X-6.10000 Y-9.93000
G1 Z-2.50000
G1 Z2.00000
G0 X-6.10000 Y-12.47000
G1 Z-2.50000
G1 Z2.00000
G0 X-12.26500 Y-7.52000
G1 Z-2.50000
G1 Z2.00000
G0 X-12.56500 Y-10.55000
G1 Z-2.50000
G1 Z2.00000
G0 X-17.41500 Y-10.55000
G1 Z-2.50000
G1 Z2.00000
G0 X-17.71500 Y-7.52000
G1 Z-2.50000
G1 Z2.00000
G0 X-23.88000 Y-7.39000
G1 Z-2.50000
G1 Z2.00000
G0 X-23.88000 Y-9.93000
G1 Z-2.50000
G1 Z2.00000
G0 X-28.99000 Y-7.43000
G1 Z-2.50000
G1 Z2.00000
G0 X-23.88000 Y-12.47000
G1 Z-2.50000
G1 Z2.00000
G0 X-23.88000 Y-15.01000
G1 Z-2.50000
G1 Z2.00000
G0 X-28.99000 Y-15.05000
G1 Z-2.50000
G1 Z2.00000
G0 X-23.88000 Y-17.55000
G1 Z-2.50000
G1 Z2.00000
G0 X-23.88000 Y-20.09000
G1 Z-2.50000
G1 Z2.00000
G0 X-23.88000 Y-22.63000
G1 Z-2.50000
G1 Z2.00000
G0 X-23.88000 Y-25.17000
G1 Z-2.50000
G1 Z2.00000
G0 X-23.88000 Y-27.71000
G1 Z-2.50000
G1 Z2.00000
G0 X-23.88000 Y-30.25000
G1 Z-2.50000
G1 Z2.00000
G0 X-23.88000 Y-32.79000
G1 Z-2.50000
G1 Z2.00000
G0 X-23.88000 Y-35.33000
G1 Z-2.50000
G1 Z2.00000
G0 X-23.88000 Y-37.87000
G1 Z-2.50000
G1 Z2.00000
G0 X-23.88000 Y-40.41000
G1 Z-2.50000
G1 Z2.00000
G0 X-23.88000 Y-42.95000
G1 Z-2.50000
G1 Z2.00000
G0 X-23.88000 Y-45.49000
G1 Z-2.50000
G1 Z2.00000
G0 X-23.88000 Y-48.03000
G1 Z-2.50000
G1 Z2.00000
G0 X-29.52000 Y-40.37000
G1 Z-2.50000
G1 Z2.00000
G0 X-31.52000 Y-40.37000
G1 Z-2.50000
G1 Z2.00000
G0 X-29.66000 Y-46.44000
G1 Z-2.50000
G1 Z2.00000
G0 X-31.66000 Y-46.44000
G1 Z-2.50000
G1 Z2.00000
G0 X-37.17000 Y-42.78000
G1 Z-2.50000
G1 Z2.00000
G0 X-37.17000 Y-40.24000
G1 Z-2.50000
G1 Z2.00000
G0 X-37.17000 Y-37.70000
G1 Z-2.50000
G1 Z2.00000
G0 X-31.83000 Y-35.86000
G1 Z-2.50000
G1 Z2.00000
G0 X-28.63000 Y-32.62000
G1 Z-2.50000
G1 Z2.00000
G0 X-28.63000 Y-25.00000
G1 Z-2.50000
G1 Z2.00000
G0 X-31.83000 Y-23.16000
G1 Z-2.50000
G1 Z2.00000
G0 X-34.95000 Y-18.78000
G1 Z-2.50000
G1 Z2.00000
G0 X-38.48000 Y-16.19000
G1 Z-2.50000
G1 Z2.00000
G0 X-38.48000 Y-18.73000
G1 Z-2.50000
G1 Z2.00000
G0 X-43.17000 Y-16.62000
G1 Z-2.50000
G1 Z2.00000
G0 X-38.48000 Y-13.65000
G1 Z-2.50000
G1 Z2.00000
G0 X-34.95000 Y-8.62000
G1 Z-2.50000
G1 Z2.00000
G0 X-38.49000 Y-5.44000
G1 Z-2.50000
G1 Z2.00000
G0 X-46.11000 Y-5.44000
G1 Z-2.50000
G1 Z2.00000
G0 X-51.65000 Y-7.84000
G1 Z-2.50000
G1 Z2.00000
G0 X-54.19000 Y-7.84000
G1 Z-2.50000
G1 Z2.00000
G0 X-56.73000 Y-7.84000
G1 Z-2.50000
G1 Z2.00000
G0 X-55.97000 Y-13.64000
G1 Z-2.50000
G1 Z2.00000
G0 X-53.33000 Y-16.62000
G1 Z-2.50000
G1 Z2.00000
G0 X-48.33000 Y-21.65000
G1 Z-2.50000
G1 Z2.00000
G0 X-43.43400 Y-27.94000
G1 Z-2.50000
G1 Z2.00000
G0 X-48.33000 Y-29.27000
G1 Z-2.50000
G1 Z2.00000
G0 X-52.87000 Y-30.48000
G1 Z-2.50000
G1 Z2.00000
G0 X-55.41000 Y-30.48000
G1 Z-2.50000
G1 Z2.00000
G0 X-57.95000 Y-30.48000
G1 Z-2.50000
G1 Z2.00000
G0 X-64.24000 Y-25.21000
G1 Z-2.50000
G1 Z2.00000
G0 X-67.44000 Y-23.37000
G1 Z-2.50000
G1 Z2.00000
G0 X-60.43000 Y-21.33000
G1 Z-2.50000
G1 Z2.00000
G0 X-55.97000 Y-21.26000
G1 Z-2.50000
G1 Z2.00000
G0 X-60.43000 Y-18.79000
G1 Z-2.50000
G1 Z2.00000
G0 X-60.43000 Y-16.25000
G1 Z-2.50000
G1 Z2.00000
G0 X-64.24000 Y-17.59000
G1 Z-2.50000
G1 Z2.00000
G0 X-67.63000 Y-20.42000
G1 Z-2.50000
G1 Z2.00000
G0 X-72.84000 Y-16.82000
G1 Z-2.50000
G1 Z2.00000
G0 X-76.13000 Y-16.56000
G1 Z-2.50000
G1 Z2.00000
G0 X-78.67000 Y-16.56000
G1 Z-2.50000
G1 Z2.00000
G0 X-81.21000 Y-16.56000
G1 Z-2.50000
G1 Z2.00000
G0 X-83.75000 Y-16.56000
G1 Z-2.50000
G1 Z2.00000
G0 X-76.13000 Y-8.94000
G1 Z-2.50000
G1 Z2.00000
G0 X-72.84000 Y-11.82000
G1 Z-2.50000
G1 Z2.00000
G0 X-67.63000 Y-10.26000
G1 Z-2.50000
G1 Z2.00000
G0 X-65.65000 Y-7.41000
G1 Z-2.50000
G1 Z2.00000
G0 X-73.27000 Y-7.41000
G1 Z-2.50000
G1 Z2.00000
G0 X-75.75000 Y-5.56000
G1 Z-2.50000
G1 Z2.00000
G0 X-78.67000 Y-8.94000
G1 Z-2.50000
G1 Z2.00000
G0 X-81.21000 Y-8.94000
G1 Z-2.50000
G1 Z2.00000
G0 X-83.75000 Y-8.94000
G1 Z-2.50000
G1 Z2.00000
G0 X-83.37000 Y-5.56000
G1 Z-2.50000
G1 Z2.00000
G0 X-85.63000 Y-4.22000
G1 Z-2.50000
G1 Z2.00000
G0 X-87.39000 Y-7.17000
G1 Z-2.50000
G1 Z2.00000
G0 X-90.80000 Y-9.17000
G1 Z-2.50000
G1 Z2.00000
G0 X-93.25000 Y-4.22000
G1 Z-2.50000
G1 Z2.00000
G0 X-93.94000 Y-9.17000
G1 Z-2.50000
G1 Z2.00000
G0 X-87.39000 Y-14.79000
G1 Z-2.50000
G1 Z2.00000
G0 X-87.60000 Y-17.27000
G1 Z-2.50000
G1 Z2.00000
G0 X-90.71000 Y-19.54000
G1 Z-2.50000
G1 Z2.00000
G0 X-90.80000 Y-16.79000
G1 Z-2.50000
G1 Z2.00000
G0 X-93.94000 Y-16.79000
G1 Z-2.50000
G1 Z2.00000
G0 X-95.71000 Y-19.54000
G1 Z-2.50000
G1 Z2.00000
G0 X-93.16000 Y-22.37000
G1 Z-2.50000
G1 Z2.00000
G0 X-90.77000 Y-26.71000
G1 Z-2.50000
G1 Z2.00000
G0 X-93.16000 Y-29.99000
G1 Z-2.50000
G1 Z2.00000
G0 X-92.66000 Y-32.81000
G1 Z-2.50000
G1 Z2.00000
G0 X-90.20000 Y-33.11000
G1 Z-2.50000
G1 Z2.00000
G0 X-90.21000 Y-36.01000
G1 Z-2.50000
G1 Z2.00000
G0 X-97.66000 Y-32.81000
G1 Z-2.50000
G1 Z2.00000
G0 X-87.60000 Y-22.27000
G1 Z-2.50000
G1 Z2.00000
G0 X-84.98000 Y-23.31000
G1 Z-2.50000
G1 Z2.00000
G0 X-83.15000 Y-26.71000
G1 Z-2.50000
G1 Z2.00000
G0 X-78.83000 Y-26.93000
G1 Z-2.50000
G1 Z2.00000
G0 X-74.82000 Y-23.31000
G1 Z-2.50000
G1 Z2.00000
G0 X-72.44000 Y-23.37000
G1 Z-2.50000
G1 Z2.00000
G0 X-73.83000 Y-26.93000
G1 Z-2.50000
G1 Z2.00000
G0 X-82.58000 Y-33.11000
G1 Z-2.50000
G1 Z2.00000
G0 X-82.59000 Y-36.01000
G1 Z-2.50000
G1 Z2.00000
G0 X-78.17000 Y-34.35000
G1 Z-2.50000
G1 Z2.00000
G0 X-69.38000 Y-41.96000
G1 Z-2.50000
G1 Z2.00000
G0 X-64.30000 Y-41.96000
G1 Z-2.50000
G1 Z2.00000
G0 X-62.93000 Y-34.35000
G1 Z-2.50000
G1 Z2.00000
G0 X-54.10200 Y-37.33800
G1 Z-2.50000
G1 Z2.00000
G0 X-54.10200 Y-42.33800
G1 Z-2.50000
G1 Z2.00000
G0 X-58.14000 Y-48.15000
G1 Z-2.50000
G1 Z2.00000
G0 X-61.27000 Y-48.15000
G1 Z-2.50000
G1 Z2.00000
G0 X-64.45000 Y-48.13000
G1 Z-2.50000
G1 Z2.00000
G0 X-68.30000 Y-48.33000
G1 Z-2.50000
G1 Z2.00000
G0 X-72.43000 Y-48.16000
G1 Z-2.50000
G1 Z2.00000
G0 X-76.39000 Y-48.22000
G1 Z-2.50000
G1 Z2.00000
G0 X-76.39000 Y-55.84000
G1 Z-2.50000
G1 Z2.00000
G0 X-72.43000 Y-55.78000
G1 Z-2.50000
G1 Z2.00000
G0 X-68.30000 Y-55.95000
G1 Z-2.50000
G1 Z2.00000
G0 X-64.45000 Y-55.75000
G1 Z-2.50000
G1 Z2.00000
G0 X-61.27000 Y-53.15000
G1 Z-2.50000
G1 Z2.00000
G0 X-58.14000 Y-53.15000
G1 Z-2.50000
G1 Z2.00000
G0 X-50.62000 Y-52.84000
G1 Z-2.50000
G1 Z2.00000
G0 X-50.62000 Y-54.84000
G1 Z-2.50000
G1 Z2.00000
G0 X-50.62000 Y-53.93091
G1 Z-2.50000
G1 Z2.00000
G0 X-50.62000 Y-53.38545
G1 Z-2.50000
G1 Z2.00000
G0 X-50.62000 Y-54.47636
G1 Z-2.50000
G1 Z2.00000
G0 X-50.62000 Y-53.20364
G1 Z-2.50000
G1 Z2.00000
G0 X-50.62000 Y-53.56727
G1 Z-2.50000
G1 Z2.00000
G0 X-50.62000 Y-54.29455
G1 Z-2.50000
G1 Z2.00000
G0 X-50.62000 Y-54.65818
G1 Z-2.50000
G1 Z2.00000
G0 X-50.62000 Y-53.02182
G1 Z-2.50000
G1 Z2.00000
G0 X-50.62000 Y-53.74909
G1 Z-2.50000
G1 Z2.00000
G0 X-50.62000 Y-54.11273
G1 Z-2.50000
G1 Z2.00000
G0 X-46.92000 Y-56.84000
G1 Z-2.50000
G1 Z2.00000
G0 X-44.92000 Y-56.84000
G1 Z-2.50000
G1 Z2.00000
G0 X-45.82909 Y-56.84000
G1 Z-2.50000
G1 Z2.00000
G0 X-46.37455 Y-56.84000
G1 Z-2.50000
G1 Z2.00000
G0 X-45.28364 Y-56.84000
G1 Z-2.50000
G1 Z2.00000
G0 X-46.55636 Y-56.84000
G1 Z-2.50000
G1 Z2.00000
G0 X-46.19273 Y-56.84000
G1 Z-2.50000
G1 Z2.00000
G0 X-45.46545 Y-56.84000
G1 Z-2.50000
G1 Z2.00000
G0 X-45.10182 Y-56.84000
G1 Z-2.50000
G1 Z2.00000
G0 X-46.73818 Y-56.84000
G1 Z-2.50000
G1 Z2.00000
G0 X-46.01091 Y-56.84000
G1 Z-2.50000
G1 Z2.00000
G0 X-45.64727 Y-56.84000
G1 Z-2.50000
G1 Z2.00000
G0 X-46.92000 Y-50.84000
G1 Z-2.50000
G1 Z2.00000
G0 X-44.92000 Y-50.84000
G1 Z-2.50000
G1 Z2.00000
G0 X-45.82909 Y-50.84000
G1 Z-2.50000
G1 Z2.00000
G0 X-46.37455 Y-50.84000
G1 Z-2.50000
G1 Z2.00000
G0 X-45.28364 Y-50.84000
G1 Z-2.50000
G1 Z2.00000
G0 X-46.55636 Y-50.84000
G1 Z-2.50000
G1 Z2.00000
G0 X-46.19273 Y-50.84000
G1 Z-2.50000
G1 Z2.00000
G0 X-45.46545 Y-50.84000
G1 Z-2.50000
G1 Z2.00000
G0 X-45.10182 Y-50.84000
G1 Z-2.50000
G1 Z2.00000
G0 X-46.73818 Y-50.84000
G1 Z-2.50000
G1 Z2.00000
G0 X-46.01091 Y-50.84000
G1 Z-2.50000
G1 Z2.00000
G0 X-45.64727 Y-50.84000
G1 Z-2.50000
G1 Z2.00000
G0 X-43.43400 Y-43.18000
G1 Z-2.50000
G1 Z2.00000
G0 X-35.08000 Y-53.82000
G1 Z-2.50000
G1 Z2.00000
G0 X-30.00000 Y-53.82000
G1 Z-2.50000
G1 Z2.00000
G0 X-23.88000 Y-55.65000
G1 Z-2.50000
G1 Z2.00000
G0 X-23.88000 Y-53.11000
G1 Z-2.50000
G1 Z2.00000
G0 X-23.88000 Y-50.57000
G1 Z-2.50000
G1 Z2.00000
G0 X-17.53000 Y-55.42000
G1 Z-2.50000
G1 Z2.00000
G0 X-14.99000 Y-55.42000
G1 Z-2.50000
G1 Z2.00000
G0 X-12.45000 Y-55.42000
G1 Z-2.50000
G1 Z2.00000
G0 X-6.10000 Y-55.65000
G1 Z-2.50000
G1 Z2.00000
G0 X-6.10000 Y-53.11000
G1 Z-2.50000
G1 Z2.00000
G0 X-6.10000 Y-50.57000
G1 Z-2.50000
G1 Z2.00000
G0 X-6.10000 Y-48.03000
G1 Z-2.50000
G1 Z2.00000
G0 X-6.10000 Y-45.49000
G1 Z-2.50000
G1 Z2.00000
G0 X-6.10000 Y-42.95000
G1 Z-2.50000
G1 Z2.00000
G0 X-6.10000 Y-40.41000
G1 Z-2.50000
G1 Z2.00000
G0 X-6.10000 Y-37.87000
G1 Z-2.50000
G1 Z2.00000
G0 X-6.10000 Y-35.33000
G1 Z-2.50000
G1 Z2.00000
G0 X-6.10000 Y-32.79000
G1 Z-2.50000
G1 Z2.00000
G0 X-6.10000 Y-30.25000
G1 Z-2.50000
G1 Z2.00000
G0 X-6.10000 Y-27.71000
G1 Z-2.50000
G1 Z2.00000
G0 X-6.10000 Y-25.17000
G1 Z-2.50000
G1 Z2.00000
G0 X-6.10000 Y-22.63000
G1 Z-2.50000
G1 Z2.00000
G0 X-6.10000 Y-20.09000
G1 Z-2.50000
G1 Z2.00000
G0 X-6.10000 Y-17.55000
G1 Z-2.50000
G1 Z2.00000
G0 X-6.10000 Y-15.01000
G1 Z-2.50000
G1 Z2.00000
G0 X-2.02000 Y-22.75000
G1 Z-2.50000
G1 Z2.00000
G0 X-2.02000 Y-25.29000
G1 Z-2.50000
G1 Z2.00000
G0 X-2.02000 Y-27.83000
G1 Z-2.50000
G1 Z2.00000
G0 X-2.02000 Y-30.37000
G1 Z-2.50000
G1 Z2.00000
G0 X-2.02000 Y-32.91000
G1 Z-2.50000
G1 Z2.00000
G0 X-2.02000 Y-35.45000
G1 Z-2.50000
G1 Z2.00000
G0 X-2.02000 Y-37.99000
G1 Z-2.50000
G1 Z2.00000
G0 X-2.02000 Y-40.53000
G1 Z-2.50000
G1 Z2.00000
G0 X-2.02000 Y-43.07000
G1 Z-2.50000
G1 Z2.00000
G0 X-2.02000 Y-45.61000
G1 Z-2.50000
G1 Z2.00000
G0 X-2.02000 Y-48.15000
G1 Z-2.50000
G1 Z2.00000
G0 X-2.02000 Y-50.69000
G1 Z-2.50000
G1 Z2.00000
G0 X-2.02000 Y-53.23000
G1 Z-2.50000
G1 Z2.00000
G0 X-2.02000 Y-55.77000
G1 Z-2.50000
G1 Z2.00000

G00 Z35.000 ( All done -- retract )

M5      (Spindle off.)
G04 P1.000000
M9      (Coolant off.)
M2      (Program end.)

