( pcb2gcode 2.5.0 )
( Software-independent Gcode )

G94 ( Millimeters per minute feed rate. )
G21 ( Units == Millimeters. )

G90 ( Absolute coordinates. )
G00 S24000 ( RPM spindle speed. )
G01 F80.00000 ( Feedrate. )


G00 Z35.00000 (Retract to tool change height)
T1
M5      (Spindle stop.)
G04 P1.00000 (Wait for spindle to stop)
(MSG, Change tool bit to cutter diameter 1.00000mm)
M0      (Temporary machine stop.)
M3 ( Spindle on clockwise. )
G04 P1.00000 (Wait for spindle to get up to speed)
G04 P0 ( dwell for no time -- G64 should not smooth over this point )
G00 Z2.00000 ( retract )

G00 X0.50000 Y-61.99998 ( rapid move to begin. )
G01 Z-0.50000 F40.00000 ( plunge. )
G04 P0 ( dwell for no time -- G64 should not smooth over this point )
G01 F80.00000
G01 X0.50000 Y0.00000
G01 X0.49624 Y0.06104
G01 X0.48509 Y0.12116
G01 X0.46289 Y0.18898
G01 X0.43637 Y0.24407
G01 X0.40330 Y0.29553
G01 X0.36419 Y0.34257
G01 X0.31173 Y0.39091
G01 X0.26167 Y0.42603
G01 X0.20770 Y0.45481
G01 X0.14084 Y0.47973
G01 X0.07115 Y0.49489
G01 X-0.00000 Y0.50000
G01 X-98.99998 Y0.50000
G01 X-99.06102 Y0.49624
G01 X-99.12114 Y0.48509
G01 X-99.18896 Y0.46289
G01 X-99.24405 Y0.43637
G01 X-99.29551 Y0.40330
G01 X-99.34255 Y0.36419
G01 X-99.39089 Y0.31173
G01 X-99.42601 Y0.26167
G01 X-99.45479 Y0.20770
G01 X-99.47971 Y0.14084
G01 X-99.49487 Y0.07115
G01 X-99.49998 Y0.00000
G01 X-99.49998 Y-61.99998
G01 X-99.49622 Y-62.06101
G01 X-99.48507 Y-62.12114
G01 X-99.46287 Y-62.18895
G01 X-99.43635 Y-62.24405
G01 X-99.40328 Y-62.29551
G01 X-99.36416 Y-62.34255
G01 X-99.31171 Y-62.39088
G01 X-99.26165 Y-62.42601
G01 X-99.20768 Y-62.45479
G01 X-99.14082 Y-62.47971
G01 X-99.07113 Y-62.49487
G01 X-98.99998 Y-62.49998
G01 X-0.00000 Y-62.49998
G01 X0.09126 Y-62.49157
G01 X0.14084 Y-62.47971
G01 X0.18898 Y-62.46287
G01 X0.27031 Y-62.42060
G01 X0.31173 Y-62.39088
G01 X0.34991 Y-62.35710
G01 X0.40924 Y-62.28723
G01 X0.43637 Y-62.24405
G01 X0.45895 Y-62.19835
G01 X0.47676 Y-62.15060
G01 X0.48961 Y-62.10125
G01 X0.49738 Y-62.05088
G01 X0.50000 Y-61.99998

G04 P0 ( dwell for no time -- G64 should not smooth over this point )
G00 Z35.000000 ( retract )

M5 ( Spindle off. )
G04 P1.000000
M9 ( Coolant off. )
M2 ( Program end. )

