( pcb2gcode 2.5.0 )
( Software-independent Gcode )

G94 ( Millimeters per minute feed rate. )
G21 ( Units == Millimeters. )

G90 ( Absolute coordinates. )
G00 S24000 ( RPM spindle speed. )
G01 F100.00000 ( Feedrate. )


G00 Z35.00000 (Retract to tool change height)
T1
M5      (Spindle stop.)
G04 P1.00000 (Wait for spindle to stop)
(MSG, Change tool bit to mill diameter 1.00000mm)
M0      (Temporary machine stop.)
M3 ( Spindle on clockwise. )
G04 P1.00000 (Wait for spindle to get up to speed)
G04 P0 ( dwell for no time -- G64 should not smooth over this point )
G00 Z2.00000 ( retract )

G00 X1.99949 Y-6.00946 ( rapid move to begin. )
G01 F100.00000
( Mill infeed pass 1/1 )
G01 Z-0.30000
G04 P0 ( dwell for no time -- G64 should not smooth over this point )
G01 F100.00000
G01 X1.99949 Y-6.00946
G01 X1.47460 Y-5.81236
G01 X0.87970 Y-5.54434
G01 X0.74008 Y-5.47446
G01 X0.26022 Y-5.19999
G01 X0.07930 Y-5.07601
G01 X-0.20290 Y-4.86603
G01 X-0.32078 Y-4.76588
G01 X-0.42842 Y-4.66512
G01 X-0.52525 Y-4.56443
G01 X-2.41976 Y-2.67564
G01 X-2.52834 Y-2.59817
G01 X-2.67198 Y-2.52931
G01 X-2.82344 Y-2.48747
G01 X-3.00050 Y-2.47284
G01 X-33.29478 Y-2.47447
G01 X-33.45426 Y-2.49954
G01 X-33.60263 Y-2.55161
G01 X-33.74751 Y-2.63454
G01 X-33.81065 Y-2.68679
G01 X-33.87595 Y-2.74597
G01 X-35.54626 Y-4.41853
G01 X-35.59548 Y-4.46415
G01 X-35.70115 Y-4.54370
G01 X-35.79139 Y-4.55696
G01 X-35.89932 Y-4.56471
G01 X-37.52817 Y-4.56471
G01 X-37.63190 Y-4.55755
G01 X-37.70114 Y-4.54797
G01 X-37.95585 Y-4.39176
G01 X-38.12624 Y-4.32054
G01 X-38.28316 Y-4.28231
G01 X-38.38405 Y-4.26974
G01 X-38.48997 Y-4.26352
G01 X-38.67401 Y-4.27784
G01 X-38.85369 Y-4.32059
G01 X-38.98123 Y-4.37213
G01 X-39.02426 Y-4.39143
G01 X-39.18146 Y-4.48823
G01 X-39.32235 Y-4.60898
G01 X-39.40475 Y-4.70154
G01 X-39.49959 Y-4.82148
G01 X-39.57602 Y-4.90710
G01 X-39.69626 Y-5.02813
G01 X-39.84701 Y-5.15788
G01 X-39.99964 Y-5.27449
G01 X-40.00442 Y-5.40840
G01 X-40.00020 Y-5.60245
G01 X-40.17226 Y-5.84909
G01 X-40.21074 Y-5.91896
G01 X-40.31018 Y-6.17654
G01 X-40.32562 Y-6.24639
G01 X-40.34348 Y-6.38442
G01 X-40.34470 Y-8.88065
G01 X-40.33695 Y-8.98855
G01 X-40.32372 Y-9.07875
G01 X-40.24394 Y-9.18467
G01 X-39.89367 Y-9.53849
G01 X-39.81191 Y-9.60928
G01 X-39.73873 Y-9.66373
G01 X-39.60719 Y-9.68223
G01 X-39.54066 Y-9.68472
G01 X-36.52822 Y-9.68472
G01 X-36.42032 Y-9.67697
G01 X-36.35045 Y-9.66691
G01 X-36.10938 Y-9.59452
G01 X-35.94890 Y-9.51624
G01 X-35.77123 Y-9.58893
G01 X-35.64923 Y-9.63038
G01 X-35.46323 Y-9.68078
G01 X-35.23229 Y-9.72182
G01 X-35.11029 Y-9.73389
G01 X-34.95101 Y-9.73968
G01 X-34.73209 Y-9.72901
G01 X-34.55657 Y-9.70506
G01 X-34.43458 Y-9.68027
G01 X-34.19800 Y-9.61354
G01 X-34.06737 Y-9.56584
G01 X-33.94796 Y-9.51581
G01 X-33.81360 Y-9.58695
G01 X-33.67926 Y-9.63524
G01 X-33.60938 Y-9.65441
G01 X-33.44941 Y-9.68134
G01 X-33.41853 Y-9.68327
G01 X-32.54446 Y-9.68472
G01 X-32.43656 Y-9.67697
G01 X-32.36669 Y-9.66691
G01 X-32.13214 Y-9.59747
G01 X-32.10367 Y-9.52127
G01 X-32.05498 Y-9.31888
G01 X-32.04931 Y-9.26617
G01 X-32.04494 Y-9.18545
G01 X-32.04655 Y-8.65259
G01 X-32.03572 Y-8.49285
G01 X-31.99778 Y-8.34034
G01 X-31.93349 Y-8.19920
G01 X-31.86151 Y-8.09450
G01 X-31.81060 Y-8.03214
G01 X-30.77568 Y-6.99788
G01 X-30.70454 Y-6.91578
G01 X-30.66225 Y-6.85930
G01 X-30.59346 Y-6.75249
G01 X-30.54797 Y-6.66572
G01 X-30.41940 Y-6.39691
G01 X-30.29069 Y-6.37403
G01 X-30.15780 Y-6.35838
G01 X-30.02697 Y-6.35094
G01 X-29.84792 Y-6.35000
G01 X-29.67802 Y-6.29636
G01 X-29.51373 Y-6.25594
G01 X-29.38780 Y-6.23230
G01 X-29.20550 Y-6.20956
G01 X-29.05643 Y-6.20116
G01 X-28.90007 Y-6.20189
G01 X-28.68661 Y-6.21896
G01 X-28.58493 Y-6.23362
G01 X-28.42367 Y-6.26547
G01 X-28.25806 Y-6.30921
G01 X-28.17675 Y-6.33496
G01 X-24.82070 Y-6.33496
G01 X-24.61379 Y-6.26435
G01 X-24.38001 Y-6.20591
G01 X-24.21151 Y-6.17758
G01 X-24.08956 Y-6.16422
G01 X-23.87318 Y-6.15528
G01 X-23.76137 Y-6.15810
G01 X-23.63564 Y-6.16722
G01 X-23.42289 Y-6.19740
G01 X-23.30290 Y-6.22257
G01 X-23.19066 Y-6.25132
G01 X-23.06566 Y-6.28940
G01 X-22.93767 Y-6.33501
G01 X-22.81088 Y-6.26732
G01 X-22.74100 Y-6.23542
G01 X-22.49998 Y-6.16303
G01 X-22.43011 Y-6.15297
G01 X-22.32218 Y-6.14523
G01 X-19.25965 Y-6.14523
G01 X-19.18315 Y-6.14911
G01 X-19.13303 Y-6.15424
G01 X-18.93606 Y-6.19981
G01 X-18.86618 Y-6.22503
G01 X-18.71673 Y-6.29285
G01 X-18.56730 Y-6.38835
G01 X-18.49742 Y-6.43953
G01 X-18.24716 Y-6.65866
G01 X-17.99689 Y-6.94967
G01 X-17.92699 Y-7.04096
G01 X-17.71498 Y-7.34182
G01 X-17.56359 Y-7.12079
G01 X-17.31477 Y-6.80113
G01 X-17.06596 Y-6.55086
G01 X-16.99608 Y-6.49028
G01 X-16.82755 Y-6.36153
G01 X-16.65900 Y-6.26732
G01 X-16.58912 Y-6.23542
G01 X-16.34805 Y-6.16303
G01 X-16.27817 Y-6.15297
G01 X-16.17030 Y-6.14523
G01 X-13.80968 Y-6.14523
G01 X-13.68308 Y-6.15422
G01 X-13.48605 Y-6.19981
G01 X-13.41618 Y-6.22503
G01 X-13.26672 Y-6.29285
G01 X-13.11730 Y-6.38835
G01 X-13.04740 Y-6.43953
G01 X-12.79713 Y-6.65866
G01 X-12.54689 Y-6.94967
G01 X-12.47699 Y-7.04096
G01 X-12.26497 Y-7.34182
G01 X-12.11359 Y-7.12079
G01 X-11.86477 Y-6.80113
G01 X-11.61595 Y-6.55086
G01 X-11.54608 Y-6.49028
G01 X-11.37755 Y-6.36153
G01 X-11.20899 Y-6.26732
G01 X-11.13912 Y-6.23542
G01 X-10.89810 Y-6.16303
G01 X-10.82822 Y-6.15297
G01 X-10.72032 Y-6.14523
G01 X-7.61098 Y-6.14667
G01 X-7.58010 Y-6.14860
G01 X-7.42013 Y-6.17553
G01 X-7.35025 Y-6.19470
G01 X-7.21459 Y-6.24357
G01 X-7.04543 Y-6.33644
G01 X-6.93570 Y-6.29661
G01 X-6.79422 Y-6.25274
G01 X-6.58805 Y-6.20337
G01 X-6.42625 Y-6.17670
G01 X-6.30712 Y-6.16382
G01 X-6.18874 Y-6.15673
G01 X-6.06819 Y-6.15536
G01 X-5.93702 Y-6.16049
G01 X-5.81751 Y-6.17129
G01 X-5.69628 Y-6.18813
G01 X-5.57329 Y-6.21132
G01 X-5.44731 Y-6.24139
G01 X-5.31800 Y-6.27896
G01 X-5.15790 Y-6.33514
G01 X-5.03088 Y-6.26732
G01 X-4.96100 Y-6.23542
G01 X-4.71998 Y-6.16303
G01 X-4.65010 Y-6.15297
G01 X-4.54221 Y-6.14523
G01 X-4.37449 Y-6.14523
G01 X-4.29382 Y-6.14957
G01 X-4.24111 Y-6.15523
G01 X-4.03880 Y-6.20382
G01 X-4.00240 Y-6.21741
G01 X-3.94576 Y-6.27172
G01 X-3.89303 Y-6.46669
G01 X-3.88297 Y-6.53656
G01 X-3.87523 Y-6.64449
G01 X-3.87523 Y-13.28064
G01 X-3.87774 Y-13.34752
G01 X-3.89623 Y-13.47876
G01 X-3.95061 Y-13.55187
G01 X-4.02941 Y-13.64150
G01 X-4.13324 Y-13.72796
G01 X-4.19158 Y-13.76848
G01 X-4.42694 Y-13.88428
G01 X-4.61665 Y-13.94120
G01 X-4.84670 Y-13.87892
G01 X-4.88526 Y-13.86454
G01 X-5.14297 Y-13.91519
G01 X-5.39788 Y-13.83716
G01 X-5.62359 Y-13.78478
G01 X-5.74622 Y-13.76477
G01 X-5.85719 Y-13.75171
G01 X-5.97710 Y-13.74310
G01 X-6.08617 Y-13.74013
G01 X-6.31444 Y-13.74915
G01 X-6.45871 Y-13.76543
G01 X-6.57139 Y-13.78389
G01 X-6.76727 Y-13.82779
G01 X-7.01698 Y-13.90350
G01 X-7.15787 Y-13.94054
G01 X-7.28896 Y-14.07958
G01 X-7.38660 Y-14.19596
G01 X-7.41896 Y-14.31549
G01 X-7.46026 Y-14.50965
G01 X-7.48099 Y-14.64452
G01 X-7.49800 Y-14.81450
G01 X-7.50481 Y-15.00353
G01 X-7.49938 Y-15.18496
G01 X-7.47928 Y-15.38836
G01 X-7.44654 Y-15.58059
G01 X-7.40501 Y-15.75879
G01 X-7.36095 Y-15.90787
G01 X-7.28899 Y-16.11130
G01 X-7.21744 Y-16.28013
G01 X-7.26818 Y-16.39707
G01 X-7.32820 Y-16.55425
G01 X-7.38099 Y-16.71607
G01 X-7.41985 Y-16.85928
G01 X-7.45086 Y-16.99964
G01 X-7.47492 Y-17.14083
G01 X-7.49275 Y-17.29021
G01 X-7.50199 Y-17.42534
G01 X-7.50329 Y-17.64109
G01 X-7.49569 Y-17.77576
G01 X-7.47319 Y-17.97075
G01 X-7.44616 Y-18.12376
G01 X-7.39143 Y-18.34797
G01 X-7.34614 Y-18.49397
G01 X-7.28556 Y-18.65953
G01 X-7.21777 Y-18.81970
G01 X-7.27740 Y-18.95980
G01 X-7.33031 Y-19.09981
G01 X-7.39653 Y-19.31022
G01 X-7.44967 Y-19.53354
G01 X-7.47380 Y-19.67283
G01 X-7.48947 Y-19.79625
G01 X-7.50014 Y-19.92866
G01 X-7.50453 Y-20.04990
G01 X-7.50374 Y-20.16763
G01 X-7.49699 Y-20.29887
G01 X-7.47685 Y-20.48640
G01 X-7.45711 Y-20.60768
G01 X-7.43074 Y-20.73483
G01 X-7.39033 Y-20.89104
G01 X-7.32384 Y-21.09752
G01 X-7.28149 Y-21.20933
G01 X-7.21713 Y-21.35942
G01 X-5.48866 Y-21.36036
G01 X-5.43530 Y-21.46170
G01 X-5.36430 Y-21.58073
G01 X-5.24144 Y-21.74837
G01 X-5.10758 Y-21.90897
G01 X-5.00670 Y-22.07293
G01 X-4.97327 Y-22.14880
G01 X-4.93316 Y-22.25083
G01 X-4.89948 Y-22.38411
G01 X-4.88831 Y-22.43808
G01 X-4.88135 Y-22.50219
G01 X-4.87286 Y-22.62998
G01 X-4.88841 Y-22.82185
G01 X-4.93296 Y-23.00917
G01 X-5.00700 Y-23.18690
G01 X-5.08137 Y-23.31154
G01 X-5.16687 Y-23.44346
G01 X-5.23517 Y-23.56376
G01 X-5.29585 Y-23.68766
G01 X-5.33481 Y-23.78461
G04 P0 ( dwell for no time -- G64 should not smooth over this point )
G00 Z2.00000 ( retract )

G00 X-5.33712 Y-26.55461 ( rapid move to begin. )
G01 F100.00000
( Mill infeed pass 1/1 )
G01 Z-0.30000
G04 P0 ( dwell for no time -- G64 should not smooth over this point )
G01 F100.00000
G01 X-5.33712 Y-26.55461
G01 X-5.28003 Y-26.68392
G01 X-5.19971 Y-26.84275
G01 X-5.06517 Y-27.05293
G01 X-5.00606 Y-27.15433
G01 X-4.93098 Y-27.33822
G01 X-4.89146 Y-27.50147
G01 X-4.88135 Y-27.58219
G01 X-4.87286 Y-27.70998
G01 X-4.88422 Y-27.86700
G01 X-4.89755 Y-27.94726
G01 X-4.93296 Y-28.08917
G01 X-5.00697 Y-28.26687
G01 X-5.10106 Y-28.42176
G01 X-5.15150 Y-28.48559
G01 X-5.23250 Y-28.57749
G01 X-5.32384 Y-28.66570
G01 X-5.43293 Y-28.78412
G01 X-5.48744 Y-28.85242
G01 X-5.57500 Y-28.97998
G01 X-7.30131 Y-28.97947
G01 X-5.57500 Y-28.97998
G01 X-5.49537 Y-29.09705
G01 X-5.41193 Y-29.19961
G01 X-5.30347 Y-29.31566
G01 X-5.23230 Y-29.38221
G01 X-5.10758 Y-29.52897
G01 X-5.00670 Y-29.69293
G01 X-4.93316 Y-29.87083
G01 X-4.88831 Y-30.05808
G01 X-4.87286 Y-30.24998
G01 X-4.88422 Y-30.40700
G01 X-4.89755 Y-30.48726
G01 X-4.93296 Y-30.62917
G01 X-4.96992 Y-30.72298
G01 X-5.02046 Y-30.83123
G01 X-5.10746 Y-30.97108
G01 X-5.23250 Y-31.11749
G01 X-5.32384 Y-31.20570
G01 X-5.43293 Y-31.32412
G01 X-5.48744 Y-31.39242
G01 X-5.57500 Y-31.51998
G01 X-7.30131 Y-31.51947
G01 X-5.57500 Y-31.51998
G01 X-5.49537 Y-31.63705
G01 X-5.41193 Y-31.73961
G01 X-5.30347 Y-31.85566
G01 X-5.23230 Y-31.92221
G01 X-5.10758 Y-32.06897
G01 X-5.00670 Y-32.23293
G01 X-4.95958 Y-32.34205
G01 X-4.93098 Y-32.41822
G01 X-4.89146 Y-32.58147
G01 X-4.88135 Y-32.66219
G01 X-4.87286 Y-32.78998
G01 X-4.88841 Y-32.98185
G01 X-4.92531 Y-33.14113
G01 X-4.96992 Y-33.26298
G01 X-5.00697 Y-33.34687
G01 X-5.10746 Y-33.51108
G01 X-5.23250 Y-33.65749
G01 X-5.32384 Y-33.74570
G01 X-5.43293 Y-33.86412
G01 X-5.48744 Y-33.93242
G01 X-5.57500 Y-34.05998
G01 X-7.30131 Y-34.05947
G01 X-5.57500 Y-34.05998
G01 X-5.49537 Y-34.17705
G01 X-5.41193 Y-34.27961
G01 X-5.30347 Y-34.39566
G01 X-5.23230 Y-34.46221
G01 X-5.13283 Y-34.57694
G01 X-5.08500 Y-34.64276
G01 X-5.00670 Y-34.77293
G01 X-4.93098 Y-34.95822
G01 X-4.89146 Y-35.12147
G01 X-4.88135 Y-35.20219
G01 X-4.87286 Y-35.32998
G01 X-4.88422 Y-35.48700
G01 X-4.89755 Y-35.56726
G01 X-4.93296 Y-35.70917
G01 X-4.98483 Y-35.83810
G01 X-5.00700 Y-35.88690
G01 X-5.03862 Y-35.94232
G01 X-5.14624 Y-36.10961
G01 X-5.23517 Y-36.26376
G01 X-5.29585 Y-36.38766
G01 X-5.33481 Y-36.48461
G04 P0 ( dwell for no time -- G64 should not smooth over this point )
G00 Z2.00000 ( retract )

G00 X-5.33712 Y-39.25461 ( rapid move to begin. )
G01 F100.00000
( Mill infeed pass 1/1 )
G01 Z-0.30000
G04 P0 ( dwell for no time -- G64 should not smooth over this point )
G01 F100.00000
G01 X-5.33712 Y-39.25461
G01 X-5.28003 Y-39.38392
G01 X-5.19971 Y-39.54275
G01 X-5.06517 Y-39.75293
G01 X-5.00733 Y-39.85148
G01 X-4.93316 Y-40.03083
G01 X-4.88831 Y-40.21808
G01 X-4.87286 Y-40.40998
G01 X-4.88422 Y-40.56700
G01 X-4.90548 Y-40.68224
G01 X-4.93296 Y-40.78917
G01 X-4.98483 Y-40.91810
G01 X-5.02046 Y-40.99123
G01 X-5.10746 Y-41.13108
G01 X-5.23250 Y-41.27749
G01 X-5.32384 Y-41.36570
G01 X-5.43293 Y-41.48412
G01 X-5.48744 Y-41.55242
G01 X-5.57500 Y-41.67998
G01 X-7.29534 Y-41.67949
G01 X-5.57500 Y-41.67998
G01 X-5.49537 Y-41.79705
G01 X-5.41193 Y-41.89961
G01 X-5.30347 Y-42.01566
G01 X-5.23230 Y-42.08221
G01 X-5.10758 Y-42.22897
G01 X-5.00670 Y-42.39293
G01 X-4.95958 Y-42.50205
G01 X-4.93098 Y-42.57822
G01 X-4.89146 Y-42.74147
G01 X-4.88135 Y-42.82219
G01 X-4.87286 Y-42.94998
G01 X-4.88841 Y-43.14185
G01 X-4.93631 Y-43.33784
G01 X-5.00697 Y-43.50687
G01 X-5.10746 Y-43.67108
G01 X-5.23250 Y-43.81749
G01 X-5.32384 Y-43.90570
G01 X-5.43293 Y-44.02412
G01 X-5.48744 Y-44.09242
G01 X-5.57500 Y-44.21998
G01 X-7.29534 Y-44.21950
G01 X-5.57500 Y-44.21998
G01 X-5.49537 Y-44.33705
G01 X-5.41193 Y-44.43961
G01 X-5.30347 Y-44.55566
G01 X-5.23230 Y-44.62221
G01 X-5.10758 Y-44.76897
G01 X-5.00670 Y-44.93293
G01 X-4.95958 Y-45.04205
G01 X-4.93098 Y-45.11822
G01 X-4.89146 Y-45.28147
G01 X-4.88135 Y-45.36219
G01 X-4.87286 Y-45.48998
G01 X-4.88841 Y-45.68185
G01 X-4.92531 Y-45.84113
G01 X-4.96992 Y-45.96298
G01 X-5.00697 Y-46.04687
G01 X-5.10746 Y-46.21108
G01 X-5.23250 Y-46.35749
G01 X-5.32384 Y-46.44570
G01 X-5.43293 Y-46.56412
G01 X-5.48744 Y-46.63242
G01 X-5.57500 Y-46.75998
G01 X-7.29534 Y-46.75949
G01 X-5.57500 Y-46.75998
G01 X-5.49537 Y-46.87705
G01 X-5.41193 Y-46.97961
G01 X-5.30347 Y-47.09566
G01 X-5.23230 Y-47.16221
G01 X-5.13283 Y-47.27694
G01 X-5.08500 Y-47.34276
G01 X-5.00670 Y-47.47293
G01 X-4.93098 Y-47.65822
G01 X-4.89146 Y-47.82147
G01 X-4.88135 Y-47.90219
G01 X-4.87286 Y-48.02998
G01 X-4.88422 Y-48.18700
G01 X-4.89755 Y-48.26726
G01 X-4.93296 Y-48.40917
G01 X-4.98483 Y-48.53810
G01 X-5.00700 Y-48.58690
G01 X-5.03862 Y-48.64232
G01 X-5.14624 Y-48.80961
G01 X-5.23517 Y-48.96376
G01 X-5.29585 Y-49.08766
G01 X-5.33481 Y-49.18461
G04 P0 ( dwell for no time -- G64 should not smooth over this point )
G00 Z2.00000 ( retract )

G00 X-5.33712 Y-51.95458 ( rapid move to begin. )
G01 F100.00000
( Mill infeed pass 1/1 )
G01 Z-0.30000
G04 P0 ( dwell for no time -- G64 should not smooth over this point )
G01 F100.00000
G01 X-5.33712 Y-51.95458
G01 X-5.28003 Y-52.08392
G01 X-5.19971 Y-52.24275
G01 X-5.06517 Y-52.45293
G01 X-5.00733 Y-52.55148
G01 X-4.93316 Y-52.73081
G01 X-4.88831 Y-52.91808
G01 X-4.87286 Y-53.10998
G01 X-4.88422 Y-53.26698
G01 X-4.89755 Y-53.34726
G01 X-4.93296 Y-53.48917
G01 X-4.96992 Y-53.58298
G01 X-5.00697 Y-53.66687
G01 X-5.08140 Y-53.79154
G01 X-5.10746 Y-53.83108
G01 X-5.17624 Y-53.91468
G01 X-5.23250 Y-53.97749
G01 X-5.32384 Y-54.06570
G01 X-5.43293 Y-54.18412
G01 X-5.48744 Y-54.25242
G01 X-5.57500 Y-54.37998
G01 X-6.62480 Y-54.37998
G01 X-6.70745 Y-54.50075
G01 X-6.76181 Y-54.56969
G01 X-6.88116 Y-54.69961
G01 X-6.96872 Y-54.78348
G01 X-7.13395 Y-54.96766
G01 X-7.33120 Y-55.14452
G01 X-7.40832 Y-55.20248
G01 X-7.60898 Y-55.33766
G01 X-7.61837 Y-55.45285
G01 X-7.62432 Y-55.59951
G01 X-7.62419 Y-55.69257
G01 X-7.45165 Y-55.86992
G01 X-7.35239 Y-55.98152
G01 X-7.23956 Y-56.13738
G01 X-7.09237 Y-56.37098
G01 X-7.04743 Y-56.42676
G01 X-6.96765 Y-56.51767
G01 X-6.87283 Y-56.60078
G01 X-6.80872 Y-56.65092
G01 X-6.65691 Y-56.74296
G01 X-6.47916 Y-56.81706
G01 X-6.29188 Y-56.86158
G01 X-6.10034 Y-56.87695
G01 X-6.01909 Y-56.87245
G01 X-5.90232 Y-56.86072
G01 X-5.72089 Y-56.81668
G01 X-5.54286 Y-56.74335
G01 X-5.42204 Y-56.67088
G01 X-5.35549 Y-56.62404
G01 X-5.23248 Y-56.51746
G01 X-5.15150 Y-56.42559
G01 X-5.10746 Y-56.37108
G01 X-5.08140 Y-56.33154
G01 X-5.00697 Y-56.20687
G01 X-4.93631 Y-56.03784
G01 X-4.88841 Y-55.84185
G01 X-4.87286 Y-55.64998
G01 X-4.88135 Y-55.52219
G01 X-4.88831 Y-55.45808
G01 X-4.89948 Y-55.40411
G01 X-4.93316 Y-55.27083
G01 X-4.97327 Y-55.16880
G01 X-5.00670 Y-55.09293
G01 X-5.10758 Y-54.92897
G01 X-5.23230 Y-54.78221
G01 X-5.30347 Y-54.71566
G01 X-5.41193 Y-54.59961
G01 X-5.49537 Y-54.49705
G01 X-5.57500 Y-54.37998
G01 X-6.62480 Y-54.37998
G01 X-6.70989 Y-54.25577
G01 X-6.79320 Y-54.15460
G01 X-6.90161 Y-54.03913
G01 X-6.96765 Y-53.97769
G01 X-7.07273 Y-53.85788
G01 X-7.16999 Y-53.75819
G01 X-7.24957 Y-53.68300
G01 X-7.31942 Y-53.62555
G01 X-7.51901 Y-53.48008
G01 X-7.60900 Y-53.41953
G04 P0 ( dwell for no time -- G64 should not smooth over this point )
G00 Z2.00000 ( retract )

G00 X-11.29932 Y-56.53115 ( rapid move to begin. )
G01 F100.00000
( Mill infeed pass 1/1 )
G01 Z-0.30000
G04 P0 ( dwell for no time -- G64 should not smooth over this point )
G01 F100.00000
G01 X-11.29932 Y-56.53115
G01 X-11.30978 Y-56.34205
G01 X-11.31067 Y-56.08081
G01 X-11.29414 Y-55.90263
G01 X-11.27315 Y-55.77172
G01 X-11.23841 Y-55.61188
G01 X-11.23058 Y-55.53883
G01 X-11.22286 Y-55.41998
G01 X-11.23831 Y-55.22806
G01 X-11.28316 Y-55.04083
G01 X-11.32327 Y-54.93880
G01 X-11.37376 Y-54.83299
G01 X-11.45758 Y-54.69898
G01 X-11.50724 Y-54.63756
G01 X-11.58227 Y-54.55224
G01 X-11.68286 Y-54.46441
G01 X-11.74745 Y-54.41495
G01 X-11.89304 Y-54.32692
G01 X-12.07077 Y-54.25290
G01 X-12.22352 Y-54.21521
G01 X-12.30396 Y-54.20309
G01 X-12.44996 Y-54.19288
G01 X-12.57404 Y-54.20101
G01 X-12.65484 Y-54.21071
G01 X-12.80404 Y-54.24609
G01 X-12.88087 Y-54.27279
G01 X-12.98890 Y-54.31846
G01 X-13.09146 Y-54.37563
G01 X-13.23261 Y-54.46796
G01 X-13.33751 Y-54.53068
G01 X-13.45910 Y-54.59164
G01 X-13.60531 Y-54.65717
G04 P0 ( dwell for no time -- G64 should not smooth over this point )
G00 Z2.00000 ( retract )

G00 X-16.37528 Y-54.65470 ( rapid move to begin. )
G01 F100.00000
( Mill infeed pass 1/1 )
G01 Z-0.30000
G04 P0 ( dwell for no time -- G64 should not smooth over this point )
G01 F100.00000
G01 X-16.37528 Y-54.65470
G01 X-16.48485 Y-54.61030
G01 X-16.61846 Y-54.54266
G01 X-16.72821 Y-54.47988
G01 X-16.95831 Y-54.33497
G01 X-17.06496 Y-54.28656
G01 X-17.15077 Y-54.25290
G01 X-17.30352 Y-54.21521
G01 X-17.38396 Y-54.20309
G01 X-17.52996 Y-54.19288
G01 X-17.72191 Y-54.20827
G01 X-17.84919 Y-54.23695
G01 X-17.90903 Y-54.25331
G01 X-17.96087 Y-54.27279
G01 X-18.08709 Y-54.32659
G01 X-18.25094 Y-54.42768
G01 X-18.30786 Y-54.47337
G01 X-18.39755 Y-54.55239
G01 X-18.52239 Y-54.69893
G01 X-18.61312 Y-54.84505
G01 X-18.66204 Y-54.95168
G01 X-18.69704 Y-55.04073
G01 X-18.74152 Y-55.22811
G01 X-18.75683 Y-55.42336
G01 X-18.74172 Y-55.61188
G01 X-18.71391 Y-55.73568
G01 X-18.69653 Y-55.79902
G01 X-18.62333 Y-55.97708
G01 X-18.54098 Y-56.11327
G01 X-18.46941 Y-56.20614
G01 X-18.31150 Y-56.38239
G01 X-18.18033 Y-56.54977
G01 X-18.10192 Y-56.67276
G01 X-17.99570 Y-56.85820
G04 P0 ( dwell for no time -- G64 should not smooth over this point )
G00 Z2.00000 ( retract )

G00 X-24.61052 Y-56.91165 ( rapid move to begin. )
G01 F100.00000
( Mill infeed pass 1/1 )
G01 Z-0.30000
G04 P0 ( dwell for no time -- G64 should not smooth over this point )
G01 F100.00000
G01 X-24.61052 Y-56.91165
G01 X-24.47282 Y-56.94515
G01 X-24.33688 Y-56.97139
G01 X-24.20348 Y-56.99054
G01 X-24.07163 Y-57.00301
G01 X-23.87597 Y-57.00977
G01 X-23.74552 Y-57.00644
G01 X-23.61110 Y-56.99643
G01 X-23.38365 Y-56.96448
G01 X-23.24857 Y-56.93646
G01 X-23.11085 Y-56.90100
G01 X-22.96919 Y-56.85724
G01 X-22.82345 Y-56.80451
G01 X-22.60757 Y-56.71233
G01 X-22.56925 Y-56.59996
G01 X-22.52335 Y-56.44599
G01 X-22.48649 Y-56.29626
G01 X-22.45550 Y-56.13573
G01 X-22.43470 Y-55.98823
G01 X-22.42177 Y-55.84657
G01 X-22.41525 Y-55.62933
G01 X-22.41961 Y-55.48869
G01 X-22.43127 Y-55.34355
G01 X-22.45187 Y-55.18628
G01 X-22.47857 Y-55.04053
G01 X-22.51329 Y-54.89186
G01 X-22.55688 Y-54.73883
G01 X-22.61202 Y-54.57634
G01 X-22.69048 Y-54.38046
G01 X-22.59675 Y-54.14129
G01 X-22.54659 Y-53.98737
G01 X-22.50557 Y-53.83761
G01 X-22.47212 Y-53.68722
G01 X-22.44524 Y-53.52959
G01 X-22.42838 Y-53.38793
G01 X-22.41827 Y-53.24330
G01 X-22.41525 Y-53.08933
G01 X-22.41961 Y-52.94869
G01 X-22.43127 Y-52.80353
G01 X-22.45187 Y-52.64625
G01 X-22.47857 Y-52.50050
G01 X-22.51329 Y-52.35186
G01 X-22.55688 Y-52.19883
G01 X-22.59444 Y-52.08443
G01 X-22.84529 Y-52.03518
G01 X-22.93417 Y-52.01191
G01 X-23.20765 Y-51.92916
G01 X-23.33722 Y-51.89814
G01 X-23.50699 Y-51.86751
G01 X-23.71123 Y-51.84572
G01 X-23.84598 Y-51.84038
G01 X-23.97011 Y-51.84173
G01 X-24.09185 Y-51.84894
G01 X-24.21438 Y-51.86215
G01 X-24.33836 Y-51.88151
G01 X-24.46439 Y-51.90736
G01 X-24.64504 Y-51.95542
G01 X-24.90366 Y-51.76490
G01 X-25.05306 Y-51.61918
G01 X-25.14364 Y-51.48831
G01 X-25.27948 Y-51.45857
G01 X-25.32626 Y-51.45248
G01 X-25.58844 Y-51.43233
G01 X-25.73812 Y-51.39098
G01 X-25.87955 Y-51.32250
G01 X-26.00960 Y-51.22708
G01 X-26.04963 Y-51.18961
G01 X-29.48501 Y-47.75271
G01 X-29.56692 Y-47.68177
G01 X-29.63212 Y-47.63305
G01 X-29.74332 Y-47.61352
G01 X-29.84175 Y-47.60285
G01 X-29.94683 Y-47.57958
G01 X-30.02341 Y-47.55845
G01 X-30.15983 Y-47.50745
G01 X-30.26481 Y-47.47415
G01 X-30.43928 Y-47.42924
G01 X-30.55717 Y-47.52853
G01 X-30.72554 Y-47.65304
G01 X-30.75442 Y-47.75584
G01 X-30.78129 Y-47.91537
G01 X-30.78472 Y-47.99335
G01 X-30.78472 Y-49.61062
G01 X-30.77695 Y-49.71852
G01 X-30.76372 Y-49.80874
G01 X-30.68378 Y-49.91484
G01 X-30.63850 Y-49.96365
G01 X-29.39438 Y-51.20513
G01 X-29.30797 Y-51.30411
G01 X-29.27787 Y-51.34229
G01 X-29.21104 Y-51.45763
G01 X-29.05425 Y-51.87427
G01 X-28.89306 Y-51.91996
G01 X-28.82321 Y-51.93246
G01 X-28.68905 Y-51.94455
G01 X-28.46934 Y-51.94534
G01 X-28.42649 Y-51.95052
G01 X-28.34084 Y-51.97871
G01 X-28.26647 Y-52.02461
G01 X-28.20464 Y-52.08641
G01 X-28.15872 Y-52.16086
G01 X-28.13053 Y-52.24650
G01 X-28.12473 Y-52.31996
G01 X-28.12537 Y-55.35084
G01 X-28.13053 Y-55.39346
G01 X-28.15872 Y-55.47909
G01 X-28.20464 Y-55.55351
G01 X-28.26644 Y-55.61531
G01 X-28.34086 Y-55.66123
G01 X-28.42654 Y-55.68942
G01 X-28.49997 Y-55.69521
G01 X-31.43164 Y-55.69521
G01 X-31.61172 Y-55.70525
G01 X-31.88465 Y-55.70571
G01 X-31.88658 Y-55.45539
G01 X-31.87522 Y-55.25165
G01 X-31.87459 Y-52.28908
G01 X-31.86943 Y-52.24650
G01 X-31.84124 Y-52.16086
G01 X-31.79531 Y-52.08643
G01 X-31.66544 Y-51.96070
G01 X-31.47210 Y-51.80424
G01 X-31.52033 Y-51.67714
G01 X-31.55132 Y-51.60927
G01 X-31.66003 Y-51.43183
G01 X-31.74723 Y-51.33050
G01 X-32.26247 Y-50.81758
G01 X-32.36280 Y-50.70183
G01 X-32.42036 Y-50.61301
G01 X-32.45942 Y-50.54077
G01 X-32.50463 Y-50.41532
G01 X-32.53321 Y-50.25857
G01 X-32.53481 Y-50.11445
G01 X-32.54263 Y-50.00645
G01 X-32.55269 Y-49.93658
G01 X-32.62206 Y-49.70249
G01 X-32.69889 Y-49.67379
G01 X-32.90090 Y-49.62525
G01 X-33.03448 Y-49.61522
G01 X-43.25066 Y-49.61522
G01 X-43.35856 Y-49.62296
G01 X-43.44873 Y-49.63620
G01 X-43.57444 Y-49.73373
G01 X-43.64858 Y-49.80638
G01 X-43.71934 Y-49.88809
G01 X-43.77372 Y-49.96122
G01 X-43.79222 Y-50.09243
G01 X-43.79473 Y-52.58999
G01 X-43.80052 Y-52.66347
G01 X-43.82872 Y-52.74907
G01 X-43.87464 Y-52.82347
G01 X-43.93646 Y-52.88534
G01 X-44.01086 Y-52.93124
G01 X-44.09648 Y-52.95943
G01 X-44.13910 Y-52.96459
G01 X-47.66998 Y-52.96522
G01 X-47.74344 Y-52.95943
G01 X-47.83783 Y-52.92768
G01 X-47.94275 Y-52.88448
G01 X-48.27367 Y-52.71790
G01 X-48.31908 Y-52.42756
G01 X-48.48144 Y-52.34160
G01 X-48.60752 Y-52.26926
G01 X-48.65507 Y-52.23767
G01 X-48.82901 Y-52.10581
G01 X-49.00900 Y-51.95197
G01 X-49.09467 Y-51.89736
G01 X-49.17676 Y-51.84976
G01 X-49.35807 Y-51.77414
G01 X-49.54915 Y-51.72867
G01 X-49.72715 Y-51.71483
G01 X-51.51608 Y-51.71496
G01 X-51.69083 Y-51.72842
G01 X-51.79969 Y-51.75250
G01 X-51.88156 Y-51.77516
G01 X-52.06335 Y-51.84948
G01 X-52.23081 Y-51.95217
G01 X-52.38100 Y-52.08092
G01 X-52.52319 Y-52.24432
G01 X-52.58824 Y-52.31107
G01 X-52.71808 Y-52.43093
G01 X-52.85097 Y-52.53469
G01 X-53.03457 Y-52.66052
G01 X-53.04546 Y-52.80195
G01 X-53.04986 Y-52.94457
G01 X-53.04998 Y-54.71488
G01 X-53.04503 Y-54.88739
G01 X-53.03510 Y-55.01716
G01 X-52.79205 Y-55.19097
G01 X-52.69512 Y-55.26811
G01 X-52.63858 Y-55.31952
G01 X-52.54005 Y-55.41945
G01 X-52.40398 Y-55.57429
G01 X-52.34612 Y-55.63131
G01 X-52.23099 Y-55.72801
G01 X-52.11773 Y-55.79918
G01 X-52.03718 Y-55.84241
G01 X-51.88179 Y-55.90550
G01 X-51.76721 Y-55.93512
G01 X-51.69078 Y-55.95135
G01 X-51.64059 Y-55.95704
G01 X-51.52774 Y-55.96491
G01 X-49.69589 Y-55.96425
G01 X-49.54923 Y-55.95082
G01 X-49.51471 Y-55.94431
G01 X-49.34593 Y-55.90101
G01 X-49.19627 Y-55.83939
G01 X-49.15157 Y-55.81617
G01 X-49.00894 Y-55.72778
G01 X-48.81979 Y-55.56578
G01 X-48.67079 Y-55.45338
G01 X-48.57788 Y-55.39194
G01 X-48.47638 Y-55.33375
G01 X-48.07702 Y-55.53098
G01 X-47.94380 Y-55.45480
G01 X-47.88418 Y-55.41513
G01 X-47.74199 Y-55.31178
G01 X-47.57461 Y-55.17363
G01 X-47.41459 Y-55.07825
G01 X-47.32183 Y-55.03929
G01 X-47.21581 Y-55.00365
G01 X-47.05548 Y-54.97126
G01 X-46.91997 Y-54.96474
G01 X-44.90725 Y-54.96479
G01 X-44.78457 Y-54.97190
G01 X-44.68889 Y-54.98915
G01 X-44.59864 Y-55.01063
G01 X-44.42623 Y-55.07693
G01 X-44.36405 Y-55.11168
G01 X-44.26501 Y-55.17266
G01 X-44.16237 Y-55.25767
G01 X-44.12320 Y-55.29321
G01 X-44.08681 Y-55.33337
G01 X-44.01985 Y-55.41333
G01 X-43.98462 Y-55.46321
G01 X-43.90761 Y-55.59506
G01 X-43.84500 Y-55.73486
G01 X-43.75315 Y-55.90908
G01 X-43.62640 Y-55.94134
G01 X-43.55653 Y-55.95343
G01 X-43.42686 Y-55.96461
G01 X-38.66932 Y-55.96471
G01 X-38.56139 Y-55.95696
G01 X-38.49152 Y-55.94690
G01 X-38.47120 Y-55.94370
G01 X-38.36548 Y-55.86412
G01 X-38.31628 Y-55.81851
G01 X-37.06881 Y-54.57101
G01 X-36.99805 Y-54.48930
G01 X-36.90937 Y-54.36375
G01 X-36.92047 Y-54.19705
G01 X-36.94605 Y-54.01041
G01 X-36.95690 Y-53.81996
G01 X-36.94087 Y-53.57498
G01 X-36.89325 Y-53.33413
G01 X-36.81433 Y-53.10160
G01 X-36.70554 Y-52.88140
G01 X-36.56899 Y-52.67739
G01 X-36.42012 Y-52.50652
G01 X-36.22736 Y-52.33472
G01 X-36.04966 Y-52.21399
G01 X-35.86988 Y-52.11917
G01 X-35.79795 Y-52.08664
G01 X-35.71956 Y-52.05720
G01 X-35.56554 Y-52.00772
G01 X-35.47293 Y-51.98646
G01 X-35.32495 Y-51.95923
G01 X-35.07997 Y-51.94272
G01 X-34.87250 Y-51.95532
G01 X-34.83498 Y-51.95910
G01 X-34.62729 Y-51.99934
G01 X-34.46203 Y-52.04968
G01 X-34.34530 Y-52.09311
G01 X-34.14136 Y-52.19431
G01 X-34.04405 Y-52.25687
G01 X-33.93791 Y-52.33159
G01 X-33.78553 Y-52.46213
G01 X-33.68357 Y-52.56863
G01 X-33.57349 Y-52.70175
G01 X-33.45449 Y-52.88148
G01 X-33.39043 Y-53.00655
G01 X-33.33626 Y-53.12710
G01 X-33.26712 Y-53.33421
G01 X-33.23659 Y-53.47622
G01 X-33.21934 Y-53.57505
G01 X-33.21309 Y-53.63977
G01 X-33.20308 Y-53.81998
G01 X-33.21075 Y-53.96979
G01 X-33.21936 Y-54.06489
G01 X-33.23095 Y-54.13380
G01 X-33.26694 Y-54.30558
G01 X-33.39734 Y-54.68640
G01 X-33.43321 Y-54.82242
G01 X-33.38132 Y-54.91069
G01 X-33.34156 Y-54.96977
G01 X-33.26094 Y-55.07043
G01 X-32.72749 Y-55.60466
G01 X-32.64568 Y-55.67548
G01 X-32.58919 Y-55.71777
G01 X-32.36768 Y-55.83700
G01 X-32.29572 Y-55.86385
G01 X-32.09864 Y-55.91863
G01 X-31.88465 Y-55.70571
G01 X-32.09864 Y-55.91863
G01 X-32.05886 Y-56.06890
G01 X-32.03420 Y-56.14304
G01 X-31.91840 Y-56.37842
G01 X-31.87791 Y-56.43672
G01 X-31.79092 Y-56.54098
G01 X-31.33380 Y-56.99834
G01 X-31.25191 Y-57.06925
G01 X-31.17873 Y-57.12371
G01 X-31.04718 Y-57.14223
G01 X-30.98066 Y-57.14472
G01 X-25.29248 Y-57.14472
G01 X-25.18456 Y-57.13694
G01 X-25.11468 Y-57.12691
G01 X-24.87379 Y-57.05457
G01 X-24.80391 Y-57.02267
G01 X-24.61052 Y-56.91165
G01 X-24.72632 Y-56.62762
G01 X-24.79672 Y-56.49318
G01 X-24.97333 Y-56.20710
G01 X-25.04653 Y-56.02902
G01 X-25.09172 Y-55.84190
G01 X-25.10701 Y-55.64998
G01 X-25.09985 Y-55.53621
G01 X-25.08395 Y-55.41988
G01 X-25.04704 Y-55.27076
G01 X-24.99804 Y-55.14853
G01 X-24.97300 Y-55.09306
G01 X-24.94509 Y-55.04401
G01 X-24.87242 Y-54.92895
G01 X-24.82515 Y-54.87048
G01 X-24.74755 Y-54.78239
G01 X-24.66116 Y-54.69961
G01 X-24.54181 Y-54.56969
G01 X-24.48745 Y-54.50075
G01 X-24.40480 Y-54.37998
G01 X-22.69048 Y-54.38046
G01 X-24.40480 Y-54.37998
G01 X-24.48989 Y-54.25577
G01 X-24.57320 Y-54.15460
G01 X-24.68161 Y-54.03913
G01 X-24.74763 Y-53.97772
G01 X-24.85182 Y-53.85722
G01 X-24.89896 Y-53.79090
G01 X-24.97333 Y-53.66708
G01 X-25.02385 Y-53.54907
G01 X-25.05415 Y-53.46273
G01 X-25.08999 Y-53.31120
G01 X-25.09926 Y-53.23035
G01 X-25.10701 Y-53.10998
G01 X-25.09650 Y-52.96024
G01 X-25.08395 Y-52.87988
G01 X-25.04704 Y-52.73073
G01 X-24.99804 Y-52.60853
G01 X-24.97300 Y-52.55303
G01 X-24.94509 Y-52.50401
G01 X-24.83096 Y-52.32603
G01 X-24.74869 Y-52.18323
G01 X-24.68641 Y-52.05768
G01 X-24.64504 Y-51.95542
G04 P0 ( dwell for no time -- G64 should not smooth over this point )
G00 Z2.00000 ( retract )

G00 X-24.97704 Y-49.09066 ( rapid move to begin. )
G01 F100.00000
( Mill infeed pass 1/1 )
G01 Z-0.30000
G04 P0 ( dwell for no time -- G64 should not smooth over this point )
G01 F100.00000
G01 X-24.97704 Y-49.09066
G01 X-24.97922 Y-48.86861
G01 X-25.00117 Y-48.63483
G01 X-25.02266 Y-48.51032
G01 X-25.08999 Y-48.23120
G01 X-25.10216 Y-48.11458
G01 X-25.10701 Y-48.02998
G01 X-25.09985 Y-47.91621
G01 X-25.09152 Y-47.83808
G01 X-25.07559 Y-47.76264
G01 X-25.04704 Y-47.65076
G01 X-24.99804 Y-47.52853
G01 X-24.96312 Y-47.45505
G01 X-24.88166 Y-47.32246
G01 X-24.82515 Y-47.25048
G01 X-24.74755 Y-47.16239
G01 X-24.66116 Y-47.07961
G01 X-24.54181 Y-46.94969
G01 X-24.48745 Y-46.88075
G01 X-24.40480 Y-46.75998
G01 X-22.69048 Y-46.76046
G01 X-24.40480 Y-46.75998
G01 X-24.51778 Y-46.59965
G01 X-24.65624 Y-46.44527
G01 X-24.74763 Y-46.35772
G01 X-24.87237 Y-46.21098
G01 X-24.97333 Y-46.04708
G01 X-25.04653 Y-45.86902
G01 X-25.09172 Y-45.68190
G01 X-25.10701 Y-45.48998
G01 X-25.09985 Y-45.37621
G01 X-25.08395 Y-45.25988
G01 X-25.04704 Y-45.11076
G01 X-24.97300 Y-44.93306
G01 X-24.87242 Y-44.76895
G01 X-24.74755 Y-44.62239
G01 X-24.66116 Y-44.53961
G01 X-24.54181 Y-44.40969
G01 X-24.48745 Y-44.34075
G01 X-24.40480 Y-44.21998
G01 X-22.69048 Y-44.22046
G01 X-24.40480 Y-44.21998
G01 X-24.51778 Y-44.05965
G01 X-24.65624 Y-43.90527
G01 X-24.74763 Y-43.81772
G01 X-24.87237 Y-43.67098
G01 X-24.97333 Y-43.50708
G01 X-25.02385 Y-43.38907
G01 X-25.05415 Y-43.30273
G01 X-25.08999 Y-43.15120
G01 X-25.10701 Y-42.94998
G01 X-25.09152 Y-42.75808
G01 X-25.04704 Y-42.57076
G01 X-24.97300 Y-42.39306
G01 X-24.87242 Y-42.22895
G01 X-24.74755 Y-42.08239
G01 X-24.66116 Y-41.99961
G01 X-24.54181 Y-41.86969
G01 X-24.48745 Y-41.80075
G01 X-24.40480 Y-41.67998
G01 X-22.69048 Y-41.68046
G01 X-24.40480 Y-41.67998
G01 X-24.51778 Y-41.51965
G01 X-24.65624 Y-41.36527
G01 X-24.76741 Y-41.25582
G01 X-24.87237 Y-41.13098
G01 X-24.91806 Y-41.06060
G01 X-24.97333 Y-40.96708
G01 X-25.04653 Y-40.78902
G01 X-25.08999 Y-40.61120
G01 X-25.09926 Y-40.53035
G01 X-25.10701 Y-40.40998
G01 X-25.09650 Y-40.26027
G01 X-25.08395 Y-40.17988
G01 X-25.04704 Y-40.03076
G01 X-24.97300 Y-39.85306
G01 X-24.90257 Y-39.73464
G01 X-24.83096 Y-39.62603
G01 X-24.74869 Y-39.48323
G01 X-24.68641 Y-39.35768
G01 X-24.64504 Y-39.25542
G01 X-24.92794 Y-39.04508
G01 X-25.00902 Y-38.97127
G01 X-25.11440 Y-38.85862
G01 X-25.29530 Y-38.82774
G01 X-26.53066 Y-38.82522
G01 X-26.63855 Y-38.83297
G01 X-26.72875 Y-38.84623
G01 X-26.83467 Y-38.92598
G01 X-26.88366 Y-38.97145
G01 X-28.22097 Y-40.30876
G01 X-28.28933 Y-40.38727
G01 X-28.33167 Y-40.44325
G01 X-28.39242 Y-40.70330
G01 X-28.44442 Y-40.84338
G01 X-28.48889 Y-40.93484
G01 X-28.62791 Y-41.15834
G01 X-28.63753 Y-41.22804
G01 X-28.64472 Y-41.33179
G01 X-28.64472 Y-45.72063
G01 X-28.63591 Y-45.84680
G01 X-28.54239 Y-46.07151
G01 X-28.48605 Y-46.25784
G01 X-28.46088 Y-46.29112
G01 X-28.39258 Y-46.36958
G01 X-25.88875 Y-48.87338
G01 X-25.80701 Y-48.94417
G01 X-25.75047 Y-48.98649
G01 X-25.52875 Y-49.10582
G01 X-25.45677 Y-49.13264
G01 X-25.14895 Y-49.20483
G01 X-24.97704 Y-49.09066
G01 X-24.83500 Y-49.12545
G01 X-24.64173 Y-49.18555
G01 X-24.51224 Y-49.22109
G01 X-24.30394 Y-49.26442
G01 X-24.17938 Y-49.28217
G01 X-24.05626 Y-49.29368
G01 X-23.92164 Y-49.29942
G01 X-23.79756 Y-49.29848
G01 X-23.67575 Y-49.29160
G01 X-23.54044 Y-49.27707
G01 X-23.36902 Y-49.24842
G01 X-23.15906 Y-49.19746
G01 X-22.88423 Y-49.11453
G01 X-22.70155 Y-49.07382
G01 X-22.59465 Y-49.05512
G01 X-22.54659 Y-48.90737
G01 X-22.50557 Y-48.75761
G01 X-22.45550 Y-48.51573
G01 X-22.43470 Y-48.36823
G01 X-22.42177 Y-48.22657
G01 X-22.41553 Y-48.07181
G01 X-22.41695 Y-47.92797
G01 X-22.42523 Y-47.78731
G01 X-22.44227 Y-47.63204
G01 X-22.46589 Y-47.48492
G01 X-22.49663 Y-47.33920
G01 X-22.53546 Y-47.19048
G01 X-22.58332 Y-47.03747
G01 X-22.64700 Y-46.86485
G01 X-22.69048 Y-46.76046
G01 X-22.62703 Y-46.60382
G01 X-22.56925 Y-46.43996
G01 X-22.52335 Y-46.28599
G01 X-22.48649 Y-46.13626
G01 X-22.45550 Y-45.97573
G01 X-22.43470 Y-45.82823
G01 X-22.41827 Y-45.62330
G01 X-22.41525 Y-45.46933
G01 X-22.41961 Y-45.32869
G01 X-22.43127 Y-45.18355
G01 X-22.45187 Y-45.02628
G01 X-22.47857 Y-44.88053
G01 X-22.51329 Y-44.73186
G01 X-22.55688 Y-44.57883
G01 X-22.61202 Y-44.41634
G01 X-22.69048 Y-44.22046
G01 X-22.62703 Y-44.06382
G01 X-22.56925 Y-43.89996
G01 X-22.52335 Y-43.74599
G01 X-22.48649 Y-43.59626
G01 X-22.45550 Y-43.43573
G01 X-22.43470 Y-43.28823
G01 X-22.41827 Y-43.08330
G01 X-22.41525 Y-42.92933
G01 X-22.41961 Y-42.78869
G01 X-22.43127 Y-42.64355
G01 X-22.45187 Y-42.48628
G01 X-22.47857 Y-42.34053
G01 X-22.51329 Y-42.19186
G01 X-22.55688 Y-42.03883
G01 X-22.61202 Y-41.87634
G01 X-22.69048 Y-41.68046
G01 X-22.59675 Y-41.44129
G01 X-22.52335 Y-41.20599
G01 X-22.47212 Y-40.98722
G01 X-22.43470 Y-40.74823
G01 X-22.41827 Y-40.54330
G01 X-22.41525 Y-40.38933
G01 X-22.41961 Y-40.24869
G01 X-22.44227 Y-40.01204
G01 X-22.47857 Y-39.80053
G01 X-22.53546 Y-39.57048
G01 X-22.59444 Y-39.38445
G01 X-22.84529 Y-39.33518
G01 X-23.25586 Y-39.21684
G01 X-23.46368 Y-39.17427
G01 X-23.62987 Y-39.15245
G01 X-23.75446 Y-39.14328
G01 X-23.97011 Y-39.14173
G01 X-24.13305 Y-39.15275
G01 X-24.33836 Y-39.18151
G01 X-24.51141 Y-39.21867
G01 X-24.64504 Y-39.25542
G04 P0 ( dwell for no time -- G64 should not smooth over this point )
G00 Z2.00000 ( retract )

G00 X-30.30652 Y-39.40843 ( rapid move to begin. )
G01 F100.00000
( Mill infeed pass 1/1 )
G01 Z-0.30000
G04 P0 ( dwell for no time -- G64 should not smooth over this point )
G01 F100.00000
G01 X-30.30652 Y-39.40843
G01 X-30.14104 Y-39.35590
G01 X-29.88361 Y-39.25085
G01 X-29.59265 Y-39.18123
G01 X-29.53723 Y-39.13929
G01 X-29.45877 Y-39.07097
G01 X-27.73616 Y-37.34590
G01 X-27.61513 Y-37.24092
G01 X-27.48051 Y-37.15982
G01 X-27.33518 Y-37.10574
G01 X-27.15288 Y-37.07455
G01 X-25.48377 Y-37.07478
G01 X-25.37534 Y-37.06701
G01 X-25.30549 Y-37.05695
G01 X-25.15829 Y-37.02172
G01 X-25.10158 Y-36.91174
G01 X-25.02532 Y-36.78644
G01 X-24.92794 Y-36.69487
G01 X-24.83620 Y-36.62276
G01 X-24.64272 Y-36.48527
G01 X-24.70389 Y-36.34803
G01 X-24.78397 Y-36.19050
G01 X-24.91857 Y-35.98088
G01 X-24.97699 Y-35.87887
G01 X-25.02385 Y-35.76907
G01 X-25.05415 Y-35.68273
G01 X-25.08999 Y-35.53120
G01 X-25.09926 Y-35.45035
G01 X-25.10701 Y-35.32998
G01 X-25.09650 Y-35.18027
G01 X-25.08395 Y-35.09988
G01 X-25.04704 Y-34.95076
G01 X-24.99804 Y-34.82853
G01 X-24.96312 Y-34.75505
G01 X-24.88166 Y-34.62246
G01 X-24.82515 Y-34.55048
G01 X-24.74755 Y-34.46239
G01 X-24.66116 Y-34.37961
G01 X-24.54181 Y-34.24969
G01 X-24.48745 Y-34.18075
G01 X-24.40480 Y-34.05998
G01 X-22.69061 Y-34.06018
G01 X-24.40480 Y-34.05998
G01 X-24.47549 Y-33.95543
G01 X-24.52279 Y-33.89351
G01 X-24.59314 Y-33.81324
G01 X-24.68004 Y-33.72079
G01 X-24.90940 Y-33.50199
G01 X-25.04491 Y-33.47989
G01 X-25.08108 Y-33.47725
G01 X-27.63756 Y-33.47522
G01 X-27.74546 Y-33.48297
G01 X-27.81902 Y-33.49356
G01 X-27.99240 Y-33.60679
G01 X-28.11079 Y-33.67547
G01 X-28.26626 Y-33.73935
G01 X-28.44597 Y-33.78190
G01 X-28.62999 Y-33.79643
G01 X-28.78239 Y-33.78591
G01 X-28.81409 Y-33.78248
G01 X-28.91206 Y-33.76066
G01 X-29.02892 Y-33.72594
G01 X-29.16433 Y-33.66874
G01 X-29.32153 Y-33.57187
G01 X-29.46217 Y-33.45216
G01 X-29.54142 Y-33.36193
G01 X-29.59141 Y-33.29772
G01 X-29.67843 Y-33.15419
G01 X-29.74901 Y-32.98358
G01 X-29.79229 Y-32.80405
G01 X-29.80672 Y-32.61998
G01 X-29.80444 Y-32.57098
G01 X-29.79222 Y-32.43590
G01 X-29.75165 Y-32.26468
G01 X-29.67924 Y-32.08688
G01 X-29.60075 Y-31.94324
G01 X-29.54442 Y-31.82645
G01 X-29.51518 Y-31.75658
G01 X-29.47914 Y-31.65257
G01 X-29.42864 Y-31.48653
G01 X-29.68241 Y-31.35498
G01 X-29.75226 Y-31.32978
G01 X-29.94896 Y-31.28427
G01 X-30.07576 Y-31.27522
G01 X-36.28522 Y-31.27687
G01 X-36.46856 Y-31.26199
G01 X-36.61994 Y-31.21983
G01 X-36.74072 Y-31.16341
G01 X-36.87201 Y-31.07319
G01 X-38.65844 Y-29.28927
G01 X-38.74031 Y-29.21841
G01 X-38.79682 Y-29.17609
G01 X-39.01829 Y-29.05691
G01 X-39.09024 Y-29.03009
G01 X-39.28778 Y-28.97518
G01 X-39.34049 Y-28.83322
G01 X-39.39423 Y-28.64665
G01 X-39.43010 Y-28.45430
G01 X-39.44630 Y-28.26304
G01 X-39.44795 Y-26.10394
G01 X-39.45415 Y-25.95928
G01 X-39.46261 Y-25.87358
G01 X-39.48273 Y-25.74285
G01 X-39.56251 Y-25.63144
G01 X-39.61318 Y-25.56805
G01 X-39.71186 Y-25.45834
G01 X-42.61993 Y-22.54999
G01 X-42.72633 Y-22.45233
G01 X-42.79582 Y-22.39561
G01 X-42.95445 Y-22.28441
G01 X-43.12615 Y-22.18764
G01 X-43.29118 Y-22.11177
G01 X-43.46961 Y-22.21263
G01 X-43.53949 Y-22.24453
G01 X-43.78056 Y-22.31692
G01 X-43.85043 Y-22.32696
G01 X-43.95833 Y-22.33473
G01 X-46.66488 Y-22.33473
G01 X-46.82272 Y-22.32071
G01 X-47.04565 Y-22.25985
G01 X-47.15939 Y-22.21108
G01 X-47.17120 Y-22.03087
G01 X-47.16973 Y-21.90590
G01 X-47.15388 Y-21.64997
G01 X-47.15840 Y-21.56165
G01 X-47.17296 Y-21.44055
G01 X-47.24260 Y-21.16793
G01 X-47.26158 Y-21.07710
G01 X-47.29693 Y-20.78147
G01 X-47.30412 Y-20.62307
G01 X-47.13684 Y-20.45767
G01 X-47.17161 Y-20.27118
G01 X-47.21426 Y-20.11558
G01 X-47.27440 Y-19.97746
G01 X-47.30872 Y-19.91296
G01 X-47.40760 Y-19.76735
G01 X-47.43237 Y-19.73849
G01 X-47.80250 Y-19.36755
G01 X-47.92142 Y-19.22719
G01 X-47.99772 Y-19.09234
G01 X-48.04994 Y-18.94413
G01 X-48.06274 Y-18.87527
G01 X-48.07532 Y-18.78487
G01 X-48.07610 Y-18.75013
G01 X-48.07522 Y-16.09964
G01 X-48.08296 Y-15.99143
G01 X-48.09620 Y-15.90121
G01 X-48.17598 Y-15.79529
G01 X-48.22144 Y-15.74630
G01 X-51.09627 Y-12.87145
G01 X-51.17803 Y-12.80066
G01 X-51.25118 Y-12.74623
G01 X-51.38242 Y-12.72774
G01 X-51.44930 Y-12.72522
G01 X-54.34767 Y-12.72522
G01 X-54.45544 Y-12.73297
G01 X-54.52529 Y-12.74298
G01 X-54.76657 Y-12.81544
G01 X-54.89125 Y-12.87424
G01 X-55.02971 Y-12.80691
G01 X-55.14155 Y-12.75954
G01 X-55.29641 Y-12.70376
G01 X-55.42991 Y-12.66495
G01 X-55.55686 Y-12.63597
G01 X-55.68086 Y-12.61514
G01 X-55.80248 Y-12.60185
G01 X-55.95079 Y-12.59522
G01 X-56.06895 Y-12.59743
G01 X-56.17789 Y-12.60546
G01 X-56.30527 Y-12.62217
G01 X-56.47314 Y-12.65588
G01 X-56.64799 Y-12.70533
G01 X-56.76997 Y-12.74849
G01 X-56.95465 Y-12.82743
G01 X-57.05013 Y-12.87516
G01 X-57.11655 Y-12.84102
G01 X-57.36720 Y-12.75260
G01 X-57.43707 Y-12.73924
G01 X-57.57487 Y-12.72543
G01 X-63.17066 Y-12.72522
G01 X-63.27844 Y-12.73297
G01 X-63.36878 Y-12.74620
G01 X-63.47490 Y-12.82614
G01 X-63.52375 Y-12.87145
G01 X-72.12442 Y-21.47222
G01 X-72.30565 Y-21.67143
G01 X-72.36125 Y-21.74194
G01 X-72.51212 Y-21.94961
G01 X-72.90102 Y-21.99777
G01 X-73.06757 Y-22.02995
G01 X-73.26246 Y-22.07981
G01 X-73.91011 Y-22.07986
G01 X-74.06858 Y-22.03257
G01 X-74.27011 Y-21.98515
G01 X-74.45545 Y-21.95436
G01 X-74.62967 Y-21.93694
G01 X-74.82632 Y-22.01067
G01 X-74.98827 Y-22.08436
G01 X-75.14341 Y-22.16823
G01 X-75.28623 Y-22.25893
G01 X-75.41651 Y-22.35520
G01 X-75.53637 Y-22.45759
G01 X-75.64730 Y-22.56668
G01 X-75.77800 Y-22.71746
G01 X-75.86678 Y-22.83752
G01 X-75.92939 Y-22.93305
G01 X-76.01392 Y-23.07938
G01 X-76.02327 Y-23.22586
G01 X-76.02416 Y-23.36389
G01 X-76.01707 Y-23.50242
G01 X-76.00221 Y-23.63978
G01 X-75.98095 Y-23.76929
G01 X-75.94874 Y-23.91509
G01 X-75.90627 Y-24.06546
G01 X-75.86040 Y-24.20046
G01 X-75.95639 Y-24.37468
G01 X-76.00521 Y-24.51021
G01 X-76.02438 Y-24.58006
G01 X-76.05133 Y-24.74016
G01 X-76.05471 Y-24.81778
G01 X-76.05471 Y-24.96066
G01 X-76.04696 Y-25.06856
G01 X-76.03371 Y-25.15875
G01 X-75.95395 Y-25.26467
G01 X-75.90848 Y-25.31367
G01 X-75.31367 Y-25.90848
G01 X-75.23170 Y-25.97945
G01 X-75.15875 Y-26.03370
G01 X-74.99248 Y-26.05326
G01 X-74.79726 Y-26.05469
G01 X-74.68804 Y-26.04752
G01 X-74.61941 Y-26.03805
G01 X-74.36650 Y-25.88257
G01 X-74.19363 Y-25.81064
G01 X-74.01405 Y-25.76787
G01 X-73.82998 Y-25.75311
G01 X-73.71928 Y-25.76025
G01 X-73.59858 Y-25.77767
G01 X-73.46622 Y-25.81051
G01 X-73.35914 Y-25.85344
G01 X-73.24997 Y-25.90787
G01 X-73.13808 Y-25.97772
G01 X-73.03069 Y-26.06792
G01 X-72.97285 Y-26.12517
G01 X-72.88080 Y-26.23447
G01 X-72.83633 Y-26.30261
G01 X-72.78129 Y-26.39565
G01 X-72.72759 Y-26.52166
G01 X-72.70435 Y-26.58897
G01 X-72.66762 Y-26.74587
G01 X-72.65289 Y-26.92997
G01 X-72.66762 Y-27.11409
G01 X-72.69899 Y-27.34788
G01 X-72.70471 Y-27.47658
G01 X-72.69777 Y-27.69080
G01 X-72.67732 Y-27.93545
G01 X-72.82774 Y-28.08552
G01 X-72.85718 Y-28.31353
G01 X-72.90973 Y-28.49933
G01 X-72.93656 Y-28.57129
G01 X-73.05576 Y-28.79275
G01 X-73.09805 Y-28.84927
G01 X-73.16897 Y-28.93118
G01 X-76.80678 Y-32.56829
G01 X-76.92984 Y-32.66798
G01 X-77.07600 Y-32.75655
G01 X-77.20226 Y-32.71919
G01 X-77.28174 Y-32.69016
G01 X-77.46568 Y-32.61152
G01 X-77.64391 Y-32.54825
G01 X-77.88872 Y-32.49384
G01 X-78.13858 Y-32.47337
G01 X-78.38900 Y-32.48597
G01 X-78.59235 Y-32.52211
G01 X-78.72763 Y-32.55955
G01 X-78.89933 Y-32.62112
G01 X-79.03731 Y-32.68703
G01 X-79.14406 Y-32.74687
G01 X-79.30845 Y-32.85767
G01 X-79.39982 Y-32.93450
G01 X-79.49608 Y-33.02409
G01 X-80.32760 Y-33.85289
G01 X-80.39720 Y-33.92523
G01 X-80.49097 Y-34.03430
G01 X-80.58625 Y-34.16663
G01 X-80.65191 Y-34.27306
G01 X-80.74721 Y-34.46409
G01 X-80.80807 Y-34.62818
G01 X-80.84685 Y-34.77039
G01 X-80.87848 Y-34.93399
G01 X-80.89461 Y-35.10427
G01 X-80.89522 Y-41.13629
G01 X-80.89773 Y-41.20335
G01 X-80.91622 Y-41.33454
G01 X-80.97058 Y-41.40761
G01 X-81.04144 Y-41.48948
G01 X-81.64523 Y-42.09016
G01 X-81.75518 Y-42.20652
G01 X-81.86268 Y-42.34307
G01 X-81.93593 Y-42.45089
G01 X-82.01091 Y-42.58574
G01 X-82.05346 Y-42.67246
G01 X-82.12488 Y-42.85841
G01 X-82.15008 Y-42.94086
G01 X-82.18627 Y-43.09994
G01 X-82.20045 Y-43.18660
G01 X-82.21495 Y-43.34429
G01 X-82.21657 Y-57.85203
G01 X-82.21276 Y-58.00849
G01 X-82.19722 Y-58.14974
G01 X-82.16684 Y-58.31218
G01 X-82.11223 Y-58.49871
G01 X-82.06814 Y-58.61235
G01 X-82.01439 Y-58.72960
G01 X-81.97223 Y-58.80661
G01 X-81.91917 Y-58.89394
G01 X-81.84454 Y-59.00280
G01 X-81.73364 Y-59.13811
G01 X-79.99783 Y-60.87367
G01 X-79.89545 Y-60.96074
G01 X-79.80695 Y-61.02688
G01 X-79.68935 Y-61.10354
G01 X-79.64297 Y-61.12957
G01 X-79.46586 Y-61.21733
G01 X-79.30533 Y-61.27699
G01 X-79.16316 Y-61.31598
G01 X-78.98331 Y-61.35007
G01 X-78.82567 Y-61.36457
G01 X-78.74023 Y-61.36627
G01 X-70.50794 Y-61.36739
G01 X-70.31223 Y-61.35977
G01 X-70.10298 Y-61.32888
G01 X-70.01739 Y-61.30940
G01 X-69.86125 Y-61.26216
G01 X-69.73827 Y-61.21395
G01 X-69.63080 Y-61.16338
G01 X-69.55302 Y-61.12269
G01 X-69.41520 Y-61.03546
G01 X-69.34380 Y-60.98441
G01 X-69.22191 Y-60.88347
G01 X-66.90962 Y-58.57085
G01 X-66.82839 Y-58.47606
G01 X-66.73266 Y-58.34400
G01 X-66.66159 Y-58.22467
G01 X-66.55371 Y-58.02003
G01 X-66.46154 Y-57.87418
G01 X-66.32672 Y-57.84296
G01 X-66.25684 Y-57.83293
G01 X-66.14894 Y-57.82516
G01 X-64.09792 Y-57.82714
G01 X-63.94148 Y-57.82259
G01 X-63.85400 Y-57.81510
G01 X-63.69291 Y-57.78917
G01 X-63.53647 Y-57.74921
G01 X-63.36909 Y-57.69138
G01 X-63.22042 Y-57.62417
G01 X-63.06871 Y-57.53715
G01 X-62.93358 Y-57.44472
G01 X-62.81207 Y-57.34329
G01 X-60.63968 Y-55.17159
G01 X-60.59028 Y-55.12577
G01 X-60.48454 Y-55.04619
G01 X-60.39437 Y-55.03296
G01 X-60.28644 Y-55.02519
G01 X-58.01462 Y-55.02288
G01 X-57.76605 Y-54.98965
G01 X-57.52417 Y-54.92344
G01 X-57.29336 Y-54.82534
G01 X-57.07769 Y-54.69745
G01 X-56.88099 Y-54.54198
G01 X-56.76433 Y-54.42458
G01 X-56.67411 Y-54.32052
G01 X-56.54761 Y-54.14305
G01 X-56.43723 Y-53.94013
G01 X-56.34693 Y-53.70617
G01 X-56.29976 Y-53.51363
G01 X-56.28947 Y-53.46210
G01 X-56.27543 Y-53.34846
G01 X-56.26384 Y-53.20617
G01 X-56.27266 Y-52.96210
G01 X-56.29496 Y-52.81506
G01 X-56.31447 Y-52.71493
G01 X-56.33491 Y-52.64117
G01 X-56.38815 Y-52.47528
G01 X-56.49425 Y-52.24808
G01 X-56.62856 Y-52.03640
G01 X-56.72783 Y-51.91618
G01 X-56.79107 Y-51.84539
G01 X-56.97670 Y-51.67693
G01 X-57.15053 Y-51.55598
G01 X-57.26600 Y-51.49080
G01 X-57.40728 Y-51.42205
G01 X-57.58343 Y-51.35877
G01 X-57.64413 Y-51.33990
G01 X-57.75508 Y-51.31478
G01 X-57.88980 Y-51.28992
G01 X-58.08510 Y-51.27526
G01 X-61.24202 Y-51.27252
G01 X-61.39853 Y-51.27711
G01 X-61.55969 Y-51.29576
G01 X-61.73254 Y-51.33045
G01 X-61.88880 Y-51.37765
G01 X-62.07041 Y-51.45014
G01 X-62.15360 Y-51.47694
G01 X-62.29759 Y-51.51521
G01 X-62.48215 Y-51.54181
G01 X-62.76373 Y-51.55730
G04 P0 ( dwell for no time -- G64 should not smooth over this point )
G00 Z2.00000 ( retract )

G00 X-66.43022 Y-47.31095 ( rapid move to begin. )
G01 F100.00000
( Mill infeed pass 1/1 )
G01 Z-0.30000
G04 P0 ( dwell for no time -- G64 should not smooth over this point )
G01 F100.00000
G01 X-66.43022 Y-47.31095
G01 X-66.50784 Y-47.27842
G01 X-66.66814 Y-47.20168
G01 X-66.81854 Y-47.11672
G01 X-66.94693 Y-47.02053
G01 X-67.03736 Y-46.94057
G01 X-67.15722 Y-46.81858
G01 X-67.26649 Y-46.71916
G01 X-67.38046 Y-46.63196
G01 X-67.51038 Y-46.54603
G01 X-67.65409 Y-46.46882
G01 X-67.77901 Y-46.41497
G01 X-67.93507 Y-46.36051
G01 X-68.07568 Y-46.32505
G01 X-68.21663 Y-46.29973
G01 X-68.32912 Y-46.28843
G01 X-68.43146 Y-46.28393
G01 X-70.86757 Y-46.28490
G01 X-70.94431 Y-46.28101
G01 X-70.99424 Y-46.27596
G01 X-71.19082 Y-46.23057
G01 X-71.26072 Y-46.20539
G01 X-71.41009 Y-46.13778
G01 X-71.55950 Y-46.04245
G01 X-71.71586 Y-45.92389
G01 X-72.00047 Y-45.93491
G01 X-72.52266 Y-45.93618
G01 X-72.73668 Y-45.94598
G01 X-72.82327 Y-46.05805
G01 X-72.91984 Y-46.16968
G01 X-72.99686 Y-46.25218
G01 X-73.12518 Y-46.37166
G01 X-73.27351 Y-46.47949
G01 X-73.49200 Y-46.61294
G01 X-73.59495 Y-46.68421
G01 X-73.68911 Y-46.71873
G01 X-73.76353 Y-46.76463
G01 X-73.82533 Y-46.82645
G01 X-73.87123 Y-46.90085
G01 X-73.90463 Y-46.99363
G01 X-74.04613 Y-47.19884
G01 X-74.10005 Y-47.26902
G01 X-74.21209 Y-47.38952
G01 X-74.27674 Y-47.45256
G01 X-74.41933 Y-47.56889
G04 P0 ( dwell for no time -- G64 should not smooth over this point )
G00 Z2.00000 ( retract )

G00 X-70.31523 Y-54.63606 ( rapid move to begin. )
G01 F100.00000
( Mill infeed pass 1/1 )
G01 Z-0.30000
G04 P0 ( dwell for no time -- G64 should not smooth over this point )
G01 F100.00000
G01 X-70.31523 Y-54.63606
G01 X-70.36872 Y-55.95841
G01 X-70.38350 Y-56.17289
G01 X-70.41655 Y-56.43286
G01 X-70.52648 Y-56.60314
G01 X-70.68449 Y-56.82038
G01 X-70.79551 Y-56.95686
G01 X-70.96379 Y-57.14263
G01 X-71.11644 Y-57.29567
G01 X-71.31434 Y-57.47560
G01 X-71.44959 Y-57.51655
G01 X-71.59744 Y-57.55571
G01 X-71.75419 Y-57.59064
G01 X-71.93846 Y-57.62320
G01 X-72.08337 Y-57.64210
G01 X-72.24718 Y-57.65668
G01 X-72.45866 Y-57.66460
G01 X-76.45123 Y-57.66432
G01 X-76.60005 Y-57.65879
G01 X-76.74955 Y-57.64713
G01 X-76.92954 Y-57.62493
G01 X-77.08626 Y-57.59836
G01 X-77.22903 Y-57.56831
G01 X-77.41239 Y-57.52153
G01 X-77.62370 Y-57.45645
G01 X-77.86365 Y-57.39846
G01 X-77.98824 Y-57.26727
G01 X-78.09324 Y-57.11647
G01 X-78.19616 Y-56.99196
G01 X-78.20607 Y-56.95925
G01 X-78.27444 Y-56.68434
G01 X-78.30419 Y-56.53141
G01 X-78.33357 Y-56.33623
G01 X-78.35623 Y-56.09941
G01 X-78.36304 Y-55.95663
G01 X-78.36433 Y-55.78036
G01 X-78.35857 Y-55.61764
G01 X-78.34612 Y-55.45582
G01 X-78.32087 Y-55.25099
G01 X-78.29172 Y-55.08053
G01 X-78.26169 Y-54.93779
G01 X-78.20685 Y-54.72255
G01 X-77.97132 Y-54.62326
G01 X-77.76901 Y-54.47386
G01 X-77.64912 Y-54.39875
G01 X-77.55616 Y-54.36464
G01 X-77.40312 Y-54.26133
G01 X-77.23622 Y-54.16532
G01 X-77.00574 Y-54.06659
G01 X-76.78143 Y-54.00454
G01 X-76.59093 Y-53.96771
G01 X-76.43028 Y-53.92212
G01 X-76.27739 Y-53.85481
G01 X-76.09995 Y-53.75178
G01 X-75.93668 Y-53.81257
G01 X-75.77087 Y-53.86700
G01 X-75.61097 Y-53.91224
G01 X-75.44323 Y-53.95204
G01 X-75.21910 Y-53.99306
G01 X-75.03371 Y-54.01653
G01 X-74.88141 Y-54.02864
G01 X-74.68011 Y-54.03499
G01 X-72.88766 Y-54.03494
G01 X-72.66508 Y-54.01282
G01 X-72.51969 Y-54.00617
G01 X-72.34951 Y-54.00601
G01 X-72.16666 Y-54.01488
G01 X-72.00351 Y-54.03073
G01 X-71.80748 Y-54.05973
G01 X-71.60816 Y-54.10030
G01 X-71.40425 Y-54.15338
G01 X-71.20598 Y-54.21620
G01 X-70.99069 Y-54.29705
G01 X-70.76448 Y-54.39603
G01 X-70.52699 Y-54.51546
G01 X-70.31523 Y-54.63606
G01 X-70.20075 Y-54.57622
G01 X-70.03786 Y-54.47160
G01 X-69.87494 Y-54.39065
G01 X-69.71203 Y-54.33342
G01 X-69.54911 Y-54.29987
G01 X-69.36941 Y-54.24386
G01 X-69.19658 Y-54.19814
G01 X-69.04165 Y-54.16398
G01 X-68.80949 Y-54.12494
G01 X-68.54170 Y-54.09789
G01 X-68.31018 Y-54.08996
G01 X-66.37299 Y-54.08737
G01 X-66.24912 Y-54.08059
G01 X-66.07655 Y-54.06446
G01 X-65.95113 Y-54.04792
G01 X-65.80934 Y-54.02389
G01 X-65.59921 Y-53.97838
G01 X-65.33172 Y-53.90335
G01 X-64.99997 Y-53.70800
G01 X-64.80132 Y-53.59994
G01 X-62.91031 Y-51.71031
G01 X-62.76373 Y-51.55730
G01 X-62.76878 Y-51.45433
G01 X-62.76754 Y-51.29091
G01 X-62.76137 Y-51.18255
G01 X-62.73869 Y-51.00838
G01 X-62.70849 Y-50.88296
G01 X-62.66411 Y-50.74859
G01 X-62.62261 Y-50.59688
G01 X-62.57935 Y-50.36177
G01 X-62.55652 Y-50.26520
G01 X-62.49416 Y-50.08672
G01 X-62.27270 Y-50.02304
G01 X-62.20282 Y-50.01298
G01 X-62.09492 Y-50.00523
G01 X-61.57021 Y-50.00615
G01 X-61.36444 Y-50.02456
G01 X-61.26996 Y-50.02629
G01 X-58.13999 Y-50.02527
G01 X-58.01472 Y-50.02306
G01 X-57.78609 Y-49.99291
G01 X-57.66079 Y-49.96292
G01 X-57.52417 Y-49.92345
G01 X-57.41937 Y-49.88115
G01 X-57.29326 Y-49.82553
G01 X-57.07758 Y-49.69759
G01 X-56.88084 Y-49.54214
G01 X-56.77492 Y-49.43569
G01 X-56.70662 Y-49.36180
G01 X-56.56341 Y-49.17341
G01 X-56.46209 Y-49.05896
G01 X-56.31119 Y-49.03297
G01 X-56.20329 Y-49.02523
G01 X-55.60446 Y-49.02523
G01 X-55.47111 Y-49.03523
G01 X-55.36448 Y-49.05416
G01 X-55.24266 Y-49.16035
G01 X-55.13446 Y-49.28461
G01 X-55.11297 Y-49.41656
G01 X-55.10522 Y-49.52459
G01 X-55.10632 Y-56.41000
G01 X-55.10159 Y-56.49300
G01 X-55.07469 Y-56.64530
G01 X-55.01891 Y-56.79224
G01 X-54.98572 Y-56.85226
G01 X-54.94632 Y-56.91680
G01 X-54.85641 Y-57.02216
G01 X-53.13964 Y-58.73961
G01 X-53.06474 Y-58.80514
G01 X-52.96078 Y-58.87733
G01 X-52.83007 Y-58.94019
G01 X-52.69451 Y-58.97745
G01 X-52.63355 Y-58.98848
G01 X-52.49720 Y-58.99696
G01 X-47.11929 Y-58.99292
G01 X-46.98787 Y-58.97044
G01 X-46.83730 Y-58.91847
G01 X-46.71484 Y-58.84913
G01 X-46.55000 Y-58.73430
G01 X-46.47151 Y-58.72297
G01 X-46.36364 Y-58.71522
G01 X-44.88807 Y-58.71464
G01 X-44.77644 Y-58.70745
G01 X-44.59841 Y-58.66999
G01 X-44.42496 Y-58.60258
G01 X-44.32689 Y-58.54614
G01 X-44.26529 Y-58.50689
G01 X-44.12295 Y-58.38701
G01 X-44.00304 Y-58.24464
G01 X-43.96710 Y-58.18850
G01 X-43.90746 Y-58.08454
G01 X-43.86443 Y-57.98401
G01 X-43.75358 Y-57.77123
G01 X-43.59765 Y-57.73303
G01 X-43.52778 Y-57.72297
G01 X-43.41970 Y-57.71523
G01 X-38.10000 Y-57.71632
G01 X-38.04519 Y-57.71451
G01 X-37.89876 Y-57.69275
G01 X-37.83134 Y-57.67227
G01 X-37.71575 Y-57.62808
G01 X-37.60229 Y-57.56206
G01 X-37.50127 Y-57.47934
G01 X-35.83102 Y-55.80880
G01 X-35.73409 Y-55.72486
G01 X-35.62358 Y-55.64955
G01 X-35.42970 Y-55.66397
G01 X-35.19040 Y-55.69798
G01 X-35.12160 Y-55.71277
G01 X-35.05942 Y-55.75927
G01 X-34.97763 Y-55.83011
G01 X-32.13331 Y-58.67291
G01 X-32.06887 Y-58.72457
G01 X-31.95884 Y-58.79440
G01 X-31.83956 Y-58.84756
G01 X-31.68716 Y-58.88614
G01 X-31.52724 Y-58.89696
G01 X-10.99929 Y-58.89501
G01 X-10.94143 Y-58.89282
G01 X-10.78474 Y-58.86435
G01 X-10.65919 Y-58.81939
G01 X-10.52065 Y-58.74070
G01 X-10.38530 Y-58.62564
G01 X-8.17324 Y-56.41249
G01 X-8.14390 Y-56.38145
G01 X-8.08208 Y-56.29859
G01 X-7.94382 Y-56.08564
G01 X-7.88693 Y-56.00756
G01 X-7.76364 Y-55.84881
G01 X-7.62419 Y-55.69257
G01 X-7.62190 Y-55.51818
G01 X-7.60898 Y-55.33766
G01 X-7.71967 Y-55.18648
G01 X-7.80263 Y-55.03530
G01 X-7.83453 Y-54.96542
G01 X-7.90692 Y-54.72440
G01 X-7.91695 Y-54.65453
G01 X-7.92470 Y-54.54513
G01 X-7.92401 Y-54.19334
G01 X-7.90562 Y-54.02852
G01 X-7.89018 Y-53.95867
G01 X-7.79082 Y-53.70124
G01 X-7.75233 Y-53.63136
G01 X-7.60900 Y-53.41953
G01 X-7.62053 Y-53.27020
G01 X-7.62432 Y-53.05951
G01 X-7.61837 Y-52.91285
G01 X-7.60473 Y-52.76129
G01 X-7.58167 Y-52.59746
G01 X-7.55226 Y-52.44506
G01 X-7.51439 Y-52.28968
G01 X-7.45574 Y-52.09588
G01 X-7.27225 Y-52.06487
G01 X-7.10527 Y-52.02789
G01 X-6.81274 Y-51.94018
G01 X-6.60303 Y-51.88994
G01 X-6.43438 Y-51.86215
G01 X-6.23049 Y-51.84346
G01 X-6.10875 Y-51.84016
G01 X-5.97446 Y-51.84328
G01 X-5.80834 Y-51.85689
G01 X-5.68368 Y-51.87427
G01 X-5.55722 Y-51.89814
G01 X-5.33712 Y-51.95458
G01 X-5.14373 Y-51.81714
G01 X-5.05196 Y-51.74501
G01 X-4.95460 Y-51.65349
G01 X-4.90873 Y-51.57909
G01 X-4.88051 Y-51.49345
G01 X-4.87535 Y-51.45077
G01 X-4.87535 Y-49.68913
G01 X-4.88051 Y-49.64651
G01 X-4.90873 Y-49.56084
G01 X-4.95587 Y-49.48466
G01 X-5.07383 Y-49.37689
G01 X-5.33481 Y-49.18461
G01 X-5.46039 Y-49.21926
G01 X-5.58902 Y-49.24842
G01 X-5.76044 Y-49.27707
G01 X-5.89575 Y-49.29160
G01 X-6.01756 Y-49.29848
G01 X-6.14164 Y-49.29942
G01 X-6.27626 Y-49.29368
G01 X-6.48073 Y-49.27128
G01 X-6.65089 Y-49.24006
G01 X-6.78038 Y-49.20864
G01 X-7.05500 Y-49.12545
G01 X-7.14441 Y-49.10244
G01 X-7.39143 Y-49.05456
G01 X-7.45170 Y-48.86302
G01 X-7.50804 Y-48.63219
G01 X-7.53641 Y-48.47234
G01 X-7.56041 Y-48.26432
G01 X-7.56973 Y-48.04207
G01 X-7.56694 Y-47.90145
G01 X-7.55066 Y-47.69551
G01 X-7.52846 Y-47.53742
G01 X-7.48137 Y-47.30920
G01 X-7.44080 Y-47.15939
G01 X-7.38579 Y-46.99028
G01 X-7.29534 Y-46.75949
G01 X-7.34123 Y-46.64878
G01 X-7.40443 Y-46.47578
G01 X-7.45170 Y-46.32302
G01 X-7.49026 Y-46.17357
G01 X-7.52119 Y-46.02386
G01 X-7.54565 Y-45.86625
G01 X-7.56041 Y-45.72432
G01 X-7.56826 Y-45.58342
G01 X-7.56694 Y-45.36145
G01 X-7.55736 Y-45.22008
G01 X-7.53882 Y-45.06402
G01 X-7.51370 Y-44.91606
G01 X-7.46376 Y-44.70072
G01 X-7.41672 Y-44.54180
G01 X-7.35521 Y-44.36697
G01 X-7.29534 Y-44.21950
G01 X-7.34123 Y-44.10878
G01 X-7.40443 Y-43.93578
G01 X-7.45170 Y-43.78302
G01 X-7.49026 Y-43.63357
G01 X-7.52119 Y-43.48386
G01 X-7.54565 Y-43.32625
G01 X-7.56041 Y-43.18432
G01 X-7.56826 Y-43.04342
G01 X-7.56694 Y-42.82145
G01 X-7.55736 Y-42.68008
G01 X-7.53882 Y-42.52402
G01 X-7.51370 Y-42.37606
G01 X-7.46376 Y-42.16072
G01 X-7.41672 Y-42.00180
G01 X-7.35521 Y-41.82697
G01 X-7.29534 Y-41.67949
G01 X-7.34123 Y-41.56878
G01 X-7.40443 Y-41.39578
G01 X-7.47362 Y-41.16169
G01 X-7.52119 Y-40.94386
G01 X-7.54565 Y-40.78625
G01 X-7.56041 Y-40.64432
G01 X-7.56826 Y-40.50342
G01 X-7.56938 Y-40.36278
G01 X-7.55736 Y-40.14008
G01 X-7.52846 Y-39.91742
G01 X-7.50019 Y-39.77053
G01 X-7.46376 Y-39.62072
G01 X-7.41708 Y-39.46284
G01 X-7.32452 Y-39.41707
G01 X-7.14477 Y-39.33736
G01 X-7.01807 Y-39.30388
G01 X-6.81274 Y-39.24018
G01 X-6.68439 Y-39.20739
G01 X-6.55836 Y-39.18151
G01 X-6.43438 Y-39.16215
G01 X-6.23049 Y-39.14348
G01 X-6.06598 Y-39.14041
G01 X-5.93123 Y-39.14574
G01 X-5.72699 Y-39.16754
G01 X-5.60233 Y-39.18890
G01 X-5.47586 Y-39.21684
G01 X-5.33712 Y-39.25461
G01 X-5.14375 Y-39.11719
G01 X-5.05201 Y-39.04508
G01 X-4.95463 Y-38.95352
G01 X-4.90873 Y-38.87912
G01 X-4.88051 Y-38.79345
G01 X-4.87472 Y-38.71999
G01 X-4.87535 Y-36.98913
G01 X-4.88051 Y-36.94651
G01 X-4.90873 Y-36.86084
G01 X-4.95587 Y-36.78466
G01 X-5.07383 Y-36.67689
G01 X-5.33481 Y-36.48461
G01 X-5.46039 Y-36.51926
G01 X-5.58902 Y-36.54842
G01 X-5.76044 Y-36.57707
G01 X-5.89575 Y-36.59160
G01 X-6.01756 Y-36.59848
G01 X-6.14164 Y-36.59942
G01 X-6.27626 Y-36.59368
G01 X-6.48073 Y-36.57128
G01 X-6.65089 Y-36.54006
G01 X-6.78038 Y-36.50864
G01 X-7.05500 Y-36.42545
G01 X-7.14441 Y-36.40244
G01 X-7.39734 Y-36.35362
G01 X-7.43506 Y-36.23762
G01 X-7.47827 Y-36.08438
G01 X-7.52607 Y-35.86551
G01 X-7.55990 Y-35.62607
G01 X-7.57075 Y-35.48362
G01 X-7.57474 Y-35.34225
G01 X-7.56867 Y-35.14065
G01 X-7.55559 Y-34.99421
G01 X-7.53331 Y-34.83559
G01 X-7.50491 Y-34.68822
G01 X-7.46839 Y-34.53790
G01 X-7.42117 Y-34.37839
G01 X-7.35942 Y-34.20300
G01 X-7.30131 Y-34.05947
G01 X-7.34553 Y-33.95256
G01 X-7.40890 Y-33.77900
G01 X-7.45632 Y-33.62571
G01 X-7.49503 Y-33.47575
G01 X-7.52607 Y-33.32551
G01 X-7.55061 Y-33.16740
G01 X-7.56539 Y-33.02498
G01 X-7.57326 Y-32.88360
G01 X-7.57194 Y-32.66115
G01 X-7.56232 Y-32.51929
G01 X-7.54375 Y-32.36272
G01 X-7.51855 Y-32.21424
G01 X-7.46839 Y-31.99790
G01 X-7.42117 Y-31.83839
G01 X-7.35942 Y-31.66300
G01 X-7.30131 Y-31.51947
G01 X-7.34553 Y-31.41256
G01 X-7.40890 Y-31.23900
G01 X-7.45632 Y-31.08571
G01 X-7.49503 Y-30.93575
G01 X-7.52607 Y-30.78551
G01 X-7.55061 Y-30.62740
G01 X-7.56539 Y-30.48498
G01 X-7.57326 Y-30.34360
G01 X-7.57194 Y-30.12115
G01 X-7.56232 Y-29.97929
G01 X-7.54375 Y-29.82272
G01 X-7.51855 Y-29.67424
G01 X-7.46839 Y-29.45790
G01 X-7.42117 Y-29.29839
G01 X-7.35942 Y-29.12300
G01 X-7.30131 Y-28.97947
G01 X-7.34553 Y-28.87256
G01 X-7.40890 Y-28.69900
G01 X-7.47827 Y-28.46438
G01 X-7.52607 Y-28.24551
G01 X-7.55990 Y-28.00607
G01 X-7.57075 Y-27.86362
G01 X-7.57474 Y-27.72225
G01 X-7.56867 Y-27.52065
G01 X-7.54375 Y-27.28272
G01 X-7.51855 Y-27.13424
G01 X-7.48609 Y-26.98689
G01 X-7.44543 Y-26.83655
G01 X-7.39701 Y-26.68697
G01 X-7.27225 Y-26.66487
G01 X-7.10527 Y-26.62789
G01 X-6.81274 Y-26.54018
G01 X-6.60303 Y-26.48996
G01 X-6.43438 Y-26.46215
G01 X-6.23049 Y-26.44348
G01 X-6.10875 Y-26.44016
G01 X-5.97446 Y-26.44328
G01 X-5.80834 Y-26.45687
G01 X-5.68368 Y-26.47427
G01 X-5.55722 Y-26.49814
G01 X-5.33712 Y-26.55461
G01 X-5.14375 Y-26.41719
G01 X-5.05203 Y-26.34511
G01 X-4.95463 Y-26.25352
G01 X-4.90873 Y-26.17909
G01 X-4.88051 Y-26.09342
G01 X-4.87535 Y-26.05080
G01 X-4.87472 Y-24.31999
G01 X-4.88051 Y-24.24651
G01 X-4.90873 Y-24.16084
G01 X-4.95587 Y-24.08466
G01 X-5.07383 Y-23.97689
G01 X-5.33481 Y-23.78461
G01 X-5.46039 Y-23.81926
G01 X-5.58902 Y-23.84842
G01 X-5.76044 Y-23.87707
G01 X-5.97710 Y-23.89685
G01 X-6.09892 Y-23.89983
G01 X-6.23316 Y-23.89627
G01 X-6.35762 Y-23.88674
G01 X-6.48073 Y-23.87128
G01 X-6.65089 Y-23.84006
G01 X-6.78038 Y-23.80864
G01 X-7.05500 Y-23.72545
G01 X-7.14441 Y-23.70244
G01 X-7.31296 Y-23.66714
G01 X-7.37230 Y-23.49261
G01 X-7.42836 Y-23.28515
G01 X-7.47319 Y-23.05075
G01 X-7.49569 Y-22.85576
G01 X-7.50473 Y-22.63973
G01 X-7.49910 Y-22.45157
G01 X-7.47492 Y-22.22083
G01 X-7.45086 Y-22.07964
G01 X-7.40395 Y-21.87743
G01 X-7.35917 Y-21.72576
G01 X-7.30039 Y-21.55845
G01 X-7.21713 Y-21.35942
G01 X-5.48866 Y-21.36036
G01 X-5.38493 Y-21.22696
G01 X-5.22199 Y-21.05823
G01 X-4.99684 Y-20.99282
G01 X-4.92699 Y-20.98274
G01 X-4.81721 Y-20.97494
G01 X-4.38429 Y-20.97537
G01 X-4.27294 Y-20.95919
G01 X-4.22788 Y-20.95043
G01 X-4.17195 Y-20.93262
G01 X-4.05778 Y-20.88868
G01 X-3.92468 Y-20.80923
G01 X-3.80375 Y-20.70402
G01 X-0.45275 Y-17.34957
G01 X-0.24359 Y-17.15846
G01 X-0.12301 Y-17.06369
G01 X0.16751 Y-16.85440
G01 X0.26322 Y-16.78996
G01 X0.58882 Y-16.59400
G01 X0.98339 Y-16.39804
G01 X1.13635 Y-16.32816
G01 X1.99949 Y-15.98112
G01 X1.99949 Y1.99949
G01 X-100.99949 Y1.99949
G01 X-100.99949 Y-63.99949
G01 X1.99949 Y-63.99949
G01 X1.99949 Y-15.98112
G04 P0 ( dwell for no time -- G64 should not smooth over this point )
G00 Z2.00000 ( retract )

G00 X-2.22847 Y-14.63070 ( rapid move to begin. )
G01 F100.00000
( Mill infeed pass 1/1 )
G01 Z-0.30000
G04 P0 ( dwell for no time -- G64 should not smooth over this point )
G01 F100.00000
G01 X-2.22847 Y-14.63070
G01 X-2.12725 Y-14.80972
G01 X-2.09535 Y-14.87962
G01 X-2.02303 Y-15.12052
G01 X-2.01298 Y-15.19039
G01 X-2.00523 Y-15.29832
G01 X-2.00523 Y-16.22064
G01 X-2.00774 Y-16.28752
G01 X-2.02623 Y-16.41874
G01 X-2.08064 Y-16.49186
G01 X-2.15146 Y-16.57365
G01 X-4.16291 Y-18.58513
G01 X-4.22834 Y-18.64335
G01 X-4.27337 Y-18.67898
G01 X-4.46105 Y-18.79039
G01 X-4.52991 Y-18.82036
G01 X-4.69367 Y-18.87652
G01 X-4.92956 Y-18.91800
G01 X-5.09615 Y-18.86494
G01 X-5.14685 Y-18.81975
G01 X-7.21777 Y-18.81970
G01 X-5.14685 Y-18.81975
G01 X-5.12234 Y-18.61365
G01 X-5.08290 Y-18.37802
G01 X-5.06214 Y-18.29148
G01 X-5.03779 Y-18.21111
G01 X-4.92531 Y-17.90113
G01 X-4.88841 Y-17.74185
G01 X-4.87286 Y-17.54998
G01 X-4.88135 Y-17.42219
G01 X-4.88831 Y-17.35808
G01 X-4.89948 Y-17.30411
G01 X-4.93316 Y-17.17083
G01 X-5.00670 Y-16.99293
G01 X-5.10758 Y-16.82897
G01 X-5.24144 Y-16.66837
G01 X-5.36430 Y-16.50073
G01 X-5.43530 Y-16.38170
G01 X-5.48871 Y-16.28026
G01 X-7.21744 Y-16.28013
G01 X-5.48871 Y-16.28026
G01 X-5.36674 Y-16.12610
G01 X-5.22232 Y-15.97848
G01 X-4.99679 Y-15.91300
G01 X-4.92694 Y-15.90297
G01 X-4.81902 Y-15.89519
G01 X-3.84909 Y-15.89529
G01 X-3.78056 Y-15.89067
G01 X-3.62687 Y-15.85714
G01 X-3.50154 Y-15.80695
G01 X-3.42389 Y-15.76179
G01 X-3.34996 Y-15.71079
G01 X-3.27010 Y-15.63969
G01 X-3.23512 Y-15.60342
G01 X-3.15288 Y-15.49636
G01 X-3.09334 Y-15.38503
G01 X-3.05971 Y-15.29972
G01 X-3.00584 Y-15.11287
G01 X-2.90195 Y-14.98956
G01 X-2.85013 Y-14.93792
G01 X-2.74683 Y-14.85181
G01 X-2.68854 Y-14.81130
G01 X-2.45318 Y-14.69537
G01 X-2.37904 Y-14.67063
G01 X-2.22847 Y-14.63070
G01 X-2.18521 Y-14.51950
G01 X-2.13924 Y-14.37582
G01 X-2.10541 Y-14.23733
G01 X-2.08234 Y-14.10261
G01 X-2.06893 Y-13.96550
G01 X-2.06497 Y-13.84998
G01 X-2.06497 Y-5.87997
G01 X-2.07010 Y-5.74690
G01 X-2.07782 Y-5.66433
G01 X-2.08679 Y-5.59628
G01 X-2.13594 Y-5.51927
G01 X-2.22781 Y-5.39372
G01 X-2.35565 Y-5.24937
G01 X-3.04305 Y-4.56585
G01 X-3.18734 Y-4.44906
G01 X-3.29778 Y-4.37431
G01 X-3.38338 Y-4.32397
G01 X-3.49240 Y-4.31396
G01 X-3.60997 Y-4.30997
G01 X-32.29999 Y-4.30997
G01 X-32.43770 Y-4.31531
G01 X-32.59917 Y-4.33372
G01 X-32.68175 Y-4.34838
G01 X-32.81352 Y-4.37954
G01 X-32.90778 Y-4.45585
G01 X-33.00766 Y-4.54772
G01 X-34.66320 Y-6.20113
G01 X-34.73074 Y-6.26158
G01 X-34.86508 Y-6.36732
G01 X-34.94829 Y-6.42409
G01 X-35.11969 Y-6.52564
G01 X-35.18177 Y-6.74980
G01 X-35.20928 Y-6.82109
G01 X-35.32983 Y-7.03903
G01 X-35.37268 Y-7.09496
G01 X-35.46094 Y-7.19544
G01 X-35.55385 Y-7.32899
G01 X-35.61006 Y-7.44997
G01 X-35.67859 Y-7.67588
G01 X-35.79365 Y-7.80138
G01 X-35.90247 Y-7.92958
G01 X-35.99863 Y-8.08566
G01 X-36.06902 Y-8.25637
G01 X-36.10064 Y-8.38129
G01 X-36.11905 Y-8.50184
G01 X-36.12586 Y-8.61997
G01 X-36.11905 Y-8.73808
G01 X-36.11141 Y-8.80392
G01 X-36.08746 Y-8.91443
G01 X-36.06561 Y-8.99320
G01 X-36.03379 Y-9.08609
G01 X-36.00204 Y-9.20643
G01 X-35.96330 Y-9.40351
G01 X-35.94890 Y-9.51624
G01 X-35.77123 Y-9.58893
G01 X-35.64923 Y-9.63038
G01 X-35.46323 Y-9.68078
G01 X-35.23229 Y-9.72182
G01 X-35.11029 Y-9.73389
G01 X-34.95101 Y-9.73968
G01 X-34.73209 Y-9.72901
G01 X-34.55657 Y-9.70506
G01 X-34.43458 Y-9.68027
G01 X-34.19800 Y-9.61354
G01 X-34.06737 Y-9.56584
G01 X-33.94796 Y-9.51581
G01 X-33.92749 Y-9.34961
G01 X-33.91378 Y-9.27303
G01 X-33.86767 Y-9.09704
G01 X-33.81362 Y-8.91977
G01 X-33.78759 Y-8.80407
G01 X-33.78253 Y-8.75543
G01 X-33.77301 Y-8.61997
G01 X-33.78746 Y-8.43582
G01 X-33.82127 Y-8.27552
G01 X-33.84649 Y-8.11200
G01 X-33.78657 Y-8.01949
G01 X-33.74426 Y-7.96298
G01 X-33.67349 Y-7.88129
G01 X-32.03463 Y-6.24596
G01 X-31.92874 Y-6.16621
G01 X-31.83852 Y-6.15297
G01 X-31.73044 Y-6.14523
G01 X-31.11927 Y-6.14538
G01 X-30.98389 Y-6.15762
G01 X-30.91401 Y-6.17024
G01 X-30.66603 Y-6.25467
G01 X-30.59615 Y-6.28965
G01 X-30.41940 Y-6.39691
G04 P0 ( dwell for no time -- G64 should not smooth over this point )
G00 Z2.00000 ( retract )

G00 X-22.93767 Y-6.33501 ( rapid move to begin. )
G01 F100.00000
( Mill infeed pass 1/1 )
G01 Z-0.30000
G04 P0 ( dwell for no time -- G64 should not smooth over this point )
G01 F100.00000
G01 X-22.93767 Y-6.33501
G01 X-22.90534 Y-6.47984
G01 X-22.85738 Y-6.64969
G01 X-22.82149 Y-6.75061
G01 X-22.71296 Y-7.01076
G01 X-22.66841 Y-7.19811
G01 X-22.65556 Y-7.33758
G01 X-22.65322 Y-7.38998
G01 X-22.65624 Y-7.45269
G01 X-22.66798 Y-7.58193
G01 X-22.69587 Y-7.70491
G01 X-22.71324 Y-7.76910
G01 X-22.76221 Y-7.89211
G01 X-22.78697 Y-7.94690
G01 X-22.83381 Y-8.02749
G01 X-22.88720 Y-8.11126
G01 X-22.95040 Y-8.18794
G01 X-23.01258 Y-8.25739
G01 X-23.11336 Y-8.35599
G01 X-23.22330 Y-8.47644
G01 X-23.27753 Y-8.54603
G01 X-23.35517 Y-8.65975
G01 X-24.49144 Y-8.65983
G01 X-24.56802 Y-8.80361
G01 X-24.64943 Y-8.92955
G01 X-24.74740 Y-9.05954
G01 X-24.87239 Y-9.20895
G01 X-24.97300 Y-9.37306
G01 X-25.04704 Y-9.55076
G01 X-25.07559 Y-9.66264
G01 X-25.09650 Y-9.78027
G01 X-25.10683 Y-9.93336
G01 X-25.08999 Y-10.13120
G01 X-25.05415 Y-10.28273
G01 X-25.02385 Y-10.36907
G01 X-24.97270 Y-10.48852
G01 X-24.76368 Y-10.82815
G01 X-24.70389 Y-10.94803
G01 X-24.64272 Y-11.08527
G01 X-24.43089 Y-11.14006
G01 X-24.26073 Y-11.17128
G01 X-24.05626 Y-11.19368
G01 X-23.87892 Y-11.19983
G01 X-23.67575 Y-11.19160
G01 X-23.49515 Y-11.17064
G01 X-23.28769 Y-11.13074
G01 X-23.11481 Y-11.08461
G01 X-22.85383 Y-11.27689
G01 X-22.73587 Y-11.38466
G01 X-22.68896 Y-11.46040
G01 X-22.65058 Y-11.59022
G01 X-22.62665 Y-11.69573
G01 X-20.69587 Y-13.62380
G01 X-20.59059 Y-13.74457
G01 X-20.50999 Y-13.87955
G01 X-20.45810 Y-14.01727
G01 X-20.44289 Y-14.08758
G01 X-20.42452 Y-14.20731
G01 X-20.42472 Y-56.64548
G01 X-20.41695 Y-56.75335
G01 X-20.40692 Y-56.82323
G01 X-20.33758 Y-57.05757
G01 X-20.26102 Y-57.08614
G01 X-20.05884 Y-57.13471
G01 X-19.92549 Y-57.14472
G01 X-18.75031 Y-57.14472
G01 X-18.64241 Y-57.13694
G01 X-18.57253 Y-57.12691
G01 X-18.33146 Y-57.05452
G01 X-18.26158 Y-57.02262
G01 X-17.99570 Y-56.85820
G01 X-17.82262 Y-56.88023
G01 X-17.67728 Y-56.89102
G01 X-17.52222 Y-56.89473
G01 X-17.29933 Y-56.88574
G01 X-17.09903 Y-56.86331
G01 X-16.95742 Y-56.77347
G01 X-16.83972 Y-56.68988
G01 X-16.65859 Y-56.54289
G01 X-16.52016 Y-56.41233
G01 X-16.41107 Y-56.29552
G01 X-16.37568 Y-56.18597
G01 X-16.33985 Y-56.05615
G01 X-16.29410 Y-55.83494
G01 X-16.27210 Y-55.66631
G01 X-16.26037 Y-55.45016
G01 X-16.26370 Y-55.28559
G01 X-16.28445 Y-55.06893
G01 X-16.31399 Y-54.89710
G01 X-16.34381 Y-54.76819
G01 X-16.37528 Y-54.65470
G01 X-16.18308 Y-54.39385
G01 X-16.07528 Y-54.27586
G01 X-15.99910 Y-54.22872
G01 X-15.91343 Y-54.20053
G01 X-15.84000 Y-54.19474
G01 X-14.10914 Y-54.19535
G01 X-14.06655 Y-54.20053
G01 X-13.98085 Y-54.22875
G01 X-13.90642 Y-54.27464
G01 X-13.81488 Y-54.37200
G01 X-13.74280 Y-54.46367
G01 X-13.60531 Y-54.65717
G01 X-13.64209 Y-54.79176
G01 X-13.67031 Y-54.91856
G01 X-13.70404 Y-55.13730
G01 X-13.71714 Y-55.30339
G01 X-13.71981 Y-55.42488
G01 X-13.71666 Y-55.54662
G01 X-13.69830 Y-55.75059
G01 X-13.66761 Y-55.93479
G01 X-13.61239 Y-56.15828
G01 X-13.52842 Y-56.43971
G01 X-13.49179 Y-56.60956
G01 X-13.47318 Y-56.71711
G01 X-13.24696 Y-56.78706
G01 X-13.03030 Y-56.83766
G01 X-12.88565 Y-56.86257
G01 X-12.66129 Y-56.88719
G01 X-12.50577 Y-56.89417
G01 X-12.30071 Y-56.89097
G01 X-12.07696 Y-56.87116
G01 X-11.91913 Y-56.84690
G01 X-11.76861 Y-56.81604
G01 X-11.54364 Y-56.75567
G01 X-11.41562 Y-56.64383
G01 X-11.29932 Y-56.53115
G01 X-11.07928 Y-56.50126
G01 X-10.99731 Y-56.48437
G01 X-10.84163 Y-56.44170
G01 X-10.70343 Y-56.38155
G01 X-10.63897 Y-56.34723
G01 X-10.49350 Y-56.24845
G01 X-10.42223 Y-56.18444
G01 X-9.82144 Y-55.58366
G01 X-9.75063 Y-55.50187
G01 X-9.69620 Y-55.42872
G01 X-9.67773 Y-55.29753
G01 X-9.67522 Y-55.23065
G01 X-9.67682 Y-51.28471
G01 X-9.66213 Y-51.09919
G01 X-9.62779 Y-50.96998
G01 X-9.57346 Y-50.83320
G01 X-9.56523 Y-50.71783
G01 X-9.56523 Y-39.00879
G01 X-9.57631 Y-38.82997
G01 X-9.57687 Y-25.63472
G01 X-9.56206 Y-25.44920
G01 X-9.52797 Y-25.32248
G01 X-9.44466 Y-25.13256
G01 X-9.43521 Y-25.00422
G01 X-9.43511 Y-13.68720
G01 X-9.42609 Y-13.57495
G01 X-9.37953 Y-13.40010
G01 X-9.31240 Y-13.26045
G01 X-9.21781 Y-13.12992
G01 X-7.95757 Y-11.86744
G01 X-7.81568 Y-11.74702
G01 X-7.70270 Y-11.68105
G01 X-7.65482 Y-11.66142
G01 X-7.35551 Y-11.56104
G01 X-7.24532 Y-11.38644
G01 X-7.14794 Y-11.29487
G01 X-7.05620 Y-11.22276
G01 X-6.86272 Y-11.08527
G01 X-6.65089 Y-11.14006
G01 X-6.48073 Y-11.17128
G01 X-6.27626 Y-11.19368
G01 X-6.09892 Y-11.19983
G01 X-5.89575 Y-11.19160
G01 X-5.71515 Y-11.17064
G01 X-5.50769 Y-11.13074
G01 X-5.33481 Y-11.08461
G01 X-5.29585 Y-10.98766
G01 X-5.23517 Y-10.86376
G01 X-5.16687 Y-10.74346
G01 X-5.08137 Y-10.61154
G01 X-5.00700 Y-10.48690
G01 X-4.93296 Y-10.30917
G01 X-4.88843 Y-10.12187
G01 X-4.87269 Y-9.92995
G01 X-4.88135 Y-9.80219
G01 X-4.89146 Y-9.72147
G01 X-4.93098 Y-9.55822
G01 X-4.95958 Y-9.48205
G01 X-5.00670 Y-9.37293
G01 X-5.10758 Y-9.20897
G01 X-5.23230 Y-9.06221
G01 X-5.30347 Y-8.99566
G01 X-5.41193 Y-8.87961
G01 X-5.49537 Y-8.77705
G01 X-5.57500 Y-8.65998
G01 X-6.62480 Y-8.65998
G01 X-6.73778 Y-8.49965
G01 X-6.87624 Y-8.34527
G01 X-6.96763 Y-8.25772
G01 X-7.09237 Y-8.11098
G01 X-7.19333 Y-7.94708
G01 X-7.22955 Y-7.86427
G01 X-7.26653 Y-7.76902
G01 X-7.31172 Y-7.58187
G01 X-7.32701 Y-7.38998
G01 X-7.31152 Y-7.19811
G01 X-7.26704 Y-7.01076
G01 X-7.17095 Y-6.78040
G01 X-7.09747 Y-6.57052
G01 X-7.06311 Y-6.42968
G01 X-7.04543 Y-6.33644
G01 X-6.84416 Y-6.26732
G01 X-6.66940 Y-6.22079
G01 X-6.46549 Y-6.18218
G01 X-6.30712 Y-6.16382
G01 X-6.10738 Y-6.15513
G01 X-5.93702 Y-6.16049
G01 X-5.73616 Y-6.18193
G01 X-5.57329 Y-6.21132
G01 X-5.36595 Y-6.26422
G01 X-5.15790 Y-6.33514
G01 X-5.13039 Y-6.46067
G01 X-5.06491 Y-6.68818
G01 X-4.93316 Y-7.01083
G01 X-4.89948 Y-7.14411
G01 X-4.88831 Y-7.19808
G01 X-4.87269 Y-7.38998
G01 X-4.88422 Y-7.54700
G01 X-4.89755 Y-7.62726
G01 X-4.93296 Y-7.76917
G01 X-4.98483 Y-7.89810
G01 X-5.02046 Y-7.97123
G01 X-5.10746 Y-8.11108
G01 X-5.23250 Y-8.25749
G01 X-5.32384 Y-8.34570
G01 X-5.43293 Y-8.46412
G01 X-5.48744 Y-8.53242
G01 X-5.57500 Y-8.65998
G01 X-6.62480 Y-8.65998
G01 X-6.70745 Y-8.78075
G01 X-6.76181 Y-8.84969
G01 X-6.88116 Y-8.97961
G01 X-6.96755 Y-9.06239
G01 X-7.09242 Y-9.20895
G01 X-7.18312 Y-9.35505
G01 X-7.21805 Y-9.42853
G01 X-7.26704 Y-9.55076
G01 X-7.29559 Y-9.66264
G01 X-7.31650 Y-9.78024
G01 X-7.32701 Y-9.92998
G01 X-7.30999 Y-10.13120
G01 X-7.27415 Y-10.28273
G01 X-7.24385 Y-10.36907
G01 X-7.19270 Y-10.48852
G01 X-6.98368 Y-10.82815
G01 X-6.92389 Y-10.94803
G01 X-6.86272 Y-11.08527
G01 X-6.65089 Y-11.14006
G01 X-6.48073 Y-11.17128
G01 X-6.27626 Y-11.19368
G01 X-6.09892 Y-11.19983
G01 X-5.89575 Y-11.19160
G01 X-5.71515 Y-11.17064
G01 X-5.50769 Y-11.13074
G01 X-5.33481 Y-11.08461
G01 X-5.07383 Y-11.27689
G01 X-4.95587 Y-11.38466
G01 X-4.90873 Y-11.46084
G01 X-4.88051 Y-11.54651
G01 X-4.87535 Y-11.58913
G01 X-4.87472 Y-13.28166
G01 X-4.86969 Y-13.46317
G01 X-4.88526 Y-13.86454
G04 P0 ( dwell for no time -- G64 should not smooth over this point )
G00 Z2.00000 ( retract )

G00 X-22.69081 Y-18.81970 ( rapid move to begin. )
G01 F100.00000
( Mill infeed pass 1/1 )
G01 Z-0.30000
G04 P0 ( dwell for no time -- G64 should not smooth over this point )
G01 F100.00000
G01 X-22.69081 Y-18.81970
G01 X-22.59759 Y-18.58355
G01 X-22.56762 Y-18.49450
G01 X-22.51393 Y-18.31033
G01 X-22.47577 Y-18.14553
G01 X-22.44679 Y-17.97957
G01 X-22.43366 Y-17.87792
G01 X-22.41987 Y-17.71495
G01 X-22.41583 Y-17.49062
G01 X-22.42335 Y-17.33202
G01 X-22.43958 Y-17.17228
G01 X-22.46506 Y-17.00974
G01 X-22.50148 Y-16.83946
G01 X-22.55230 Y-16.65392
G01 X-22.61202 Y-16.47634
G01 X-22.69053 Y-16.28056
G01 X-22.60364 Y-16.06075
G01 X-22.55365 Y-15.91086
G01 X-22.49825 Y-15.70789
G01 X-22.45942 Y-15.51910
G01 X-22.43036 Y-15.30873
G01 X-22.41702 Y-15.11567
G01 X-22.41695 Y-14.90797
G01 X-22.42863 Y-14.72745
G01 X-22.51870 Y-14.57000
G01 X-22.59338 Y-14.45415
G01 X-22.67135 Y-14.34498
G01 X-22.75307 Y-14.24142
G01 X-22.84057 Y-14.14099
G01 X-22.93943 Y-14.03840
G01 X-23.03422 Y-13.94950
G01 X-23.16312 Y-13.84165
G01 X-23.33722 Y-13.79814
G01 X-23.46368 Y-13.77427
G01 X-23.58835 Y-13.75689
G01 X-23.71123 Y-13.74574
G01 X-23.84598 Y-13.74041
G01 X-23.99543 Y-13.74285
G01 X-24.18199 Y-13.75814
G01 X-24.32522 Y-13.77927
G01 X-24.48486 Y-13.81229
G01 X-24.64656 Y-13.85590
G01 X-24.78176 Y-13.89880
G01 X-24.89840 Y-13.88773
G01 X-25.06817 Y-13.98275
G01 X-25.13808 Y-14.01465
G01 X-25.37884 Y-14.08692
G01 X-25.44872 Y-14.09695
G01 X-25.55664 Y-14.10472
G01 X-28.14241 Y-14.10472
G01 X-28.28912 Y-14.09159
G01 X-28.47081 Y-13.99449
G01 X-28.63558 Y-13.92812
G01 X-28.80594 Y-13.88803
G01 X-28.98996 Y-13.87315
G01 X-29.03393 Y-13.87526
G01 X-29.17406 Y-13.88768
G01 X-29.35366 Y-13.93066
G01 X-29.52438 Y-14.00124
G01 X-29.72336 Y-14.09949
G01 X-29.93697 Y-14.17429
G01 X-30.09034 Y-14.21856
G01 X-30.15107 Y-14.42489
G01 X-30.19565 Y-14.63810
G01 X-30.22031 Y-14.83284
G01 X-30.22760 Y-14.94620
G01 X-30.22968 Y-15.07239
G01 X-30.21909 Y-15.28018
G01 X-30.19661 Y-15.45547
G01 X-30.15267 Y-15.66827
G01 X-30.08965 Y-15.88247
G01 X-30.21490 Y-16.12679
G01 X-30.24012 Y-16.19667
G01 X-30.28569 Y-16.39349
G01 X-30.29473 Y-16.52029
G01 X-30.29295 Y-22.47735
G01 X-30.30405 Y-22.63712
G01 X-30.35054 Y-22.81926
G01 X-30.35330 Y-22.86224
G01 X-30.35473 Y-23.85652
G01 X-30.34698 Y-23.96442
G01 X-30.33692 Y-24.03429
G01 X-30.27139 Y-24.25997
G01 X-30.22189 Y-24.38817
G01 X-29.88269 Y-24.51918
G01 X-29.84508 Y-24.67214
G01 X-29.82643 Y-24.79035
G01 X-29.81251 Y-24.91163
G01 X-29.79204 Y-25.18481
G01 X-29.75790 Y-25.34415
G01 X-29.73197 Y-25.53932
G01 X-29.72394 Y-25.66022
G01 X-29.72311 Y-25.73942
G01 X-29.51970 Y-25.83759
G01 X-29.31820 Y-25.91483
G01 X-29.21455 Y-25.94691
G01 X-29.05536 Y-25.98572
G01 X-28.89225 Y-26.01300
G01 X-28.73289 Y-26.02713
G01 X-28.54025 Y-26.02771
G01 X-28.38110 Y-26.01465
G01 X-28.25913 Y-25.99629
G01 X-28.07345 Y-25.95476
G01 X-27.96106 Y-25.86172
G01 X-27.85732 Y-25.76416
G01 X-27.77094 Y-25.67216
G01 X-27.68303 Y-25.56632
G01 X-27.59913 Y-25.45133
G01 X-27.52004 Y-25.32715
G01 X-27.44569 Y-25.19246
G01 X-27.39809 Y-25.09307
G01 X-26.88283 Y-24.57760
G01 X-26.60818 Y-24.27336
G01 X-26.42314 Y-24.29642
G01 X-26.20046 Y-24.30480
G01 X-25.44059 Y-24.30473
G01 X-25.33218 Y-24.29698
G01 X-25.26231 Y-24.28692
G01 X-25.14476 Y-24.26104
G01 X-25.09492 Y-24.18291
G01 X-25.02764 Y-24.08906
G01 X-24.92794 Y-23.99487
G01 X-24.83620 Y-23.92276
G01 X-24.64272 Y-23.78527
G01 X-24.43089 Y-23.84006
G01 X-24.30394 Y-23.86442
G01 X-24.17938 Y-23.88217
G01 X-24.01316 Y-23.89627
G01 X-23.87892 Y-23.89983
G01 X-23.75710 Y-23.89685
G01 X-23.54044 Y-23.87707
G01 X-23.36902 Y-23.84842
G01 X-23.15906 Y-23.79746
G01 X-22.88423 Y-23.71453
G01 X-22.70155 Y-23.67382
G01 X-22.59465 Y-23.65512
G01 X-22.54659 Y-23.50737
G01 X-22.50557 Y-23.35761
G01 X-22.45550 Y-23.11573
G01 X-22.43470 Y-22.96823
G01 X-22.42177 Y-22.82657
G01 X-22.41553 Y-22.67181
G01 X-22.41695 Y-22.52797
G01 X-22.42523 Y-22.38731
G01 X-22.44227 Y-22.23204
G01 X-22.46589 Y-22.08492
G01 X-22.49663 Y-21.93920
G01 X-22.53546 Y-21.79048
G01 X-22.58332 Y-21.63747
G01 X-22.64700 Y-21.46485
G01 X-22.69048 Y-21.36046
G01 X-22.62703 Y-21.20382
G01 X-22.56925 Y-21.03996
G01 X-22.52335 Y-20.88599
G01 X-22.48649 Y-20.73626
G01 X-22.45550 Y-20.57573
G01 X-22.43470 Y-20.42823
G01 X-22.41827 Y-20.22330
G01 X-22.41525 Y-20.06933
G01 X-22.41961 Y-19.92869
G01 X-22.43127 Y-19.78355
G01 X-22.45187 Y-19.62628
G01 X-22.47857 Y-19.48053
G01 X-22.51329 Y-19.33186
G01 X-22.55688 Y-19.17883
G01 X-22.64700 Y-18.92485
G01 X-22.69081 Y-18.81970
G01 X-24.47897 Y-18.82036
G01 X-24.59891 Y-18.90933
G01 X-24.71136 Y-19.00271
G01 X-24.81006 Y-19.09341
G01 X-24.93724 Y-19.22485
G01 X-25.03198 Y-19.33524
G01 X-25.11402 Y-19.44126
G01 X-25.19284 Y-19.55391
G01 X-25.28893 Y-19.70956
G01 X-25.45491 Y-19.74733
G01 X-25.60272 Y-19.80336
G01 X-25.66995 Y-19.83494
G01 X-25.84138 Y-19.94192
G01 X-25.93729 Y-20.02511
G01 X-26.53850 Y-20.62630
G01 X-26.60932 Y-20.70809
G01 X-26.66373 Y-20.78119
G01 X-26.68222 Y-20.91279
G01 X-26.68471 Y-20.97933
G01 X-26.68471 Y-23.80455
G01 X-26.67696 Y-23.91235
G01 X-26.65715 Y-24.06086
G01 X-26.64087 Y-24.14496
G01 X-26.60818 Y-24.27336
G01 X-26.42314 Y-24.29642
G01 X-26.26109 Y-24.30384
G01 X-25.44059 Y-24.30473
G01 X-25.33218 Y-24.29698
G01 X-25.26231 Y-24.28692
G01 X-25.14476 Y-24.26104
G01 X-25.09492 Y-24.18291
G01 X-25.02764 Y-24.08906
G01 X-24.92794 Y-23.99487
G01 X-24.83620 Y-23.92276
G01 X-24.64272 Y-23.78527
G01 X-24.70389 Y-23.64804
G01 X-24.78397 Y-23.49050
G01 X-24.89957 Y-23.31133
G01 X-24.97270 Y-23.18852
G01 X-25.04653 Y-23.00902
G01 X-25.08999 Y-22.83120
G01 X-25.09926 Y-22.75035
G01 X-25.10701 Y-22.62998
G01 X-25.09650 Y-22.48027
G01 X-25.08395 Y-22.39988
G01 X-25.04704 Y-22.25076
G01 X-24.97300 Y-22.07306
G01 X-24.90257 Y-21.95464
G01 X-24.87242 Y-21.90895
G01 X-24.80041 Y-21.82139
G01 X-24.74755 Y-21.76239
G01 X-24.66116 Y-21.67961
G01 X-24.54181 Y-21.54969
G01 X-24.48745 Y-21.48075
G01 X-24.40480 Y-21.35998
G01 X-22.69048 Y-21.36046
G01 X-24.40480 Y-21.35998
G01 X-24.48989 Y-21.23577
G01 X-24.57320 Y-21.13460
G01 X-24.68161 Y-21.01913
G01 X-24.74763 Y-20.95772
G01 X-24.85182 Y-20.83722
G01 X-24.89896 Y-20.77090
G01 X-24.97333 Y-20.64708
G01 X-25.04653 Y-20.46902
G01 X-25.11580 Y-20.17507
G01 X-25.17625 Y-19.97164
G01 X-25.23112 Y-19.83676
G01 X-25.28893 Y-19.70956
G04 P0 ( dwell for no time -- G64 should not smooth over this point )
G00 Z2.00000 ( retract )

G00 X-24.89840 Y-13.88773 ( rapid move to begin. )
G01 F100.00000
( Mill infeed pass 1/1 )
G01 Z-0.30000
G04 P0 ( dwell for no time -- G64 should not smooth over this point )
G01 F100.00000
G01 X-24.89840 Y-13.88773
G01 X-25.00775 Y-13.64884
G01 X-25.07394 Y-13.47495
G01 X-25.09898 Y-13.39647
G01 X-25.10460 Y-13.35082
G01 X-25.10523 Y-11.61997
G01 X-25.09944 Y-11.54651
G01 X-25.07122 Y-11.46084
G01 X-25.02532 Y-11.38644
G01 X-24.92794 Y-11.29487
G01 X-24.83620 Y-11.22276
G01 X-24.64272 Y-11.08527
G01 X-24.43089 Y-11.14006
G01 X-24.26073 Y-11.17128
G01 X-24.05626 Y-11.19368
G01 X-23.87892 Y-11.19983
G01 X-23.67575 Y-11.19160
G01 X-23.49515 Y-11.17064
G01 X-23.28769 Y-11.13074
G01 X-23.11481 Y-11.08461
G01 X-23.07585 Y-10.98766
G01 X-23.01517 Y-10.86376
G01 X-22.94687 Y-10.74346
G01 X-22.86137 Y-10.61154
G01 X-22.78700 Y-10.48690
G01 X-22.71296 Y-10.30917
G01 X-22.66841 Y-10.12185
G01 X-22.65286 Y-9.92998
G01 X-22.66135 Y-9.80219
G01 X-22.67146 Y-9.72147
G01 X-22.71098 Y-9.55822
G01 X-22.73958 Y-9.48205
G01 X-22.78670 Y-9.37293
G01 X-22.88758 Y-9.20897
G01 X-23.01230 Y-9.06221
G01 X-23.08347 Y-8.99566
G01 X-23.19193 Y-8.87961
G01 X-23.27537 Y-8.77705
G01 X-23.35517 Y-8.65975
G01 X-24.49144 Y-8.65983
G01 X-24.59896 Y-8.52233
G01 X-24.75725 Y-8.35878
G01 X-24.98529 Y-8.29259
G01 X-25.05431 Y-8.28279
G01 X-25.16096 Y-8.27522
G01 X-27.98585 Y-8.27522
G01 X-28.09372 Y-8.28297
G01 X-28.16791 Y-8.29366
G01 X-28.31643 Y-8.39409
G01 X-28.45559 Y-8.47872
G01 X-28.62643 Y-8.54883
G01 X-28.72466 Y-8.57463
G01 X-28.82440 Y-8.59442
G01 X-28.98999 Y-8.60702
G01 X-29.17408 Y-8.59241
G01 X-29.35361 Y-8.54906
G01 X-29.50149 Y-8.49694
G01 X-29.67505 Y-8.44807
G01 X-29.78955 Y-8.51733
G01 X-29.84693 Y-8.55871
G01 X-29.93982 Y-8.63768
G01 X-30.14843 Y-8.84621
G01 X-30.21932 Y-8.92807
G01 X-30.27373 Y-9.00118
G01 X-30.29364 Y-9.15894
G01 X-30.29473 Y-13.57970
G01 X-30.28696 Y-13.68760
G01 X-30.27693 Y-13.75748
G01 X-30.20459 Y-13.99837
G01 X-30.17269 Y-14.06825
G01 X-30.09034 Y-14.21856
G01 X-30.15107 Y-14.42489
G01 X-30.19565 Y-14.63810
G01 X-30.22031 Y-14.83284
G01 X-30.22760 Y-14.94620
G01 X-30.22968 Y-15.07239
G01 X-30.21909 Y-15.28018
G01 X-30.19661 Y-15.45547
G01 X-30.15267 Y-15.66827
G01 X-30.08965 Y-15.88247
G01 X-29.80550 Y-15.96804
G01 X-29.63050 Y-16.04406
G01 X-29.49324 Y-16.11264
G01 X-29.35369 Y-16.16936
G01 X-29.17403 Y-16.21208
G01 X-29.01897 Y-16.22552
G01 X-28.97350 Y-16.22608
G01 X-28.80594 Y-16.21196
G01 X-28.67838 Y-16.18320
G01 X-28.58158 Y-16.15214
G01 X-28.45582 Y-16.09829
G01 X-28.40325 Y-16.06824
G01 X-28.29613 Y-16.00091
G01 X-28.19839 Y-15.92334
G01 X-28.12768 Y-15.87467
G01 X-28.04688 Y-15.86299
G01 X-27.93901 Y-15.85524
G01 X-25.34313 Y-15.85524
G01 X-25.18834 Y-15.86870
G01 X-24.96790 Y-15.92798
G01 X-24.82101 Y-15.99227
G01 X-24.74897 Y-16.08132
G01 X-24.60965 Y-16.27904
G01 X-22.69053 Y-16.28056
G01 X-24.60965 Y-16.27904
G01 X-24.69467 Y-16.43670
G01 X-24.82832 Y-16.63855
G01 X-24.95555 Y-16.71658
G01 X-25.14346 Y-16.81770
G01 X-25.26579 Y-16.89072
G01 X-25.38616 Y-16.99588
G01 X-28.17962 Y-19.79031
G01 X-28.22672 Y-19.84111
G01 X-28.31267 Y-19.96023
G01 X-28.38049 Y-20.10204
G01 X-28.42230 Y-20.25134
G01 X-28.43545 Y-20.39988
G01 X-28.43637 Y-23.37504
G01 X-28.45862 Y-23.55771
G01 X-28.50070 Y-23.61522
G01 X-28.65300 Y-23.77092
G01 X-28.70269 Y-23.80894
G01 X-28.99352 Y-23.88116
G01 X-29.16408 Y-23.95169
G01 X-29.22072 Y-23.98423
G01 X-29.32369 Y-24.04966
G01 X-29.46502 Y-24.17051
G01 X-29.58762 Y-24.29355
G01 X-29.66413 Y-24.35982
G01 X-29.78531 Y-24.45433
G01 X-29.88269 Y-24.51918
G01 X-30.22189 Y-24.38817
G01 X-30.30494 Y-24.44379
G01 X-30.47962 Y-24.55067
G01 X-30.57081 Y-24.60122
G01 X-30.65650 Y-24.62944
G01 X-30.69913 Y-24.63460
G01 X-32.77550 Y-24.63523
G01 X-32.88340 Y-24.64298
G01 X-33.16910 Y-24.67719
G01 X-33.21614 Y-24.79893
G01 X-33.26470 Y-25.00112
G01 X-33.27471 Y-25.13449
G01 X-33.27471 Y-25.38547
G01 X-33.26696 Y-25.49337
G01 X-33.25691 Y-25.56327
G01 X-33.22312 Y-25.70604
G01 X-33.15805 Y-25.77376
G01 X-33.09551 Y-25.83177
G01 X-32.90923 Y-25.87462
G01 X-32.77550 Y-25.88471
G01 X-30.25953 Y-25.88471
G01 X-30.15163 Y-25.87696
G01 X-30.08175 Y-25.86693
G01 X-29.84068 Y-25.79454
G01 X-29.72311 Y-25.73942
G04 P0 ( dwell for no time -- G64 should not smooth over this point )
G00 Z2.00000 ( retract )

G00 X-33.16910 Y-24.67719 ( rapid move to begin. )
G01 F100.00000
( Mill infeed pass 1/1 )
G01 Z-0.30000
G04 P0 ( dwell for no time -- G64 should not smooth over this point )
G01 F100.00000
G01 X-33.16910 Y-24.67719
G01 X-33.25975 Y-24.46858
G01 X-33.28998 Y-24.25997
G01 X-33.28998 Y-22.05995
G01 X-33.26013 Y-21.85271
G01 X-33.17065 Y-21.64545
G01 X-32.92996 Y-21.50770
G01 X-32.42963 Y-21.30031
G01 X-32.09549 Y-20.48711
G01 X-32.06864 Y-20.40664
G01 X-32.03369 Y-20.27740
G01 X-32.00832 Y-20.14299
G01 X-31.99475 Y-20.02196
G01 X-31.98998 Y-19.89996
G01 X-31.99219 Y-15.51694
G01 X-31.99994 Y-15.42090
G01 X-32.01843 Y-15.29550
G01 X-32.04322 Y-15.18356
G01 X-32.06562 Y-15.10309
G01 X-32.13067 Y-14.92065
G01 X-32.26813 Y-14.58877
G04 P0 ( dwell for no time -- G64 should not smooth over this point )
G00 Z2.00000 ( retract )

G00 X-36.89248 Y-14.97604 ( rapid move to begin. )
G01 F100.00000
( Mill infeed pass 1/1 )
G01 Z-0.30000
G04 P0 ( dwell for no time -- G64 should not smooth over this point )
G01 F100.00000
G01 X-36.89248 Y-14.97604
G01 X-36.70262 Y-15.21211
G01 X-36.59850 Y-15.32387
G01 X-36.45184 Y-15.46885
G01 X-36.34108 Y-15.57106
G01 X-34.53750 Y-17.37467
G01 X-34.45568 Y-17.44548
G01 X-34.39919 Y-17.48777
G01 X-34.30090 Y-17.55089
G01 X-34.17725 Y-17.61317
G01 X-33.93300 Y-17.72506
G04 P0 ( dwell for no time -- G64 should not smooth over this point )
G00 Z2.00000 ( retract )

G00 X-34.59881 Y-20.13412 ( rapid move to begin. )
G01 F100.00000
( Mill infeed pass 1/1 )
G01 Z-0.30000
G04 P0 ( dwell for no time -- G64 should not smooth over this point )
G01 F100.00000
G01 X-34.59881 Y-20.13412
G01 X-34.71758 Y-20.07926
G01 X-34.93643 Y-19.99673
G01 X-35.05830 Y-19.96006
G01 X-35.31370 Y-19.89938
G01 X-35.48413 Y-19.82831
G01 X-35.64181 Y-19.73224
G01 X-35.78192 Y-19.61190
G01 X-35.83071 Y-19.55803
G01 X-35.90206 Y-19.47169
G01 X-35.99863 Y-19.31429
G01 X-36.06907 Y-19.14357
G01 X-36.10397 Y-19.00469
G01 X-36.11903 Y-18.90108
G01 X-36.12695 Y-18.78193
G01 X-36.11677 Y-18.64401
G01 X-36.08446 Y-18.35549
G01 X-36.15850 Y-18.24482
G01 X-36.24969 Y-18.13806
G01 X-36.62048 Y-17.76727
G01 X-36.70216 Y-17.69651
G01 X-36.75868 Y-17.65419
G01 X-36.98047 Y-17.53484
G01 X-37.05245 Y-17.50799
G01 X-37.23825 Y-17.45549
G01 X-37.44849 Y-17.42735
G01 X-37.47181 Y-17.42570
G01 X-37.60528 Y-17.47253
G01 X-37.64590 Y-17.46070
G01 X-38.58161 Y-17.45966
G01 X-38.64823 Y-17.42801
G01 X-38.84511 Y-17.31937
G01 X-39.01562 Y-17.20479
G01 X-39.17564 Y-17.07518
G01 X-39.32149 Y-16.93349
G01 X-39.40272 Y-16.84223
G01 X-39.47201 Y-16.75595
G01 X-39.56815 Y-16.62016
G01 X-39.67269 Y-16.44533
G01 X-39.73624 Y-16.32054
G01 X-39.78336 Y-16.21516
G01 X-39.90116 Y-16.17830
G01 X-39.97315 Y-16.15145
G01 X-40.18387 Y-16.04025
G01 X-40.39807 Y-15.88300
G01 X-40.43972 Y-15.85656
G01 X-40.52915 Y-15.81340
G01 X-40.62430 Y-15.78099
G01 X-40.73495 Y-15.75379
G01 X-40.85989 Y-15.74411
G01 X-42.20817 Y-15.74472
G01 X-42.31190 Y-15.73754
G01 X-42.38127 Y-15.72796
G01 X-42.63583 Y-15.57162
G01 X-42.80129 Y-15.50259
G01 X-42.98594 Y-15.45803
G01 X-43.16997 Y-15.44295
G01 X-43.35404 Y-15.45773
G01 X-43.49598 Y-15.49049
G01 X-43.59224 Y-15.52329
G01 X-43.72834 Y-15.58511
G01 X-43.91983 Y-15.70370
G01 X-44.03283 Y-15.76695
G01 X-44.24040 Y-15.85831
G01 X-44.38449 Y-15.91333
G01 X-44.42275 Y-16.07345
G01 X-44.44776 Y-16.21041
G01 X-44.46539 Y-16.34556
G01 X-44.47611 Y-16.48257
G01 X-44.47974 Y-16.62925
G01 X-44.47588 Y-16.76286
G01 X-44.46509 Y-16.89720
G01 X-44.44710 Y-17.03354
G01 X-44.40319 Y-17.25328
G01 X-44.34919 Y-17.44744
G01 X-44.22877 Y-17.58173
G01 X-44.11528 Y-17.69440
G01 X-43.96565 Y-17.82501
G01 X-43.79105 Y-17.87200
G01 X-43.67756 Y-17.89628
G01 X-43.55915 Y-17.91630
G01 X-43.39455 Y-17.93542
G01 X-43.23217 Y-17.94421
G01 X-43.11764 Y-17.94441
G01 X-42.96898 Y-17.93733
G01 X-42.85320 Y-17.92605
G01 X-42.67484 Y-17.89872
G01 X-42.55242 Y-17.87301
G01 X-42.44139 Y-17.84487
G01 X-42.27833 Y-17.79516
G01 X-42.03014 Y-17.80149
G01 X-41.84132 Y-17.82285
G01 X-41.65864 Y-17.85772
G01 X-41.54995 Y-17.88528
G01 X-41.41147 Y-17.92727
G01 X-41.27998 Y-18.04995
G01 X-39.82042 Y-19.50951
G01 X-39.72822 Y-19.62361
G01 X-39.63665 Y-19.72691
G01 X-39.61790 Y-19.90217
G01 X-39.60449 Y-19.98754
G01 X-39.56614 Y-20.15978
G01 X-39.50830 Y-20.31251
G01 X-39.47658 Y-20.37961
G01 X-39.37005 Y-20.54962
G01 X-39.28770 Y-20.64446
G01 X-35.87750 Y-24.05466
G01 X-35.79569 Y-24.12548
G01 X-35.73920 Y-24.16777
G01 X-35.51768 Y-24.28697
G01 X-35.37709 Y-24.34311
G01 X-35.25893 Y-24.38494
G04 P0 ( dwell for no time -- G64 should not smooth over this point )
G00 Z2.00000 ( retract )

G00 X-39.28778 Y-28.97518 ( rapid move to begin. )
G01 F100.00000
( Mill infeed pass 1/1 )
G01 Z-0.30000
G04 P0 ( dwell for no time -- G64 should not smooth over this point )
G01 F100.00000
G01 X-39.28778 Y-28.97518
G01 X-39.36629 Y-29.11015
G01 X-39.40127 Y-29.18003
G01 X-39.45580 Y-29.31119
G01 X-39.48816 Y-29.44236
G01 X-39.50086 Y-29.52069
G01 X-39.51072 Y-29.64231
G01 X-39.51072 Y-37.35431
G01 X-39.50297 Y-37.46221
G01 X-39.49291 Y-37.53208
G01 X-39.44671 Y-37.71016
G01 X-39.49182 Y-37.88344
G01 X-39.50249 Y-37.95540
G01 X-39.51072 Y-38.06655
G01 X-39.51072 Y-39.89428
G01 X-39.50297 Y-40.00221
G01 X-39.49291 Y-40.07208
G01 X-39.44671 Y-40.25016
G01 X-39.49131 Y-40.42004
G01 X-39.50198 Y-40.48991
G01 X-39.51069 Y-40.60436
G01 X-39.51072 Y-41.40545
G01 X-39.50297 Y-41.51335
G01 X-39.49291 Y-41.58323
G01 X-39.45799 Y-41.72956
G01 X-39.33500 Y-41.85054
G01 X-39.14483 Y-41.89471
G01 X-39.01148 Y-41.90472
G01 X-38.93716 Y-41.90472
G01 X-38.82923 Y-41.89694
G01 X-38.75936 Y-41.88691
G01 X-38.60178 Y-41.84813
G01 X-38.55240 Y-41.74470
G01 X-38.46533 Y-41.59395
G01 X-38.34140 Y-41.47246
G01 X-38.16995 Y-41.33136
G01 X-38.20386 Y-41.23708
G01 X-38.27008 Y-41.08138
G01 X-38.30526 Y-41.01089
G01 X-38.38336 Y-40.87952
G01 X-38.46888 Y-40.68943
G01 X-38.49977 Y-40.58389
G01 X-38.53358 Y-40.44711
G01 X-38.59515 Y-40.25008
G01 X-38.54613 Y-40.09545
G01 X-38.49987 Y-39.88831
G01 X-38.45433 Y-39.75679
G01 X-38.41044 Y-39.65605
G01 X-38.35225 Y-39.54937
G01 X-38.30432 Y-39.47663
G01 X-38.21826 Y-39.36535
G01 X-38.11354 Y-39.24996
G01 X-38.00838 Y-39.11763
G01 X-37.91598 Y-38.96998
G01 X-37.99886 Y-38.83657
G01 X-38.04653 Y-38.77056
G01 X-38.13777 Y-38.66068
G01 X-38.27498 Y-38.50604
G01 X-38.38547 Y-38.33513
G01 X-38.46848 Y-38.14928
G01 X-38.50724 Y-38.01588
G01 X-38.54163 Y-37.87686
G01 X-38.59464 Y-37.71008
G01 X-39.44671 Y-37.71016
G01 X-38.59464 Y-37.71008
G01 X-38.53701 Y-37.52159
G01 X-38.49962 Y-37.34839
G01 X-38.43053 Y-37.15616
G01 X-38.33310 Y-36.97752
G01 X-38.21011 Y-36.81534
G01 X-38.10231 Y-36.70960
G01 X-38.03571 Y-36.65342
G01 X-37.89693 Y-36.55713
G01 X-37.80889 Y-36.51141
G01 X-37.71433 Y-36.46719
G01 X-37.52185 Y-36.40577
G01 X-37.31918 Y-36.37519
G01 X-37.08019 Y-36.37267
G01 X-36.96109 Y-36.38172
G01 X-36.82779 Y-36.40567
G01 X-36.71209 Y-36.43569
G01 X-36.53246 Y-36.50839
G01 X-36.44265 Y-36.55959
G01 X-36.35761 Y-36.61253
G01 X-36.19264 Y-36.74623
G01 X-36.11484 Y-36.80264
G01 X-36.08603 Y-36.80854
G01 X-35.93244 Y-36.82426
G01 X-34.21268 Y-36.82296
G01 X-34.15589 Y-36.82563
G01 X-34.05281 Y-36.83391
G01 X-34.00615 Y-36.84422
G01 X-33.69551 Y-36.93226
G01 X-33.55713 Y-36.96520
G01 X-33.35023 Y-36.99698
G01 X-33.19958 Y-37.00986
G01 X-33.18993 Y-36.81999
G01 X-33.19457 Y-36.61461
G01 X-33.20179 Y-36.51542
G01 X-33.21647 Y-36.41796
G01 X-33.27717 Y-36.14636
G01 X-33.29643 Y-36.02528
G01 X-33.30684 Y-35.85997
G01 X-33.29206 Y-35.64984
G01 X-33.24626 Y-35.44344
G01 X-33.17319 Y-35.24654
G01 X-33.07258 Y-35.06142
G01 X-32.94576 Y-34.89315
G01 X-32.85823 Y-34.80232
G01 X-32.76783 Y-34.72048
G01 X-32.62854 Y-34.61738
G01 X-32.49404 Y-34.54243
G01 X-32.44339 Y-34.51677
G01 X-32.24588 Y-34.44349
G01 X-32.04012 Y-34.39833
G01 X-31.82996 Y-34.38294
G01 X-31.61988 Y-34.39864
G01 X-31.49862 Y-34.42259
G01 X-31.38084 Y-34.45411
G01 X-31.21635 Y-34.51634
G01 X-31.03154 Y-34.61758
G01 X-30.86285 Y-34.74385
G01 X-30.73202 Y-34.87351
G01 X-30.61432 Y-35.02365
G01 X-30.53994 Y-35.14486
G01 X-30.48737 Y-35.24682
G01 X-30.44134 Y-35.36259
G01 X-30.41373 Y-35.44413
G01 X-30.38881 Y-35.54600
G01 X-30.36882 Y-35.64989
G01 X-30.35404 Y-35.83290
G01 X-30.35536 Y-35.91420
G01 X-30.36329 Y-36.02304
G01 X-30.37959 Y-36.13089
G01 X-30.41292 Y-36.27605
G01 X-30.48635 Y-36.47361
G01 X-30.58732 Y-36.65855
G01 X-30.66115 Y-36.76005
G01 X-30.71368 Y-36.82726
G01 X-30.86250 Y-36.98159
G01 X-30.92894 Y-37.05995
G01 X-30.95221 Y-37.21095
G01 X-30.95473 Y-38.73637
G01 X-30.94695 Y-38.84427
G01 X-30.93692 Y-38.91415
G01 X-30.87985 Y-39.11989
G01 X-30.77591 Y-39.15941
G01 X-30.56194 Y-39.22814
G01 X-30.48615 Y-39.27485
G01 X-30.39379 Y-39.33960
G01 X-30.30652 Y-39.40843
G01 X-30.34187 Y-39.52293
G01 X-30.42310 Y-39.74866
G01 X-30.46473 Y-39.90025
G01 X-30.49770 Y-40.07221
G01 X-30.51640 Y-40.25171
G01 X-30.51967 Y-40.34066
G01 X-30.51561 Y-40.50101
G01 X-30.49466 Y-40.68755
G01 X-30.47782 Y-40.78018
G01 X-30.44038 Y-40.93398
G01 X-30.40276 Y-41.05445
G01 X-30.36997 Y-41.14419
G01 X-30.36997 Y-41.17000
G01 X-30.39184 Y-41.34498
G01 X-30.45747 Y-41.51998
G01 X-30.56684 Y-41.69499
G01 X-30.71995 Y-41.86999
G01 X-30.78495 Y-41.93497
G01 X-31.83600 Y-41.93497
G01 X-32.31998 Y-41.73451
G01 X-32.50494 Y-41.63723
G01 X-32.66069 Y-41.51071
G01 X-32.78721 Y-41.35496
G01 X-32.88452 Y-41.17000
G01 X-33.11754 Y-40.60741
G01 X-34.45589 Y-39.27094
G01 X-34.57412 Y-39.16586
G01 X-34.74326 Y-39.03581
G01 X-34.84255 Y-39.01503
G01 X-35.05975 Y-38.98367
G01 X-35.16963 Y-38.97478
G01 X-35.30981 Y-38.97000
G01 X-37.91598 Y-38.96998
G01 X-38.00838 Y-39.11763
G01 X-38.11354 Y-39.24996
G01 X-38.21826 Y-39.36535
G01 X-38.30432 Y-39.47663
G01 X-38.35225 Y-39.54937
G01 X-38.41044 Y-39.65605
G01 X-38.45433 Y-39.75679
G01 X-38.49987 Y-39.88831
G01 X-38.54613 Y-40.09545
G01 X-38.59515 Y-40.25008
G01 X-39.44671 Y-40.25016
G01 X-38.59515 Y-40.25008
G01 X-38.53358 Y-40.44711
G01 X-38.49977 Y-40.58389
G01 X-38.46888 Y-40.68943
G01 X-38.38336 Y-40.87952
G01 X-38.30526 Y-41.01089
G01 X-38.27008 Y-41.08138
G01 X-38.20386 Y-41.23708
G01 X-38.16995 Y-41.33136
G01 X-38.02504 Y-41.38143
G01 X-37.89997 Y-41.41810
G01 X-37.77983 Y-41.44759
G01 X-37.56581 Y-41.48595
G01 X-37.35944 Y-41.50591
G01 X-37.25263 Y-41.50957
G01 X-37.04153 Y-41.50838
G01 X-36.82533 Y-41.49250
G01 X-36.65372 Y-41.46659
G01 X-36.54679 Y-41.44462
G01 X-36.32665 Y-41.38516
G01 X-36.04783 Y-41.29057
G01 X-35.78111 Y-41.35323
G01 X-35.61845 Y-41.53286
G01 X-35.65990 Y-41.66309
G01 X-35.72175 Y-41.82745
G01 X-35.77217 Y-42.00835
G01 X-35.78487 Y-42.08668
G01 X-35.79472 Y-42.20832
G01 X-35.79472 Y-42.71066
G01 X-35.78697 Y-42.81856
G01 X-35.77374 Y-42.90870
G01 X-35.69393 Y-43.01467
G01 X-35.64849 Y-43.06367
G01 X-33.38444 Y-45.32772
G01 X-33.30263 Y-45.39854
G01 X-33.24614 Y-45.44083
G01 X-33.12688 Y-45.51507
G01 X-33.02767 Y-45.51736
G01 X-32.87166 Y-45.50743
G01 X-32.77819 Y-45.41751
G01 X-32.69684 Y-45.34698
G01 X-32.61909 Y-45.29872
G01 X-32.53346 Y-45.27052
G01 X-32.49084 Y-45.26537
G01 X-30.89448 Y-45.26473
G01 X-30.71271 Y-45.26041
G01 X-30.52211 Y-45.26846
G01 X-30.45219 Y-45.49666
G01 X-30.48005 Y-45.58695
G01 X-30.56458 Y-45.82274
G01 X-30.59575 Y-45.93366
G01 X-30.62483 Y-46.06572
G01 X-30.64157 Y-46.16945
G01 X-30.65282 Y-46.27202
G01 X-30.65981 Y-46.45520
G01 X-30.65645 Y-46.55696
G01 X-30.64784 Y-46.65914
G01 X-30.63392 Y-46.76211
G01 X-30.61432 Y-46.86673
G01 X-30.58869 Y-46.97339
G01 X-30.55234 Y-47.09589
G01 X-30.47053 Y-47.32071
G01 X-30.43928 Y-47.42924
G01 X-30.47053 Y-47.32071
G01 X-30.56039 Y-47.07072
G01 X-30.60875 Y-46.89203
G01 X-30.63004 Y-46.78538
G01 X-30.64535 Y-46.68075
G01 X-30.65513 Y-46.57776
G01 X-30.65955 Y-46.47560
G01 X-30.65877 Y-46.37385
G01 X-30.65092 Y-46.25083
G01 X-30.63842 Y-46.14708
G01 X-30.62016 Y-46.04156
G01 X-30.59575 Y-45.93366
G01 X-30.56458 Y-45.82274
G01 X-30.48005 Y-45.58695
G01 X-30.45219 Y-45.49666
G01 X-30.52211 Y-45.26846
G01 X-30.45379 Y-45.10105
G01 X-30.40522 Y-44.89884
G01 X-30.39956 Y-44.84614
G01 X-30.39524 Y-44.76549
G01 X-30.39524 Y-44.57446
G01 X-30.40299 Y-44.46656
G01 X-30.41305 Y-44.39669
G01 X-30.48236 Y-44.16237
G01 X-30.55869 Y-44.13385
G01 X-30.76108 Y-44.08521
G01 X-30.89448 Y-44.07520
G01 X-32.33735 Y-44.07692
G01 X-32.41157 Y-44.07329
G01 X-32.50169 Y-44.06481
G01 X-32.64929 Y-44.02681
G01 X-32.79219 Y-43.96166
G01 X-32.88472 Y-43.90029
G01 X-32.93105 Y-43.86506
G01 X-32.97961 Y-43.81962
G01 X-34.94225 Y-41.85549
G01 X-35.02424 Y-41.78445
G01 X-35.08075 Y-41.74216
G01 X-35.30227 Y-41.62293
G01 X-35.37422 Y-41.59608
G01 X-35.61845 Y-41.53286
G04 P0 ( dwell for no time -- G64 should not smooth over this point )
G00 Z2.00000 ( retract )

G00 X-53.99207 Y-27.88061 ( rapid move to begin. )
G01 F100.00000
( Mill infeed pass 1/1 )
G01 Z-0.30000
G04 P0 ( dwell for no time -- G64 should not smooth over this point )
G01 F100.00000
G01 X-53.99207 Y-27.88061
G01 X-54.14162 Y-27.81694
G01 X-54.29415 Y-27.74500
G01 X-54.41056 Y-27.67838
G01 X-54.51579 Y-27.60241
G01 X-54.59760 Y-27.53164
G01 X-55.70791 Y-26.42032
G01 X-55.83009 Y-26.32004
G01 X-55.89361 Y-26.27676
G01 X-56.03799 Y-26.19403
G01 X-56.19364 Y-26.12939
G01 X-56.39295 Y-26.07742
G01 X-56.52092 Y-26.06114
G01 X-56.62277 Y-26.05608
G01 X-61.37686 Y-26.05583
G01 X-61.57107 Y-26.07706
G01 X-61.73470 Y-26.11793
G01 X-61.85558 Y-26.16337
G01 X-61.95936 Y-26.21077
G01 X-62.06716 Y-26.27462
G01 X-62.13493 Y-26.31996
G01 X-62.25926 Y-26.42265
G01 X-62.47989 Y-26.64371
G01 X-62.54951 Y-26.72667
G01 X-62.60175 Y-26.79636
G01 X-62.68852 Y-26.94089
G01 X-62.72291 Y-27.01254
G01 X-62.77925 Y-27.15644
G01 X-62.81801 Y-27.30790
G01 X-62.83602 Y-27.42890
G01 X-62.84387 Y-27.56070
G01 X-62.84323 Y-32.11081
G01 X-62.84785 Y-32.20161
G01 X-62.86353 Y-32.30992
G01 X-62.94366 Y-32.41236
G01 X-63.11661 Y-32.56885
G01 X-63.20262 Y-32.59216
G01 X-63.34008 Y-32.62213
G01 X-63.52504 Y-32.67568
G01 X-63.74747 Y-32.77222
G01 X-63.95491 Y-32.89798
G01 X-64.11666 Y-33.02846
G01 X-64.21796 Y-33.12848
G01 X-64.30790 Y-33.22897
G01 X-64.44823 Y-33.42670
G01 X-64.53454 Y-33.58937
G01 X-64.58532 Y-33.70788
G01 X-64.64094 Y-33.87057
G01 X-64.69035 Y-34.10801
G01 X-64.70706 Y-34.34997
G01 X-64.69068 Y-34.59198
G01 X-64.64137 Y-34.82950
G01 X-64.60292 Y-34.94362
G01 X-64.55715 Y-35.06412
G01 X-64.44826 Y-35.27326
G01 X-64.30815 Y-35.47120
G01 X-64.14305 Y-35.64887
G01 X-64.04519 Y-35.73104
G01 X-63.95448 Y-35.80138
G01 X-63.91151 Y-35.82982
G01 X-63.74757 Y-35.92787
G01 X-63.60838 Y-35.99048
G01 X-63.52497 Y-36.02416
G01 X-63.46307 Y-36.04362
G01 X-63.29149 Y-36.08967
G01 X-63.05123 Y-36.12264
G01 X-62.83937 Y-36.12393
G01 X-62.68425 Y-36.10798
G01 X-62.55385 Y-36.08639
G01 X-62.33498 Y-36.02411
G01 X-62.11235 Y-35.92797
G01 X-61.90503 Y-35.80199
G01 X-61.71684 Y-35.64890
G01 X-61.55131 Y-35.47161
G01 X-61.41141 Y-35.27344
G01 X-61.30006 Y-35.05835
G01 X-61.21862 Y-34.82945
G01 X-61.17140 Y-34.61327
G01 X-61.14961 Y-34.53646
G01 X-61.11677 Y-34.49259
G01 X-61.04595 Y-34.41075
G01 X-60.45609 Y-33.82226
G01 X-60.35982 Y-33.70577
G01 X-60.26363 Y-33.58096
G01 X-60.21581 Y-33.52709
G01 X-60.12622 Y-33.43351
G01 X-60.00181 Y-33.32663
G04 P0 ( dwell for no time -- G64 should not smooth over this point )
G00 Z2.00000 ( retract )

G00 X-72.51212 Y-21.94961 ( rapid move to begin. )
G01 F100.00000
( Mill infeed pass 1/1 )
G01 Z-0.30000
G04 P0 ( dwell for no time -- G64 should not smooth over this point )
G01 F100.00000
G01 X-72.51212 Y-21.94961
G01 X-72.34489 Y-22.07735
G01 X-72.18388 Y-22.18223
G01 X-72.05678 Y-22.25246
G01 X-71.90567 Y-22.32139
G01 X-71.78101 Y-22.39632
G01 X-71.71530 Y-22.44428
G01 X-71.62470 Y-22.52228
G01 X-71.51898 Y-22.63953
G01 X-71.48812 Y-22.67842
G01 X-71.45109 Y-22.73490
G01 X-71.39150 Y-22.83574
G01 X-71.32079 Y-23.00630
G01 X-71.27776 Y-23.18591
G01 X-71.26290 Y-23.36998
G01 X-71.27745 Y-23.55411
G01 X-71.32066 Y-23.73366
G01 X-71.39155 Y-23.90417
G01 X-71.48840 Y-24.06134
G01 X-71.60793 Y-24.20201
G01 X-71.74855 Y-24.32162
G01 X-71.90598 Y-24.41799
G01 X-72.03879 Y-24.47511
G01 X-72.10638 Y-24.49759
G01 X-72.25596 Y-24.53178
G01 X-72.35906 Y-24.54209
G01 X-72.43999 Y-24.54615
G01 X-72.53826 Y-24.54074
G01 X-72.62398 Y-24.53170
G01 X-72.75624 Y-24.50191
G01 X-72.80336 Y-24.48834
G01 X-72.92459 Y-24.44057
G01 X-72.97384 Y-24.41771
G01 X-73.07964 Y-24.35576
G01 X-73.29218 Y-24.20503
G01 X-73.46140 Y-24.18580
G01 X-73.85708 Y-24.18522
G01 X-73.96203 Y-24.19241
G01 X-74.03142 Y-24.20201
G01 X-74.28596 Y-24.35804
G01 X-74.45644 Y-24.42881
G01 X-74.63584 Y-24.47254
G01 X-74.81997 Y-24.48651
G01 X-75.00402 Y-24.47191
G01 X-75.18370 Y-24.42936
G01 X-75.40922 Y-24.33417
G01 X-75.58689 Y-24.26813
G01 X-75.74133 Y-24.22472
G01 X-75.86040 Y-24.20046
G04 P0 ( dwell for no time -- G64 should not smooth over this point )
G00 Z2.00000 ( retract )

G00 X-74.21875 Y-19.75183 ( rapid move to begin. )
G01 F100.00000
( Mill infeed pass 1/1 )
G01 Z-0.30000
G04 P0 ( dwell for no time -- G64 should not smooth over this point )
G01 F100.00000
G01 X-74.21875 Y-19.75183
G01 X-74.16391 Y-19.55444
G01 X-74.13709 Y-19.48246
G01 X-74.01776 Y-19.26072
G01 X-73.97544 Y-19.20420
G01 X-73.90465 Y-19.12244
G01 X-72.90117 Y-18.11896
G01 X-72.82271 Y-18.05066
G01 X-72.76663 Y-18.00819
G01 X-72.51388 Y-17.94944
G01 X-72.22863 Y-17.84881
G01 X-72.12584 Y-17.82023
G01 X-72.01944 Y-17.79852
G01 X-71.95637 Y-17.80990
G01 X-71.81210 Y-17.84568
G01 X-71.51395 Y-17.94916
G04 P0 ( dwell for no time -- G64 should not smooth over this point )
G00 Z2.00000 ( retract )

G00 X-79.97007 Y-28.14536 ( rapid move to begin. )
G01 F100.00000
( Mill infeed pass 1/1 )
G01 Z-0.30000
G04 P0 ( dwell for no time -- G64 should not smooth over this point )
G01 F100.00000
G01 X-79.97007 Y-28.14536
G01 X-80.10431 Y-27.73075
G01 X-80.15976 Y-27.50739
G01 X-80.18615 Y-27.36210
G01 X-80.20507 Y-27.21493
G01 X-80.21696 Y-27.05141
G01 X-80.21955 Y-26.94973
G01 X-80.20987 Y-26.69715
G01 X-80.18897 Y-26.51719
G01 X-80.17200 Y-26.41552
G01 X-80.13189 Y-26.23175
G01 X-80.06997 Y-26.01699
G01 X-80.06992 Y-22.82360
G01 X-79.81986 Y-22.21987
G01 X-79.74792 Y-22.06785
G01 X-79.70543 Y-21.99058
G01 X-79.60957 Y-21.84220
G01 X-79.51290 Y-21.71969
G01 X-79.42994 Y-21.62993
G01 X-76.16904 Y-18.37065
G01 X-76.02921 Y-18.25333
G01 X-75.87480 Y-18.14921
G01 X-75.74793 Y-18.07942
G01 X-75.66878 Y-18.04175
G01 X-75.46645 Y-17.95645
G01 X-75.42357 Y-17.91355
G01 X-75.33000 Y-17.87479
G01 X-75.16129 Y-17.78607
G01 X-75.01926 Y-17.67070
G01 X-74.90389 Y-17.52867
G01 X-74.81517 Y-17.35999
G01 X-74.70173 Y-17.08612
G01 X-74.83262 Y-16.86474
G01 X-74.86454 Y-16.79489
G01 X-74.93693 Y-16.55379
G01 X-74.94697 Y-16.48391
G01 X-74.95474 Y-16.37604
G01 X-74.95474 Y-15.99832
G01 X-74.94488 Y-15.87675
G01 X-74.92502 Y-15.75999
G01 X-74.87049 Y-15.50220
G01 X-74.83991 Y-15.31412
G01 X-74.87049 Y-15.50220
G01 X-74.92502 Y-15.75999
G01 X-74.94488 Y-15.87675
G01 X-74.95474 Y-15.99832
G01 X-74.95474 Y-16.37604
G01 X-74.94697 Y-16.48391
G01 X-74.93693 Y-16.55379
G01 X-74.86454 Y-16.79489
G01 X-74.83262 Y-16.86474
G01 X-74.70173 Y-17.08612
G01 X-74.51423 Y-17.02923
G01 X-74.37638 Y-16.97299
G01 X-74.25406 Y-16.90124
G01 X-74.19571 Y-16.86075
G01 X-74.05266 Y-16.73553
G01 X-73.98029 Y-16.53276
G01 X-73.95886 Y-16.45681
G01 X-73.85670 Y-16.20738
G01 X-73.79693 Y-16.03804
G01 X-73.88167 Y-15.89453
G01 X-73.92599 Y-15.83418
G01 X-74.00097 Y-15.74676
G01 X-74.10242 Y-15.64531
G01 X-74.18431 Y-15.57442
G01 X-74.24082 Y-15.53210
G01 X-74.46228 Y-15.41292
G01 X-74.53424 Y-15.38608
G01 X-74.83991 Y-15.31412
G01 X-75.06170 Y-15.12725
G01 X-75.32807 Y-14.98498
G01 X-76.60206 Y-14.98496
G01 X-76.67287 Y-15.06103
G01 X-76.93000 Y-15.28625
G01 X-77.04493 Y-15.36791
G01 X-77.13510 Y-15.44056
G01 X-77.22921 Y-15.53083
G01 X-77.31872 Y-15.65506
G01 X-77.38402 Y-15.75999
G01 X-77.48626 Y-15.90015
